;FLAVOR:Marlin
;TIME:12841
;Filament used: 6.04938m
;Layer height: 0.1
;MINX:54.413
;MINY:37.2
;MINZ:0.3
;MAXX:155.587
;MAXY:172.8
;MAXZ:1.675
;Generated with Cura_SteamEngine 5.2.1
M82 ;absolute extrusion mode
;Profil Homepage: https://github.com/NilsRo/Cura_Anycubic_MegaS_Profile

;Slicer Information - (Support for OctoPrint Slicer Estimator)
;Slicer info:material_guid;0ff92885-617b-4144-a03c-9989872454bc
;Slicer info:material_id;generic_pla_175
;Slicer info:material_brand;Generic
;Slicer info:material_name;PLA
;Slicer info:filament_cost;[0.0]
;Slicer info:material_bed_temperature;60
;Slicer info:material_bed_temperature_layer_0;60
;Slicer info:material_print_temperature;200
;Slicer info:material_print_temperature_layer_0;205
;Slicer info:material_flow;100
;Slicer info:layer_height;0.1
;Slicer info:machine_nozzle_size;0.4
;Slicer info:wall_thickness;1.2000000000000002
;Slicer info:speed_print;50.0
;Slicer info:speed_topbottom;25.0
;Slicer info:travel_speed;100.0
;Slicer info:support;0
;Slicer info:retraction_speed;30
;Slicer info:retraction_amount;6
;Slicer info:layer_height;0.1
;Slicer info:infill_pattern;grid
;Slicer info:infill_sparse_density;25
;Slicer info:cool_fan_enabled;True
;Slicer info:cool_fan_speed;100
;Slicer info:sliced_at;Thu 16-03-2023 09:48:44
G21                                        ; metric values 
G90                                        ; absolute positioning 
M82                                        ; set extruder to absolute mode 
M107                                       ; start with the fan off 
M140 S60   ; Start heating the bed 
G4 S60                                     ; wait 1 minute 
M104 S205 ; start heating the hot end 
M190 S60   ; wait for bed 
M109 S205 ; wait for hotend 
M300 S1000 P500                            ; BEEP heating done 
G28 X0 Y10 Z0                              ; move X/Y to min endstops 
M420 S1                                    ; Enable leveling 
M420 Z2.0                                  ; Set leveling fading height to 2 mm 
G0 Z0.15                                   ; lift nozzle a bit 
G92 E0                                     ; zero the extruded length 
G1 X50 E20 F500                            ; Extrude 20mm of filament in a 5cm line. 
G92 E0                                     ; zero the extruded length again 
G1 E-2 F500                                ; Retract a little 
G1 X50 F500                                ; wipe away from the filament line
G1 X100 F9000                              ; Quickly wipe away from the filament line
G92 E0
G92 E0
G1 F1800 E-6
;LAYER_COUNT:14
;LAYER:0
M106 S76.5
M205 X10 Y10
G1 F480 Z0.375
G0 F6000 X57.084 Y42.165 Z0.375
M205 X8 Y8
;TYPE:SKIRT
G1 F480 Z0.3
G1 F1800 E0
G1 F1200 X57.401 Y41.771 E0.02523
G1 X57.991 Y41.109 E0.06947
G1 X58.94 Y40.241 E0.13363
G1 X59.549 Y39.738 E0.17304
G1 X60.018 Y39.415 E0.20145
G1 X60.873 Y38.871 E0.25201
G1 X61.56 Y38.481 E0.29142
G1 X62.282 Y38.163 E0.33078
G1 X62.774 Y37.995 E0.35672
G1 X63.932 Y37.64 E0.41714
G1 X64.698 Y37.447 E0.45656
G1 X65.299 Y37.351 E0.48692
G1 X66.117 Y37.254 E0.52802
G1 X67.036 Y37.2 E0.57394
G1 X91.175 Y37.201 E1.77824
G1 X91.964 Y37.241 E1.81766
G1 X92.745 Y37.361 E1.85708
G1 X93.509 Y37.558 E1.89644
G1 X94.25 Y37.833 E1.93587
G1 X95.205 Y38.315 E1.98924
G1 X95.982 Y38.821 E2.0355
G1 X96.596 Y39.318 E2.07491
G1 X97.157 Y39.874 E2.11432
G1 X97.712 Y40.549 E2.15792
G1 X113.289 Y40.549 E2.93506
G1 X113.961 Y39.754 E2.98699
G1 X114.529 Y39.206 E3.02637
G1 X115.15 Y38.718 E3.06577
G1 X115.817 Y38.295 E3.10517
G1 X116.523 Y37.942 E3.14455
G1 X117.226 Y37.666 E3.18223
G1 X118.094 Y37.412 E3.22735
G1 X118.871 Y37.268 E3.26678
G1 X119.901 Y37.2 E3.31828
G1 X143.123 Y37.2 E4.47683
G1 X144.286 Y37.287 E4.53501
G1 X145.228 Y37.429 E4.58254
G1 X146.002 Y37.586 E4.62194
G1 X146.881 Y37.868 E4.668
G1 X147.966 Y38.288 E4.72604
G1 X148.687 Y38.61 E4.76544
G1 X149.507 Y39.092 E4.81289
G1 X150.156 Y39.529 E4.85193
G1 X151.048 Y40.229 E4.90849
G1 X151.757 Y40.874 E4.95631
G1 X152.313 Y41.435 E4.99572
G1 X152.668 Y41.86 E5.02335
G1 X153.12 Y42.442 E5.06011
G1 X153.653 Y43.22 E5.10716
G1 X153.914 Y43.656 E5.13251
G1 X154.362 Y44.523 E5.1812
G1 X154.653 Y45.185 E5.21728
G1 X154.99 Y46.107 E5.26625
G1 X155.135 Y46.596 E5.2917
G1 X155.325 Y47.383 E5.33209
G1 X155.422 Y47.903 E5.35848
G1 X155.527 Y48.685 E5.39785
G1 X155.554 Y49.332 E5.43015
G1 X155.555 Y57.37 E5.83117
G1 X155.515 Y58.159 E5.87058
G1 X155.38 Y59.014 E5.91377
G1 X155.163 Y60.021 E5.96516
G1 X154.958 Y60.784 E6.00458
G1 X154.518 Y61.86 E6.06257
G1 X154.071 Y62.756 E6.11253
G1 X153.478 Y63.751 E6.17032
G1 X153.049 Y64.363 E6.20761
G1 X152.42 Y65.148 E6.25779
G1 X152.08 Y65.52 E6.28293
G1 X151.535 Y66.06 E6.32121
G1 X151.161 Y66.396 E6.34629
G1 X150.536 Y66.902 E6.38641
G1 X150.129 Y67.198 E6.41152
G1 X149.325 Y67.71 E6.45907
G1 X148.514 Y68.16 E6.50535
G1 X147.805 Y68.508 E6.54475
G1 X147.086 Y68.776 E6.58303
G1 X146.113 Y69.084 E6.63395
G1 X145.63 Y69.278 E6.65992
G1 X144.972 Y69.638 E6.69734
G1 X144.527 Y69.962 E6.7248
G1 X144.151 Y70.298 E6.74996
G1 X143.803 Y70.678 E6.77566
G1 X143.41 Y71.202 E6.80834
G1 X143.119 Y71.739 E6.83881
G1 X142.91 Y72.234 E6.86562
G1 X142.761 Y72.726 E6.89127
G1 X142.662 Y73.217 E6.91626
G1 X142.609 Y73.731 E6.94204
G1 X142.626 Y74.497 E6.98026
G1 X142.703 Y75.019 E7.00659
G1 X142.862 Y75.649 E7.039
G1 X143.16 Y76.359 E7.07742
G1 X143.566 Y77.029 E7.1165
G1 X143.977 Y77.521 E7.14849
G1 X144.346 Y77.884 E7.17431
G1 X144.848 Y78.286 E7.2064
G1 X145.498 Y78.669 E7.24403
G1 X146.117 Y78.917 E7.2773
G1 X147.066 Y79.219 E7.32699
G1 X147.805 Y79.496 E7.36636
G1 X148.309 Y79.736 E7.39421
G1 X149.157 Y80.178 E7.44192
G1 X149.838 Y80.578 E7.48132
G1 X150.46 Y81.033 E7.51977
G1 X151.148 Y81.59 E7.56394
G1 X151.999 Y82.391 E7.62224
G1 X152.422 Y82.854 E7.65353
G1 X153.05 Y83.638 E7.70364
G1 X153.479 Y84.25 E7.74093
G1 X154.07 Y85.242 E7.79854
G1 X154.517 Y86.137 E7.84845
G1 X154.834 Y86.86 E7.88784
G1 X155.104 Y87.699 E7.93181
G1 X155.383 Y89.011 E7.99873
G1 X155.508 Y89.79 E8.03809
G1 X155.554 Y90.632 E8.08016
G1 X155.555 Y98.777 E8.48651
G1 X155.515 Y99.566 E8.52593
G1 X155.377 Y100.474 E8.57175
G1 X154.984 Y101.934 E8.64718
G1 X154.74 Y102.685 E8.68658
G1 X154.422 Y103.408 E8.72598
G1 X154.167 Y103.876 E8.75257
G1 X153.51 Y104.988 E8.81701
G1 X154.081 Y105.977 E8.87398
G1 X154.441 Y106.68 E8.91339
G1 X154.669 Y107.244 E8.94374
G1 X154.984 Y108.122 E8.99028
G1 X155.212 Y108.878 E9.02967
G1 X155.33 Y109.437 E9.05817
G1 X155.474 Y110.276 E9.10064
G1 X155.568 Y111.06 E9.14004
G1 X155.586 Y111.595 E9.16674
G1 X155.586 Y119.066 E9.53947
G1 X155.53 Y119.999 E9.58611
G1 X155.438 Y120.763 E9.6245
G1 X155.304 Y121.541 E9.66388
G1 X155.023 Y122.498 E9.71364
G1 X154.592 Y123.682 E9.77651
G1 X154.285 Y124.41 E9.81592
G1 X153.858 Y125.19 E9.86029
G1 X152.968 Y126.482 E9.93856
G1 X152.488 Y127.109 E9.97795
G1 X151.88 Y127.755 E10.02221
G1 X150.668 Y128.804 E10.10218
G1 X150.045 Y129.29 E10.1416
G1 X149.272 Y129.777 E10.18718
G1 X147.986 Y130.399 E10.25845
G1 X147.008 Y130.793 E10.31106
G1 X146.087 Y131.093 E10.35938
G1 X145.41 Y131.373 E10.39593
G1 X144.787 Y131.765 E10.43265
G1 X144.229 Y132.212 E10.46832
G1 X143.639 Y132.869 E10.51238
G1 X143.172 Y133.612 E10.55616
G1 X142.838 Y134.423 E10.59992
G1 X142.645 Y135.257 E10.64263
G1 X142.603 Y136 E10.67975
G1 X142.636 Y136.581 E10.70879
G1 X142.731 Y137.15 E10.73757
G1 X142.89 Y137.703 E10.76627
G1 X143.172 Y138.388 E10.80323
G1 X143.557 Y139.001 E10.83935
G1 X143.911 Y139.446 E10.86772
G1 X144.34 Y139.877 E10.89805
G1 X144.787 Y140.235 E10.92663
G1 X145.409 Y140.627 E10.96331
G1 X146.107 Y140.914 E11.00096
G1 X147.012 Y141.209 E11.04845
G1 X147.984 Y141.6 E11.10072
G1 X148.955 Y142.069 E11.15452
G1 X149.648 Y142.448 E11.19392
G1 X150.409 Y142.971 E11.23999
G1 X151.647 Y144.043 E11.32169
G1 X152.217 Y144.589 E11.36107
G1 X152.801 Y145.275 E11.40602
G1 X153.591 Y146.429 E11.47579
G1 X154.004 Y147.103 E11.51523
G1 X154.248 Y147.592 E11.54249
G1 X154.684 Y148.546 E11.59482
G1 X154.976 Y149.28 E11.63423
G1 X155.265 Y150.4 E11.69194
G1 X155.456 Y151.456 E11.74548
G1 X155.557 Y152.239 E11.78487
G1 X155.581 Y152.838 E11.81477
G1 X155.587 Y160.351 E12.1896
G1 X155.529 Y161.307 E12.23738
G1 X155.434 Y162.081 E12.27629
G1 X155.298 Y162.859 E12.31569
G1 X155.014 Y163.82 E12.36568
G1 X154.65 Y164.811 E12.41835
G1 X154.34 Y165.538 E12.45778
G1 X154.08 Y166.027 E12.48542
G1 X153.648 Y166.774 E12.52847
G1 X153.219 Y167.437 E12.56786
G1 X152.866 Y167.889 E12.59648
G1 X152.306 Y168.555 E12.63989
G1 X151.768 Y169.133 E12.67928
G1 X151.338 Y169.52 E12.70815
G1 X150.656 Y170.09 E12.75249
G1 X150.025 Y170.565 E12.79189
G1 X149.532 Y170.872 E12.82087
G1 X148.588 Y171.413 E12.87515
G1 X147.884 Y171.771 E12.91455
G1 X147.036 Y172.098 E12.9599
G1 X145.677 Y172.461 E13.03007
G1 X144.905 Y172.626 E13.06946
G1 X144.338 Y172.696 E13.09796
G1 X143.472 Y172.771 E13.14133
G1 X142.799 Y172.8 E13.17494
G1 X119.894 Y172.8 E14.31767
G1 X119.105 Y172.76 E14.35708
G1 X118.325 Y172.641 E14.39645
G1 X117.56 Y172.443 E14.43587
G1 X116.916 Y172.214 E14.46997
G1 X116.191 Y171.901 E14.50937
G1 X115.501 Y171.516 E14.54879
G1 X114.854 Y171.064 E14.58817
G1 X114.256 Y170.548 E14.62757
G1 X113.713 Y169.975 E14.66696
G1 X113.232 Y169.351 E14.70626
G1 X97.774 Y169.35 E15.47747
G1 X97.235 Y170.035 E15.52095
G1 X96.687 Y170.603 E15.56033
G1 X96.083 Y171.113 E15.59977
G1 X95.432 Y171.559 E15.63914
G1 X94.428 Y172.085 E15.69568
G1 X93.569 Y172.415 E15.74159
G1 X92.807 Y172.622 E15.78099
G1 X92.028 Y172.75 E15.82037
G1 X91.148 Y172.8 E15.86435
G1 X66.897 Y172.799 E17.07424
G1 X65.877 Y172.732 E17.12523
G1 X65.316 Y172.658 E17.15346
G1 X64.336 Y172.464 E17.2033
G1 X63.499 Y172.242 E17.24651
G1 X62.747 Y172.001 E17.2859
G1 X62.206 Y171.774 E17.31517
G1 X61.216 Y171.313 E17.36966
G1 X60.518 Y170.944 E17.40905
G1 X59.757 Y170.437 E17.45467
G1 X58.66 Y169.519 E17.52603
G1 X58.081 Y168.982 E17.56543
G1 X57.695 Y168.556 E17.59411
G1 X57.135 Y167.89 E17.63752
G1 X56.658 Y167.26 E17.67695
G1 X56.351 Y166.771 E17.70575
G1 X55.919 Y166.023 E17.74885
G1 X55.559 Y165.32 E17.78825
G1 X55.33 Y164.753 E17.81876
G1 X55.014 Y163.871 E17.8655
G1 X54.786 Y163.115 E17.9049
G1 X54.669 Y162.557 E17.93334
G1 X54.526 Y161.722 E17.9756
G1 X54.432 Y160.938 E18.015
G1 X54.414 Y160.405 E18.04161
G1 X54.413 Y111.643 E20.47435
G1 X54.471 Y110.693 E20.52184
G1 X54.566 Y109.919 E20.56074
G1 X54.702 Y109.141 E20.60014
G1 X54.986 Y108.18 E20.65014
G1 X55.35 Y107.189 E20.70281
G1 X55.66 Y106.462 E20.74224
G1 X55.92 Y105.973 E20.76987
G1 X56.495 Y104.978 E20.8272
G1 X56.196 Y104.523 E20.85437
G1 X55.726 Y103.677 E20.90265
G1 X55.378 Y102.968 E20.94205
G1 X55.012 Y101.917 E20.99757
G1 X54.714 Y100.81 E21.05477
G1 X54.548 Y100.038 E21.09416
G1 X54.446 Y99.128 E21.13985
G1 X54.445 Y49.222 E23.62967
G1 X54.485 Y48.433 E23.66908
G1 X54.623 Y47.528 E23.71476
G1 X55.016 Y46.066 E23.79028
G1 X55.26 Y45.315 E23.82968
G1 X55.578 Y44.592 E23.86909
G1 X55.833 Y44.124 E23.89568
G1 X56.445 Y43.088 E23.95571
G1 X57.084 Y42.165 E24.01171
M205 X10 Y10
G0 F6000 X57.395 Y42.416
M205 X8 Y8
G1 F1200 X57.712 Y42.022 E24.03694
G1 X58.483 Y41.201 E24.09313
G1 X59.21 Y40.536 E24.14229
G1 X59.804 Y40.047 E24.18067
G1 X60.233 Y39.753 E24.20662
G1 X61.088 Y39.209 E24.25718
G1 X61.757 Y38.83 E24.29554
G1 X62.574 Y38.474 E24.34
G1 X64.049 Y38.022 E24.41697
G1 X64.795 Y37.835 E24.45533
G1 X65.347 Y37.748 E24.48321
G1 X66.165 Y37.651 E24.52431
G1 X67.036 Y37.6 E24.56784
G1 X91.175 Y37.601 E25.77214
G1 X91.943 Y37.641 E25.81051
G1 X92.703 Y37.761 E25.84889
G1 X93.447 Y37.958 E25.88729
G1 X94.165 Y38.232 E25.92563
G1 X95.012 Y38.664 E25.97307
G1 X95.763 Y39.157 E26.01789
G1 X96.359 Y39.643 E26.05625
G1 X96.902 Y40.188 E26.09464
G1 X97.514 Y40.949 E26.14336
G1 X113.473 Y40.949 E26.93955
G1 X114.267 Y40.013 E27.00079
G1 X114.822 Y39.481 E27.03915
G1 X115.43 Y39.01 E27.07752
G1 X116.084 Y38.604 E27.11592
G1 X116.776 Y38.269 E27.15428
G1 X117.468 Y38.011 E27.19112
G1 X118.206 Y37.797 E27.22946
G1 X118.963 Y37.66 E27.26784
G1 X119.901 Y37.6 E27.31473
G1 X143.123 Y37.6 E28.47328
G1 X144.226 Y37.683 E28.52847
G1 X145.168 Y37.825 E28.57599
G1 X145.922 Y37.979 E28.61439
G1 X146.736 Y38.241 E28.65705
G1 X147.821 Y38.661 E28.71509
G1 X148.523 Y38.976 E28.75348
G1 X149.283 Y39.424 E28.7975
G1 X149.932 Y39.861 E28.83653
G1 X150.779 Y40.525 E28.89022
G1 X151.488 Y41.17 E28.93804
G1 X152.029 Y41.717 E28.97643
G1 X152.352 Y42.105 E29.00161
G1 X152.804 Y42.687 E29.03838
G1 X153.309 Y43.425 E29.08299
G1 X153.57 Y43.861 E29.10834
G1 X153.995 Y44.684 E29.15455
G1 X154.286 Y45.346 E29.19063
G1 X154.607 Y46.22 E29.23708
G1 X154.752 Y46.709 E29.26253
G1 X154.932 Y47.456 E29.30086
G1 X155.029 Y47.976 E29.32725
G1 X155.13 Y48.738 E29.3656
G1 X155.154 Y49.332 E29.39526
G1 X155.155 Y57.37 E29.79628
G1 X155.115 Y58.138 E29.83465
G1 X154.989 Y58.93 E29.87466
G1 X154.772 Y59.937 E29.92605
G1 X154.571 Y60.679 E29.9644
G1 X154.16 Y61.681 E30.01844
G1 X153.713 Y62.577 E30.06839
G1 X153.151 Y63.522 E30.12324
G1 X152.722 Y64.134 E30.16053
G1 X152.124 Y64.878 E30.20815
G1 X151.784 Y65.25 E30.2333
G1 X151.267 Y65.763 E30.26963
G1 X150.893 Y66.099 E30.29472
G1 X150.3 Y66.579 E30.33278
G1 X149.893 Y66.875 E30.35789
G1 X149.131 Y67.361 E30.40298
G1 X148.32 Y67.811 E30.44925
G1 X147.629 Y68.148 E30.4876
G1 X146.965 Y68.394 E30.52293
G1 X145.82 Y68.757 E30.58286
G1 X145.224 Y69.03 E30.61556
G1 X144.634 Y69.372 E30.64959
G1 X143.96 Y69.914 E30.69274
G1 X143.49 Y70.428 E30.72748
G1 X143.161 Y70.868 E30.75489
G1 X142.805 Y71.451 E30.78897
G1 X142.536 Y72.094 E30.82375
G1 X142.33 Y72.772 E30.8591
G1 X142.21 Y73.581 E30.8999
G1 X142.209 Y74.414 E30.94146
G1 X142.311 Y75.098 E30.97596
G1 X142.486 Y75.787 E31.01143
G1 X142.811 Y76.557 E31.05313
G1 X143.239 Y77.258 E31.0941
G1 X143.767 Y77.895 E31.13538
G1 X144.296 Y78.365 E31.17068
G1 X144.737 Y78.686 E31.1979
G1 X145.217 Y78.966 E31.22562
G1 X145.818 Y79.242 E31.25862
G1 X146.945 Y79.6 E31.31761
G1 X147.665 Y79.871 E31.35599
G1 X148.124 Y80.091 E31.38139
G1 X148.972 Y80.533 E31.42909
G1 X149.635 Y80.923 E31.46747
G1 X150.208 Y81.344 E31.50294
G1 X150.896 Y81.901 E31.54711
G1 X151.703 Y82.661 E31.60241
G1 X152.126 Y83.124 E31.6337
G1 X152.723 Y83.867 E31.68125
G1 X153.152 Y84.479 E31.71854
G1 X153.712 Y85.421 E31.77321
G1 X154.159 Y86.316 E31.82312
G1 X154.467 Y87.021 E31.86151
G1 X154.777 Y88.083 E31.9167
G1 X154.992 Y89.094 E31.96827
G1 X155.113 Y89.853 E32.00661
G1 X155.154 Y90.632 E32.04553
G1 X155.155 Y98.777 E32.45189
G1 X155.115 Y99.545 E32.49025
G1 X154.981 Y100.402 E32.53353
G1 X154.597 Y101.83 E32.6073
G1 X154.359 Y102.561 E32.64566
G1 X153.997 Y103.377 E32.69019
G1 X153.036 Y105.003 E32.78442
G1 X153.303 Y105.429 E32.80951
G1 X153.735 Y106.177 E32.8526
G1 X154.085 Y106.862 E32.89098
G1 X154.292 Y107.379 E32.91876
G1 X154.607 Y108.257 E32.9653
G1 X154.829 Y108.994 E33.0037
G1 X154.935 Y109.504 E33.02969
G1 X155.079 Y110.343 E33.07216
G1 X155.186 Y111.241 E33.11728
G1 X155.186 Y119.066 E33.50767
G1 X155.133 Y119.951 E33.5519
G1 X155.041 Y120.715 E33.59029
G1 X154.909 Y121.473 E33.62868
G1 X154.648 Y122.361 E33.67485
G1 X154.217 Y123.545 E33.73772
G1 X153.916 Y124.253 E33.7761
G1 X153.358 Y125.211 E33.83141
G1 X152.639 Y126.255 E33.89465
G1 X152.17 Y126.865 E33.93304
G1 X151.386 Y127.654 E33.98853
G1 X150.406 Y128.502 E34.05319
G1 X149.799 Y128.974 E34.09155
G1 X149.054 Y129.439 E34.13536
G1 X147.812 Y130.039 E34.20418
G1 X146.884 Y130.413 E34.2541
G1 X145.757 Y130.781 E34.31324
G1 X145.086 Y131.104 E34.3504
G1 X144.417 Y131.527 E34.38988
G1 X143.838 Y132.047 E34.42871
G1 X143.312 Y132.638 E34.46818
G1 X142.819 Y133.423 E34.51443
G1 X142.458 Y134.295 E34.56151
G1 X142.284 Y135.049 E34.60012
G1 X142.211 Y135.691 E34.63236
G1 X142.211 Y136.458 E34.67062
G1 X142.338 Y137.231 E34.7097
G1 X142.514 Y137.841 E34.74138
G1 X142.819 Y138.577 E34.78113
G1 X143.312 Y139.362 E34.82737
G1 X143.838 Y139.953 E34.86684
G1 X144.417 Y140.473 E34.90567
G1 X145.086 Y140.896 E34.94516
G1 X145.752 Y141.218 E34.98207
G1 X146.888 Y141.589 E35.04169
