;FLAVOR:Marlin
;TIME:12882
;Filament used: 10.6025m
;Layer height: 0.2
;MINX:56.278
;MINY:67.905
;MINZ:0.36
;MAXX:160.918
;MAXY:142.111
;MAXZ:31.385
;Generated with Cura_SteamEngine main
M82 ;absolute extrusion mode
;Profil Homepage: https://github.com/NilsRo/Cura_Anycubic_MegaS_Profile

;Slicer Information - (Support for OctoPrint Slicer Estimator)
;Slicer info:material_guid;0ff92885-617b-4144-a03c-9989872454bc
;Slicer info:material_id;generic_pla_175
;Slicer info:material_brand;Generic
;Slicer info:material_name;PLA
;Slicer info:material_bed_temperature;60
;Slicer info:material_bed_temperature_layer_0;60
;Slicer info:material_print_temperature;210
;Slicer info:material_print_temperature_layer_0;215
;Slicer info:material_flow;100
;Slicer info:layer_height;0.2
;Slicer info:wall_thickness;1.2000000000000002
;Slicer info:speed_print;50.0
;Slicer info:speed_topbottom;25.0
;Slicer info:travel_speed;100.0
;Slicer info:support;0
;Slicer info:retraction_speed;30
;Slicer info:retraction_amount;6
;Slicer info:layer_height;0.2
;Slicer info:infill_pattern;grid
;Slicer info:infill_sparse_density;25
;Slicer info:cool_fan_enabled;True
;Slicer info:cool_fan_speed;70
;Slicer info:sliced_at;Sun 12-02-2023 10:16:22
G21                                        ; metric values 
G90                                        ; absolute positioning 
M82                                        ; set extruder to absolute mode 
M107                                       ; start with the fan off 
M140 S60   ; Start heating the bed 
G4 S60                                     ; wait 1 minute 
M104 S215 ; start heating the hot end 
M190 S60   ; wait for bed 
M109 S215 ; wait for hotend 
M300 S1000 P500                            ; BEEP heating done 
G28 X0 Y10 Z0                              ; move X/Y to min endstops 
M420 S1                                    ; Enable leveling 
M420 Z2.0                                  ; Set leveling fading height to 2 mm 
G0 Z0.15                                   ; lift nozzle a bit 
G92 E0                                     ; zero the extruded length 
G1 X50 E20 F500                            ; Extrude 20mm of filament in a 5cm line. 
G92 E0                                     ; zero the extruded length again 
G1 E-2 F500                                ; Retract a little 
G1 X120 F4000                              ; Quickly wipe away from the filament line`
G92 E0
G92 E0
G1 F1800 E-6
;LAYER_COUNT:150
;LAYER:-6
M107
M205 X10 Y10
G0 F6000 X64.874 Y81.339 Z0.36
M205 X8 Y8
;TYPE:SUPPORT-INTERFACE
G1 F1800 E0
G1 F1125 X64.182 Y82.015 E0.11583
G1 X62.661 Y83.609 E0.37964
G1 X62.273 Y84.032 E0.44837
G1 X61.589 Y84.876 E0.57845
G1 X60.288 Y86.616 E0.83859
G1 X59.819 Y87.284 E0.93632
G1 X59.294 Y88.13 E1.05553
G1 X58.206 Y90.033 E1.318
G1 X57.761 Y90.881 E1.43267
G1 X57.298 Y91.925 E1.56942
G1 X56.948 Y92.912 E1.69481
G1 X56.655 Y93.98 E1.82741
G1 X56.445 Y95.101 E1.96397
G1 X56.329 Y96.067 E2.08047
G1 X56.279 Y97.117 E2.20633
G1 X56.305 Y98.182 E2.33389
G1 X56.433 Y99.477 E2.4897
G1 X56.734 Y101.097 E2.687
G1 X56.996 Y102.046 E2.80488
G1 X57.506 Y103.492 E2.98847
G1 X57.661 Y104.295 E3.08639
G1 X57.701 Y104.992 E3.16999
G1 X57.656 Y105.662 E3.25039
G1 X57.528 Y106.324 E3.33112
G1 X57.341 Y106.895 E3.40307
G1 X56.971 Y107.928 E3.53445
G1 X56.711 Y108.856 E3.64984
G1 X56.494 Y109.904 E3.77799
G1 X56.342 Y111.034 E3.91451
G1 X56.278 Y112.219 E4.05661
G1 X56.328 Y113.85 E4.25199
G1 X56.445 Y114.834 E4.37064
G1 X56.66 Y115.966 E4.5086
G1 X56.963 Y117.058 E4.64429
G1 X57.29 Y117.984 E4.76188
G1 X57.756 Y119.039 E4.89998
G1 X58.2 Y119.883 E5.01417
G1 X59.304 Y121.81 E5.28008
G1 X59.769 Y122.569 E5.38666
G1 X60.293 Y123.32 E5.49631
G1 X61.645 Y125.12 E5.76586
G1 X62.158 Y125.76 E5.86407
G1 X62.818 Y126.495 E5.98235
G1 X64.299 Y128.026 E6.2374
G1 X64.845 Y128.564 E6.32918
G1 X65.651 Y129.266 E6.45716
G1 X67.374 Y130.647 E6.72156
G1 X67.928 Y131.069 E6.80494
G1 X68.857 Y131.696 E6.93914
G1 X70.708 Y132.84 E7.19969
G1 X71.483 Y133.284 E7.30663
G1 X72.319 Y133.701 E7.4185
G1 X74.345 Y134.623 E7.68502
G1 X74.991 Y134.898 E7.76909
G1 X76.117 Y135.295 E7.91205
G1 X78.12 Y135.916 E8.16314
G1 X78.962 Y136.15 E8.26778
G1 X79.962 Y136.362 E8.39018
G1 X82.022 Y136.731 E8.64076
G1 X82.902 Y136.86 E8.74725
G1 X83.91 Y136.948 E8.86841
G1 X85.968 Y137.056 E9.11516
G1 X86.727 Y137.077 E9.20608
G1 X87.834 Y137.042 E9.33869
G1 X90.075 Y136.879 E9.60773
G1 X90.716 Y136.815 E9.68486
G1 X91.869 Y136.631 E9.82467
G1 X93.927 Y136.221 E10.07593
G1 X95.602 Y135.79 E10.28302
G1 X97.039 Y135.333 E10.46357
G1 X97.879 Y135.042 E10.57001
G1 X98.252 Y134.898 E10.61789
G1 X99.098 Y134.654 E10.72332
G1 X99.761 Y134.563 E10.80344
G1 X100.452 Y134.556 E10.88619
G1 X101.118 Y134.634 E10.96648
G1 X101.791 Y134.8 E11.04947
G1 X102.423 Y135.043 E11.13055
G1 X103.05 Y135.385 E11.21607
G1 X103.591 Y135.775 E11.29592
G1 X104.082 Y136.233 E11.37632
G1 X104.571 Y136.749 E11.46144
G1 X105.299 Y137.413 E11.57942
G1 X106.241 Y138.159 E11.72329
G1 X107.851 Y139.329 E11.9616
G1 X108.559 Y139.812 E12.06422
G1 X109.357 Y140.287 E12.17541
G1 X110.379 Y140.804 E12.31255
G1 X111.392 Y141.221 E12.44372
G1 X112.452 Y141.559 E12.57694
G1 X113.323 Y141.777 E12.68444
G1 X114.54 Y141.988 E12.83234
G1 X115.441 Y142.077 E12.94075
G1 X116.587 Y142.111 E13.07802
G1 X117.719 Y142.054 E13.21374
G1 X120.522 Y141.814 E13.55059
G1 X122.004 Y141.607 E13.72976
G1 X122.973 Y141.386 E13.84876
G1 X123.257 Y141.306 E13.88409
G1 X124.12 Y141.119 E13.98982
G1 X124.761 Y141.073 E14.06677
G1 X126.954 Y141.057 E14.32936
G1 X134.537 Y141.056 E15.23732
G1 X135.384 Y141.04 E15.33876
G1 X137.5 Y141.051 E15.59212
G1 X138.677 Y140.973 E15.73336
G1 X142.006 Y140.621 E16.13419
G1 X143.199 Y140.441 E16.27865
G1 X144.22 Y140.206 E16.4041
G1 X145.319 Y139.857 E16.54216
G1 X146.233 Y139.499 E16.6597
G1 X147.195 Y139.037 E16.78748
G1 X148.178 Y138.468 E16.92347
G1 X148.957 Y137.944 E17.03589
G1 X150.333 Y136.943 E17.23963
G1 X150.795 Y136.593 E17.30903
G1 X151.607 Y135.902 E17.43669
G1 X152.425 Y135.099 E17.57394
G1 X153.059 Y134.371 E17.68953
G1 X153.295 Y134.07 E17.73533
G1 X153.827 Y133.467 E17.83162
G1 X154.323 Y133.039 E17.91006
G1 X154.704 Y132.75 E17.96732
G1 X155.58 Y132.004 E18.10509
G1 X156.347 Y131.242 E18.23454
G1 X157.039 Y130.446 E18.36084
G1 X157.678 Y129.593 E18.48845
G1 X158.26 Y128.685 E18.61759
G1 X158.793 Y127.694 E18.75232
G1 X159.219 Y126.747 E18.87666
G1 X159.579 Y125.753 E19.00324
G1 X160.108 Y124.122 E19.20854
G1 X160.296 Y123.487 E19.28784
G1 X160.511 Y122.576 E19.39992
G1 X160.695 Y121.454 E19.53605
G1 X160.781 Y120.452 E19.65647
G1 X160.8 Y119.388 E19.78389
G1 X160.851 Y118.571 E19.88191
G1 X160.862 Y117.649 E19.99231
G1 X160.837 Y116.941 E20.07714
G1 X160.84 Y116.117 E20.1758
G1 X160.779 Y115.071 E20.30126
G1 X160.795 Y115.054 E20.30405
G1 X160.78 Y114.271 E20.39782
G1 X160.797 Y114.068 E20.42222
G1 X160.85 Y112.79 E20.57537
G1 X160.85 Y106.435 E21.3363
G1 X160.84 Y105.865 E21.40456
G1 X160.767 Y103.919 E21.63773
G1 X160.909 Y100.612 E22.03406
G1 X160.918 Y99.525 E22.16422
G1 X160.826 Y98.136 E22.3309
G1 X160.85 Y97.083 E22.45701
G1 X160.85 Y94.935 E22.71421
G1 X160.833 Y94.528 E22.76298
G1 X160.844 Y93.097 E22.93433
G1 X160.833 Y92.592 E22.99481
G1 X160.841 Y91.497 E23.12593
G1 X160.781 Y90.509 E23.24444
G1 X160.771 Y89.767 E23.3333
G1 X160.712 Y88.773 E23.45252
G1 X160.558 Y87.659 E23.58718
G1 X160.355 Y86.675 E23.70748
G1 X160.049 Y85.609 E23.84027
G1 X159.545 Y84.062 E24.03509
G1 X159.312 Y83.402 E24.1189
G1 X158.936 Y82.498 E24.23613
G1 X158.444 Y81.524 E24.36678
G1 X157.907 Y80.625 E24.49217
G1 X157.292 Y79.75 E24.62023
G1 X156.668 Y78.987 E24.73825
G1 X155.881 Y78.15 E24.87581
G1 X155.149 Y77.481 E24.99455
G1 X154.528 Y76.982 E25.08994
G1 X154.038 Y76.544 E25.16863
G1 X153.591 Y76.029 E25.25028
G1 X152.942 Y75.228 E25.37372
G1 X152.149 Y74.383 E25.51248
G1 X151.423 Y73.721 E25.63012
G1 X150.554 Y73.032 E25.76291
G1 X149.114 Y71.983 E25.97623
G1 X148.517 Y71.575 E26.06281
G1 X147.534 Y70.988 E26.1999
G1 X146.561 Y70.505 E26.32996
G1 X145.667 Y70.141 E26.44554
G1 X144.665 Y69.809 E26.57193
G1 X143.621 Y69.544 E26.7009
G1 X142.493 Y69.348 E26.83799
G1 X141.487 Y69.25 E26.95901
G1 X140.868 Y69.211 E27.03328
G1 X140.297 Y69.143 E27.10213
G1 X139.504 Y69.011 E27.19839
G1 X138.446 Y68.908 E27.32567
G1 X137.507 Y68.88 E27.43815
G1 X135.84 Y68.89 E27.63775
G1 X135.277 Y68.874 E27.70519
G1 X126.414 Y68.874 E28.76642
G1 X125.736 Y68.826 E28.8478
G1 X125.078 Y68.693 E28.92818
G1 X124.436 Y68.522 E29.00773
G1 X123.308 Y68.321 E29.14492
G1 X122.341 Y68.211 E29.26145
G1 X121.149 Y68.166 E29.40428
G1 X120.353 Y68.087 E29.50006
G1 X119.185 Y67.952 E29.64084
G1 X118.053 Y67.906 E29.7765
G1 X116.057 Y67.905 E30.01549
G1 X115.437 Y67.917 E30.08974
G1 X114.294 Y68.005 E30.22701
G1 X113.167 Y68.188 E30.36372
G1 X112.299 Y68.386 E30.47032
G1 X111.27 Y68.699 E30.5991
G1 X110.187 Y69.115 E30.73801
G1 X109.224 Y69.577 E30.8659
G1 X108.234 Y70.151 E31.00292
G1 X107.461 Y70.67 E31.11441
G1 X105.816 Y71.865 E31.35786
G1 X105.2 Y72.338 E31.45085
G1 X104.444 Y72.989 E31.57031
G1 X103.701 Y73.728 E31.69579
G1 X103.042 Y74.281 E31.79879
G1 X102.467 Y74.639 E31.8799
G1 X101.835 Y74.928 E31.96311
G1 X101.171 Y75.133 E32.04631
G1 X100.51 Y75.25 E32.12669
G1 X99.856 Y75.281 E32.20508
G1 X99.136 Y75.227 E32.29154
G1 X98.358 Y75.061 E32.38679
G1 X97.075 Y74.604 E32.54987
G1 X95.624 Y74.206 E32.73002
G1 X94.843 Y73.941 E32.82877
G1 X93.972 Y73.702 E32.93692
G1 X92.775 Y73.473 E33.08284
G1 X92.241 Y73.408 E33.14725
G1 X91.694 Y73.317 E33.21365
G1 X91.206 Y73.206 E33.27357
G1 X90.174 Y73.05 E33.39854
G1 X89.114 Y72.965 E33.52587
G1 X88.058 Y72.956 E33.65232
G1 X87.186 Y72.878 E33.75714
G1 X86.126 Y72.857 E33.88409
G1 X85.142 Y72.902 E34.00203
G1 X84.385 Y72.993 E34.09333
G1 X83.855 Y73.028 E34.15693
G1 X83.373 Y73.043 E34.21467
G1 X82.406 Y73.13 E34.33092
G1 X81.278 Y73.319 E34.46787
G1 X80.479 Y73.509 E34.5662
G1 X79.95 Y73.61 E34.63069
G1 X79.513 Y73.675 E34.68359
G1 X78.57 Y73.877 E34.79906
G1 X77.456 Y74.207 E34.93818
G1 X76.678 Y74.498 E35.03763
G1 X75.814 Y74.756 E35.1456
G1 X74.788 Y75.115 E35.27575
G1 X73.96 Y75.467 E35.38348
G1 X73.035 Y75.938 E35.50777
G1 X72.226 Y76.293 E35.61355
G1 X71.353 Y76.714 E35.7296
G1 X70.36 Y77.293 E35.86724
G1 X69.569 Y77.829 E35.98164
G1 X68.801 Y78.286 E36.08865
G1 X67.985 Y78.816 E36.20516
G1 X67.207 Y79.405 E36.322
G1 X65.521 Y80.779 E36.58242
G1 X64.874 Y81.339 E36.68488
M205 X10 Y10
G0 F6000 X65.492 Y81.332
M205 X8 Y8
G1 F1125 X124.833 Y140.672 E46.73318
M205 X10 Y10
G1 F1800 E40.73318
G1 F480 Z0.435
G0 F6000 X122.89 Y140.992 Z0.435
M205 X8 Y8
G1 F480 Z0.36
G1 F1800 E46.73318
G1 F1125 X64.332 Y82.434 E56.64898
M205 X10 Y10
G1 F1800 E50.64898
G1 F480 Z0.435
G0 F6000 X63.228 Y83.592 Z0.435
M205 X8 Y8
G1 F480 Z0.36
G1 F1800 E56.64898
G1 F1125 X120.98 Y141.344 E66.4283
M205 X10 Y10
G1 F1800 E60.4283
G1 F480 Z0.435
G0 F6000 X118.921 Y141.548 Z0.435
M205 X8 Y8
G1 F480 Z0.36
G1 F1800 E66.4283
G1 F1125 X62.168 Y84.795 E76.03845
M205 X10 Y10
G1 F1800 E70.03845
G1 F480 Z0.435
G0 F6000 X61.188 Y86.078 Z0.435
M205 X8 Y8
G1 F480 Z0.36
G1 F1800 E76.03845
G1 F1125 X116.808 Y141.698 E85.45675
M205 X10 Y10
G1 F1800 E79.45675
G1 F480 Z0.435
G0 F6000 X114.404 Y141.557 Z0.435
M205 X8 Y8
G1 F480 Z0.36
G1 F1800 E85.45675
G1 F1125 X60.234 Y87.387 E94.62952
M205 X10 Y10
G1 F1800 E88.62952
G1 F480 Z0.435
G0 F6000 X59.375 Y88.791 Z0.435
M205 X8 Y8
G1 F480 Z0.36
G1 F1800 E94.62952
G1 F1125 X111.358 Y140.773 E103.43187
M205 X10 Y10
G1 F1800 E97.43187
G1 F480 Z0.435
G0 F6000 X103.639 Y135.318 Z0.435
M205 X8 Y8
G1 F480 Z0.36
G1 F1800 E103.43187
G1 F1125 X58.552 Y90.231 E111.06658
M205 X10 Y10
G1 F1800 E105.06658
G1 F480 Z0.435
G0 F6000 X57.811 Y91.752 Z0.435
M205 X8 Y8
G1 F480 Z0.36
G1 F1800 E111.06658
G1 F1125 X100.216 Y134.157 E118.24715
M205 X10 Y10
G1 F1800 E112.24715
G1 F480 Z0.435
G0 F6000 X98.271 Y134.475 Z0.435
M205 X8 Y8
G1 F480 Z0.36
G1 F1800 E118.24715
G1 F1125 X57.221 Y93.425 E125.19826
M205 X10 Y10
G1 F1800 E119.19826
G1 F480 Z0.435
G0 F6000 X56.824 Y95.291 Z0.435
M205 X8 Y8
G1 F480 Z0.36
G1 F1800 E125.19826
G1 F1125 X96.588 Y135.055 E131.93162
M205 X10 Y10
G1 F1800 E125.93162
G1 F480 Z0.435
G0 F6000 X94.842 Y135.571 Z0.435
M205 X8 Y8
G1 F480 Z0.36
G1 F1800 E131.93162
G1 F1125 X56.685 Y97.415 E138.39277
M205 X10 Y10
G1 F1800 E132.39277
G1 F480 Z0.435
G0 F6000 X56.919 Y99.912 Z0.435
M205 X8 Y8
G1 F480 Z0.36
G1 F1800 E138.39277
G1 F1125 X93.003 Y135.995 E144.5029
M205 X10 Y10
G1 F1800 E138.5029
G1 F480 Z0.435
G0 F6000 X91.093 Y136.348 Z0.435
M205 X8 Y8
G1 F480 Z0.36
G1 F1800 E144.5029
G1 F1125 X57.763 Y103.018 E150.14677
M205 X10 Y10
G1 F1800 E144.14677
G1 F480 Z0.435
G0 F6000 X58.061 Y105.578 Z0.435
M205 X8 Y8
G1 F480 Z0.36
G1 F1800 E150.14677
G1 F1125 X89.034 Y136.552 E155.3916
M205 X10 Y10
G1 F1800 E149.3916
G1 F480 Z0.435
G0 F6000 X86.889 Y136.67 Z0.435
M205 X8 Y8
G1 F480 Z0.36
G1 F1800 E155.3916
G1 F1125 X57.593 Y107.373 E160.35246
M205 X10 Y10
G1 F1800 E154.35246
G1 F480 Z0.435
G0 F6000 X57.066 Y109.109 Z0.435
M205 X8 Y8
G1 F480 Z0.36
G1 F1800 E160.35246
G1 F1125 X84.536 Y136.579 E165.00404
M205 X10 Y10
G1 F1800 E159.00404
G1 F480 Z0.435
G0 F6000 X82.016 Y136.322 Z0.435
M205 X8 Y8
G1 F480 Z0.36
G1 F1800 E165.00404
G1 F1125 X56.743 Y111.049 E169.28359
M205 X10 Y10
G1 F1800 E163.28359
G1 F480 Z0.435
G0 F6000 X56.709 Y113.278 Z0.435
M205 X8 Y8
G1 F480 Z0.36
G1 F1800 E169.28359
G1 F1125 X79.227 Y135.796 E173.09663
M205 X10 Y10
G1 F1800 E167.09663
G1 F480 Z0.435
G0 F6000 X75.995 Y134.826 Z0.435
M205 X8 Y8
G1 F480 Z0.36
G1 F1800 E173.09663
G1 F1125 X57.052 Y115.883 E176.30431
M205 X10 Y10
G1 F1800 E170.30431
G1 F480 Z0.435
G0 F6000 X58.501 Y119.595 Z0.435
M205 X8 Y8
G1 F480 Z0.36
G1 F1800 E176.30431
G1 F1125 X71.999 Y133.093 E178.58996
M205 X10 Y10
G1 F1800 E172.58996
G1 F480 Z0.435
G0 F6000 X66.731 Y80.308 Z0.435
M205 X8 Y8
G1 F480 Z0.36
G1 F1800 E178.58996
G1 F1125 X127.079 Y140.656 E188.80887
M205 X10 Y10
G1 F1800 E182.80887
G1 F480 Z0.435
G0 F6000 X129.342 Y140.656 Z0.435
M205 X8 Y8
G1 F480 Z0.36
G1 F1800 E188.80887
G1 F1125 X67.996 Y79.309 E199.19685
M205 X10 Y10
G1 F1800 E193.19685
G1 F480 Z0.435
G0 F6000 X69.364 Y78.415 Z0.435
M205 X8 Y8
G1 F480 Z0.36
G1 F1800 E199.19685
G1 F1125 X131.604 Y140.655 E209.73614
M205 X10 Y10
G1 F1800 E203.73614
G1 F480 Z0.435
G0 F6000 X133.867 Y140.655 Z0.435
M205 X8 Y8
G1 F480 Z0.36
G1 F1800 E209.73614
G1 F1125 X70.743 Y77.532 E220.42503
M205 X10 Y10
G1 F1800 E214.42503
G1 F480 Z0.435
G0 F6000 X72.216 Y76.741 Z0.435
M205 X8 Y8
G1 F480 Z0.36
G1 F1800 E220.42503
G1 F1125 X136.117 Y140.642 E231.24557
M205 X10 Y10
G1 F1800 E225.24557
G1 F480 Z0.435
G0 F6000 X138.331 Y140.594 Z0.435
M205 X8 Y8
G1 F480 Z0.36
G1 F1800 E231.24557
G1 F1125 X73.756 Y76.019 E242.18025
M205 X10 Y10
G1 F1800 E236.18025
G1 F480 Z0.435
G0 F6000 X75.344 Y75.344 Z0.435
M205 X8 Y8
G1 F480 Z0.36
G1 F1800 E242.18025
G1 F1125 X140.388 Y140.388 E253.19434
M205 X10 Y10
G1 F1800 E247.19434
G1 F480 Z0.435
G0 F6000 X142.416 Y140.153 Z0.435
M205 X8 Y8
G1 F480 Z0.36
G1 F1800 E253.19434
G1 F1125 X77.049 Y74.786 E264.26313
M205 X10 Y10
G1 F1800 E258.26313
G1 F480 Z0.435
G0 F6000 X78.768 Y74.243 Z0.435
M205 X8 Y8
G1 F480 Z0.36
G1 F1800 E264.26313
G1 F1125 X144.288 Y139.763 E275.35782
M205 X10 Y10
G1 F1800 E269.35782
G1 F480 Z0.435
G0 F6000 X145.962 Y139.174 Z0.435
M205 X8 Y8
G1 F480 Z0.36
G1 F1800 E275.35782
G1 F1125 X80.665 Y73.877 E286.41476
M205 X10 Y10
G1 F1800 E280.41476
G1 F480 Z0.435
G0 F6000 X82.568 Y73.517 Z0.435
M205 X8 Y8
G1 F480 Z0.36
G1 F1800 E286.41476
G1 F1125 X147.467 Y138.416 E297.4043
M205 X10 Y10
G1 F1800 E291.4043
G1 F480 Z0.435
G0 F6000 X148.843 Y137.53 Z0.435
M205 X8 Y8
G1 F480 Z0.36
G1 F1800 E297.4043
G1 F1125 X84.674 Y73.36 E308.27031
M205 X10 Y10
G1 F1800 E302.27031
G1 F480 Z0.435
G0 F6000 X86.848 Y73.271 Z0.435
M205 X8 Y8
G1 F480 Z0.36
G1 F1800 E308.27031
G1 F1125 X150.153 Y136.576 E318.98993
M205 X10 Y10
G1 F1800 E312.98993
G1 F480 Z0.435
G0 F6000 X151.391 Y135.552 Z0.435
M205 X8 Y8
G1 F480 Z0.36
G1 F1800 E318.98993
G1 F1125 X89.214 Y73.375 E329.51855
