;FLAVOR:Marlin
;TIME:4877
;Filament used: 4.23224m
;Layer height: 0.2
;MINX:75.031
;MINY:75.402
;MINZ:0.36
;MAXX:134.969
;MAXY:134.599
;MAXZ:33.785
;Generated with Cura_SteamEngine main
M82 ;absolute extrusion mode
;Profil Homepage: https://github.com/NilsRo/Cura_Anycubic_MegaS_Profile

;Slicer Information - (Support for OctoPrint Slicer Estimator)
;Slicer info:material_guid;0ff92885-617b-4144-a03c-9989872454bc
;Slicer info:material_id;generic_pla_175
;Slicer info:material_brand;Generic
;Slicer info:material_name;PLA
;Slicer info:material_bed_temperature;60
;Slicer info:material_bed_temperature_layer_0;60
;Slicer info:material_print_temperature;210
;Slicer info:material_print_temperature_layer_0;215
;Slicer info:material_flow;100
;Slicer info:layer_height;0.2
;Slicer info:wall_thickness;1.2000000000000002
;Slicer info:speed_print;50.0
;Slicer info:speed_topbottom;25.0
;Slicer info:travel_speed;100.0
;Slicer info:support;0
;Slicer info:retraction_speed;30
;Slicer info:retraction_amount;6
;Slicer info:layer_height;0.2
;Slicer info:infill_pattern;grid
;Slicer info:infill_sparse_density;25
;Slicer info:cool_fan_enabled;True
;Slicer info:cool_fan_speed;70
;Slicer info:sliced_at;Sun 12-02-2023 17:21:24
G21                                        ; metric values 
G90                                        ; absolute positioning 
M82                                        ; set extruder to absolute mode 
M107                                       ; start with the fan off 
M140 S60   ; Start heating the bed 
G4 S60                                     ; wait 1 minute 
M104 S215 ; start heating the hot end 
M190 S60   ; wait for bed 
M109 S215 ; wait for hotend 
M300 S1000 P500                            ; BEEP heating done 
G28 X0 Y10 Z0                              ; move X/Y to min endstops 
M420 S1                                    ; Enable leveling 
M420 Z2.0                                  ; Set leveling fading height to 2 mm 
G0 Z0.15                                   ; lift nozzle a bit 
G92 E0                                     ; zero the extruded length 
G1 X50 E20 F500                            ; Extrude 20mm of filament in a 5cm line. 
G92 E0                                     ; zero the extruded length again 
G1 E-2 F500                                ; Retract a little 
G1 X120 F4000                              ; Quickly wipe away from the filament line`
G92 E0
G92 E0
G1 F1800 E-6
;LAYER_COUNT:162
;LAYER:-6
M107
M205 X10 Y10
G0 F6000 X82.901 Y84.79 Z0.36
M205 X8 Y8
;TYPE:SUPPORT-INTERFACE
G1 F1800 E0
G1 F1125 X82.193 Y85.617 E0.13035
G1 X81.559 Y86.483 E0.25886
G1 X81.007 Y87.362 E0.38314
G1 X77.768 Y92.97 E1.15858
G1 X77.209 Y94.023 E1.30132
G1 X76.814 Y94.936 E1.42044
G1 X76.459 Y95.932 E1.54704
G1 X76.207 Y96.737 E1.64804
G1 X75.835 Y98.189 E1.82752
G1 X75.459 Y100.052 E2.05508
G1 X75.291 Y101.06 E2.17744
G1 X75.185 Y102.129 E2.30607
G1 X75.06 Y104.055 E2.53717
G1 X75.031 Y104.987 E2.64881
G1 X75.049 Y105.594 E2.72153
G1 X75.062 Y105.992 E2.76921
G1 X75.188 Y107.904 E2.99864
G1 X75.267 Y108.741 E3.0993
G1 X75.453 Y109.92 E3.24222
G1 X75.841 Y111.832 E3.47582
G1 X76.219 Y113.306 E3.65802
G1 X76.425 Y113.964 E3.74058
G1 X76.807 Y115.054 E3.87888
G1 X77.243 Y116.045 E4.00851
G1 X77.713 Y116.931 E4.1286
G1 X81.02 Y122.659 E4.92055
G1 X81.596 Y123.574 E5.05001
G1 X82.282 Y124.489 E5.18694
G1 X82.897 Y125.207 E5.30014
G1 X83.427 Y125.782 E5.39377
G1 X84.633 Y126.957 E5.59538
G1 X86.036 Y128.188 E5.81887
G1 X86.759 Y128.778 E5.9306
G1 X87.594 Y129.376 E6.05358
G1 X89.244 Y130.476 E6.29102
G1 X89.857 Y130.86 E6.37763
G1 X90.852 Y131.402 E6.5133
G1 X92.716 Y132.32 E6.76209
G1 X93.528 Y132.687 E6.86878
G1 X94.45 Y133.037 E6.98686
G1 X96.335 Y133.668 E7.22488
G1 X97.805 Y134.078 E7.40761
G1 X98.446 Y134.221 E7.48625
G1 X99.703 Y134.452 E7.63928
G1 X100.603 Y134.552 E7.7477
G1 X101.736 Y134.599 E7.88348
G1 X108.309 Y134.598 E8.67051
G1 X109.375 Y134.555 E8.79825
G1 X110.357 Y134.445 E8.91657
G1 X111.561 Y134.222 E9.06318
G1 X112.246 Y134.067 E9.14727
G1 X113.703 Y133.657 E9.32851
G1 X115.553 Y133.034 E9.56224
G1 X116.44 Y132.701 E9.67569
G1 X117.319 Y132.303 E9.79122
G1 X119.124 Y131.414 E10.03214
G1 X119.909 Y130.999 E10.13846
G1 X120.851 Y130.416 E10.2711
G1 X122.481 Y129.323 E10.50609
G1 X123.243 Y128.774 E10.61854
G1 X123.996 Y128.16 E10.73488
G1 X125.395 Y126.933 E10.95769
G1 X126.463 Y125.894 E11.1361
G1 X127.105 Y125.204 E11.24895
G1 X127.811 Y124.377 E11.37914
G1 X128.439 Y123.521 E11.50626
G1 X129.009 Y122.613 E11.63463
G1 X132.235 Y117.025 E12.40721
G1 X132.794 Y115.969 E12.55028
G1 X133.243 Y114.917 E12.68723
G1 X133.547 Y114.047 E12.79758
G1 X133.826 Y113.144 E12.91075
G1 X134.172 Y111.782 E13.07901
G1 X134.549 Y109.904 E13.30836
G1 X134.709 Y108.94 E13.42536
G1 X134.806 Y107.985 E13.5403
G1 X134.94 Y105.946 E13.78497
G1 X134.969 Y105.016 E13.89638
G1 X134.936 Y103.967 E14.02204
G1 X134.812 Y102.096 E14.24656
G1 X134.733 Y101.256 E14.34758
G1 X134.547 Y100.081 E14.49003
G1 X134.16 Y98.166 E14.72396
G1 X133.781 Y96.694 E14.90596
G1 X133.575 Y96.037 E14.9884
G1 X133.191 Y94.944 E15.12711
G1 X132.753 Y93.947 E15.2575
G1 X132.227 Y92.962 E15.39121
G1 X128.978 Y87.338 E16.1689
G1 X128.403 Y86.424 E16.29819
G1 X127.716 Y85.509 E16.4352
G1 X127.099 Y84.789 E16.54873
G1 X126.571 Y84.216 E16.64203
G1 X125.367 Y83.043 E16.8433
G1 X123.962 Y81.811 E17.06704
G1 X123.239 Y81.221 E17.17878
G1 X122.405 Y80.624 E17.30159
G1 X120.743 Y79.515 E17.54082
G1 X120.141 Y79.138 E17.62587
G1 X119.143 Y78.595 E17.76191
G1 X117.284 Y77.68 E18.01
G1 X116.472 Y77.313 E18.1167
G1 X115.541 Y76.96 E18.23592
G1 X113.665 Y76.332 E18.47279
G1 X112.195 Y75.922 E18.65553
G1 X111.554 Y75.779 E18.73416
G1 X110.297 Y75.548 E18.88719
G1 X109.397 Y75.448 E18.99562
G1 X108.264 Y75.402 E19.13139
G1 X101.691 Y75.402 E19.91842
G1 X100.625 Y75.445 E20.04616
G1 X99.643 Y75.555 E20.16448
G1 X98.439 Y75.778 E20.31109
G1 X97.754 Y75.933 E20.39519
G1 X96.295 Y76.343 E20.57665
G1 X94.447 Y76.966 E20.81016
G1 X93.56 Y77.299 E20.9236
G1 X92.682 Y77.696 E21.03898
G1 X90.876 Y78.586 E21.28005
G1 X90.091 Y79.001 E21.38637
G1 X89.152 Y79.582 E21.51859
G1 X87.519 Y80.677 E21.75401
G1 X86.757 Y81.226 E21.86646
G1 X86.018 Y81.828 E21.98059
G1 X84.605 Y83.067 E22.20561
G1 X83.537 Y84.106 E22.38402
G1 X82.901 Y84.79 E22.49585
M205 X10 Y10
G0 F6000 X83.011 Y85.274
M205 X8 Y8
G1 F1125 X124.724 Y126.987 E29.55924
M205 X10 Y10
G1 F1800 E23.55924
G1 F480 Z0.435
G0 F6000 X125.891 Y125.891 Z0.435
M205 X8 Y8
G1 F480 Z0.36
G1 F1800 E29.55924
G1 F1125 X84.108 Y84.108 E36.63447
M205 X10 Y10
G1 F1800 E30.63447
G1 F480 Z0.435
G0 F6000 X85.274 Y83.011 Z0.435
M205 X8 Y8
G1 F480 Z0.36
G1 F1800 E36.63447
G1 F1125 X126.987 Y124.724 E43.69786
M205 X10 Y10
G1 F1800 E37.69786
G1 F480 Z0.435
G0 F6000 X127.986 Y123.46 Z0.435
M205 X8 Y8
G1 F480 Z0.36
G1 F1800 E43.69786
G1 F1125 X86.486 Y81.961 E50.72509
M205 X10 Y10
G1 F1800 E44.72509
G1 F480 Z0.435
G0 F6000 X87.774 Y80.986 Z0.435
M205 X8 Y8
G1 F480 Z0.36
G1 F1800 E50.72509
G1 F1125 X128.859 Y122.071 E57.68214
M205 X10 Y10
G1 F1800 E51.68214
G1 F480 Z0.435
G0 F6000 X129.687 Y120.636 Z0.435
M205 X8 Y8
G1 F480 Z0.36
G1 F1800 E57.68214
G1 F1125 X89.129 Y80.078 E64.54994
M205 X10 Y10
G1 F1800 E58.54994
G1 F480 Z0.435
G0 F6000 X90.533 Y79.22 Z0.435
M205 X8 Y8
G1 F480 Z0.36
G1 F1800 E64.54994
G1 F1125 X130.515 Y119.201 E71.32013
M205 X10 Y10
G1 F1800 E65.32013
G1 F480 Z0.435
G0 F6000 X131.343 Y117.767 Z0.435
M205 X8 Y8
G1 F480 Z0.36
G1 F1800 E71.32013
G1 F1125 X92.037 Y78.46 E77.97602
M205 X10 Y10
G1 F1800 E71.97602
G1 F480 Z0.435
G0 F6000 X93.572 Y77.732 Z0.435
M205 X8 Y8
G1 F480 Z0.36
G1 F1800 E77.97602
G1 F1125 X132.156 Y116.317 E84.50964
M205 X10 Y10
G1 F1800 E78.50964
G1 F480 Z0.435
G0 F6000 X132.871 Y114.769 Z0.435
M205 X8 Y8
G1 F480 Z0.36
G1 F1800 E84.50964
G1 F1125 X95.227 Y77.125 E90.88401
M205 X10 Y10
G1 F1800 E84.88401
G1 F480 Z0.435
G0 F6000 X96.941 Y76.576 Z0.435
M205 X8 Y8
G1 F480 Z0.36
G1 F1800 E90.88401
G1 F1125 X133.431 Y113.066 E97.06297
M205 X10 Y10
G1 F1800 E91.06297
G1 F480 Z0.435
G0 F6000 X133.871 Y111.244 Z0.435
M205 X8 Y8
G1 F480 Z0.36
G1 F1800 E97.06297
G1 F1125 X98.754 Y76.127 E103.00944
M205 X10 Y10
G1 F1800 E97.00944
G1 F480 Z0.435
G0 F6000 X100.73 Y75.84 Z0.435
M205 X8 Y8
G1 F480 Z0.36
G1 F1800 E103.00944
G1 F1125 X134.235 Y109.344 E108.68286
M205 X10 Y10
G1 F1800 E102.68286
G1 F480 Z0.435
G0 F6000 X134.449 Y107.296 Z0.435
M205 X8 Y8
G1 F480 Z0.36
G1 F1800 E108.68286
G1 F1125 X102.955 Y75.802 E114.01583
M205 X10 Y10
G1 F1800 E108.01583
G1 F480 Z0.435
G0 F6000 X105.218 Y75.802 Z0.435
M205 X8 Y8
G1 F480 Z0.36
G1 F1800 E114.01583
G1 F1125 X134.564 Y105.148 E118.98507
M205 X10 Y10
G1 F1800 E112.98507
G1 F480 Z0.435
G0 F6000 X134.455 Y102.777 Z0.435
M205 X8 Y8
G1 F480 Z0.36
G1 F1800 E118.98507
G1 F1125 X107.48 Y75.802 E123.55283
M205 X10 Y10
G1 F1800 E117.55283
G1 F480 Z0.435
G0 F6000 X109.841 Y75.9 Z0.435
M205 X8 Y8
G1 F480 Z0.36
G1 F1800 E123.55283
G1 F1125 X134.163 Y100.222 E127.67135
M205 X10 Y10
G1 F1800 E121.67135
G1 F480 Z0.435
G0 F6000 X133.53 Y97.326 Z0.435
M205 X8 Y8
G1 F480 Z0.36
G1 F1800 E127.67135
G1 F1125 X112.676 Y76.472 E131.20262
M205 X10 Y10
G1 F1800 E125.20262
G1 F480 Z0.435
G0 F6000 X116.047 Y77.58 Z0.435
M205 X8 Y8
G1 F480 Z0.36
G1 F1800 E131.20262
G1 F1125 X132.166 Y93.7 E133.93218
M205 X10 Y10
G1 F1800 E127.93218
G1 F480 Z0.435
G0 F6000 X129.128 Y88.398 Z0.435
M205 X8 Y8
G1 F480 Z0.36
G1 F1800 E133.93218
G1 F1125 X120.691 Y79.961 E135.36084
M205 X10 Y10
G1 F1800 E129.36084
G1 F480 Z0.435
G0 F6000 X82.013 Y86.538 Z0.435
M205 X8 Y8
G1 F480 Z0.36
G1 F1800 E135.36084
G1 F1125 X123.512 Y128.037 E142.38799
M205 X10 Y10
G1 F1800 E136.38799
G1 F480 Z0.435
G0 F6000 X122.224 Y129.013 Z0.435
M205 X8 Y8
G1 F480 Z0.36
G1 F1800 E142.38799
G1 F1125 X81.141 Y87.929 E149.34478
M205 X10 Y10
G1 F1800 E143.34478
G1 F480 Z0.435
G0 F6000 X80.312 Y89.363 Z0.435
M205 X8 Y8
G1 F480 Z0.36
G1 F1800 E149.34478
G1 F1125 X120.87 Y129.92 E156.2125
M205 X10 Y10
G1 F1800 E150.2125
G1 F480 Z0.435
G0 F6000 X119.465 Y130.779 Z0.435
M205 X8 Y8
G1 F480 Z0.36
G1 F1800 E156.2125
G1 F1125 X79.483 Y90.797 E162.98277
M205 X10 Y10
G1 F1800 E156.98277
G1 F480 Z0.435
G0 F6000 X78.655 Y92.231 Z0.435
M205 X8 Y8
G1 F480 Z0.36
G1 F1800 E162.98277
G1 F1125 X117.962 Y131.538 E169.63874
M205 X10 Y10
G1 F1800 E163.63874
G1 F480 Z0.435
G0 F6000 X116.427 Y132.266 Z0.435
M205 X8 Y8
G1 F480 Z0.36
G1 F1800 E169.63874
G1 F1125 X77.841 Y93.681 E176.17254
M205 X10 Y10
G1 F1800 E170.17254
G1 F480 Z0.435
G0 F6000 X77.131 Y95.233 Z0.435
M205 X8 Y8
G1 F480 Z0.36
G1 F1800 E176.17254
G1 F1125 X114.771 Y132.873 E182.54623
M205 X10 Y10
G1 F1800 E176.54623
G1 F480 Z0.435
G0 F6000 X113.057 Y133.421 Z0.435
M205 X8 Y8
G1 F480 Z0.36
G1 F1800 E182.54623
G1 F1125 X76.569 Y96.933 E188.72485
M205 X10 Y10
G1 F1800 E182.72485
G1 F480 Z0.435
G0 F6000 X76.128 Y98.755 Z0.435
M205 X8 Y8
G1 F480 Z0.36
G1 F1800 E188.72485
G1 F1125 X111.244 Y133.872 E194.67124
M205 X10 Y10
G1 F1800 E188.67124
G1 F480 Z0.435
G0 F6000 X109.268 Y134.158 Z0.435
M205 X8 Y8
G1 F480 Z0.36
G1 F1800 E194.67124
G1 F1125 X75.763 Y100.653 E200.34474
M205 X10 Y10
G1 F1800 E194.34474
G1 F480 Z0.435
G0 F6000 X75.548 Y102.701 Z0.435
M205 X8 Y8
G1 F480 Z0.36
G1 F1800 E200.34474
G1 F1125 X107.043 Y134.196 E205.67788
M205 X10 Y10
G1 F1800 E199.67788
G1 F480 Z0.435
G0 F6000 X104.781 Y134.197 Z0.435
M205 X8 Y8
G1 F480 Z0.36
G1 F1800 E205.67788
G1 F1125 X75.434 Y104.85 E210.64729
M205 X10 Y10
G1 F1800 E204.64729
G1 F480 Z0.435
G0 F6000 X75.544 Y107.222 Z0.435
M205 X8 Y8
G1 F480 Z0.36
G1 F1800 E210.64729
G1 F1125 X102.519 Y134.197 E215.21505
M205 X10 Y10
G1 F1800 E209.21505
G1 F480 Z0.435
G0 F6000 X100.158 Y134.099 Z0.435
M205 X8 Y8
G1 F480 Z0.36
G1 F1800 E215.21505
G1 F1125 X75.834 Y109.775 E219.3339
M205 X10 Y10
G1 F1800 E213.3339
G1 F480 Z0.435
G0 F6000 X76.469 Y112.673 Z0.435
M205 X8 Y8
G1 F480 Z0.36
G1 F1800 E219.3339
G1 F1125 X97.323 Y133.527 E222.86517
M205 X10 Y10
G1 F1800 E216.86517
G1 F480 Z0.435
G0 F6000 X93.952 Y132.419 Z0.435
M104 S210
M205 X8 Y8
G1 F480 Z0.36
G1 F1800 E222.86517
G1 F1125 X77.829 Y116.296 E225.59533
M205 X10 Y10
G1 F1800 E219.59533
G1 F480 Z0.435
G0 F6000 X80.871 Y121.601 Z0.435
M205 X8 Y8
G1 F480 Z0.36
G1 F1800 E225.59533
G1 F1125 X89.308 Y130.037 E227.02391
M205 X10 Y10
G1 F1800 E221.02391
G1 F480 Z0.435
G0 F6000 X125.132 Y126.63 Z0.435
;TIME_ELAPSED:126.925471
;LAYER:-5
G0 X125.132 Y126.63 Z0.735
M205 X8 Y8
;TYPE:SUPPORT
G1 F480 Z0.66
G1 F1800 E227.02391
G1 F1125 X126.173 Y125.617 E227.16884
G1 X126.888 Y124.841 E227.27413
G1 X124.865 Y126.864 E227.55959
G1 X123.739 Y127.853 E227.70913
G1 X122.994 Y128.46 E227.80502
G1 X122.246 Y128.998 E227.89695
G1 X120.589 Y130.107 E228.0959
G1 X119.59 Y130.725 E228.21312
G1 X129.7 Y120.615 E229.63975
G1 X131.632 Y117.268 E230.02536
G1 X116.804 Y132.097 E232.11782
G1 X116.272 Y132.336 E232.17601
G1 X115.348 Y132.682 E232.27446
G1 X114.529 Y132.957 E232.36066
G1 X132.945 Y114.541 E234.95936
G1 X133.213 Y113.783 E235.03958
G1 X133.408 Y113.152 E235.10548
G1 X133.573 Y112.499 E235.17269
G1 X112.467 Y133.605 E238.15097
G1 X111.482 Y133.828 E238.25174
G1 X110.68 Y133.978 E238.33315
G1 X133.988 Y110.67 E241.62216
G1 X134.158 Y109.82 E241.70866
G1 X134.311 Y108.933 E241.79847
G1 X109.078 Y134.165 E245.35905
G1 X108.181 Y134.198 E245.44861
G1 X107.631 Y134.198 E245.50349
G1 X134.444 Y107.386 E249.28702
G1 X134.541 Y105.875 E249.4381
G1 X106.217 Y134.198 E253.43485
G1 X104.803 Y134.198 E253.57594
G1 X134.564 Y104.437 E257.77554
G1 X134.476 Y103.111 E257.90814
G1 X103.388 Y134.198 E262.29492
G1 X101.974 Y134.198 E262.43601
G1 X134.381 Y101.792 E267.00892
G1 X134.329 Y101.23 E267.06524
G1 X134.216 Y100.542 E267.13481
G1 X100.608 Y134.15 E271.87726
G1 X99.341 Y134.003 E272.00453
G1 X133.992 Y99.352 E276.89416
G1 X133.756 Y98.174 E277.01403
G1 X98.166 Y133.764 E282.03617
G1 X97.06 Y133.456 E282.15072
G1 X133.47 Y97.046 E287.28857
G1 X133.133 Y95.968 E287.40127
G1 X95.975 Y133.126 E292.64466
G1 X94.917 Y132.77 E292.75604
G1 X132.751 Y94.936 E298.09483
G1 X132.32 Y93.954 E298.20184
G1 X93.871 Y132.402 E303.62734
G1 X92.896 Y131.963 E303.73403
G1 X131.812 Y93.047 E309.2255
G1 X131.295 Y92.15 E309.3288
G1 X91.949 Y131.496 E314.88095
G1 X91.002 Y131.029 E314.9863
G1 X130.777 Y91.253 E320.59906
G1 X130.26 Y90.356 E320.70236
G1 X90.086 Y130.53 E326.37135
G1 X89.221 Y129.981 E326.47357
G1 X129.742 Y89.46 E332.19152
G1 X129.225 Y88.563 E332.29483
G1 X88.372 Y129.416 E338.05963
G1 X87.525 Y128.849 E338.16133
G1 X128.708 Y87.666 E343.9727
G1 X128.163 Y86.797 E344.07505
G1 X86.725 Y128.234 E349.92233
G1 X85.947 Y127.598 E350.02259
G1 X127.581 Y85.964 E355.8976
G1 X126.927 Y85.204 E355.99765
G1 X85.207 Y126.924 E361.88479
G1 X84.455 Y126.262 E361.98476
G1 X126.253 Y84.464 E367.88291
G1 X125.538 Y83.765 E367.98268
G1 X83.757 Y125.546 E373.87843
G1 X83.077 Y124.812 E373.97827
G1 X124.804 Y83.085 E379.8664
G1 X124.052 Y82.422 E379.96643
G1 X82.44 Y124.034 E385.83833
G1 X81.834 Y123.226 E385.93911
G1 X123.3 Y81.76 E391.79041
G1 X122.479 Y81.167 E391.89147
G1 X81.3 Y122.346 E397.70227
G1 X80.782 Y121.449 E397.80562
G1 X121.639 Y80.593 E403.57092
G1 X120.79 Y80.027 E403.67273
G1 X80.265 Y120.553 E409.39131
G1 X79.747 Y119.656 E409.49467
G1 X119.928 Y79.475 E415.16464
G1 X119.011 Y78.978 E415.26872
G1 X79.23 Y118.759 E420.88224
G1 X78.713 Y117.862 E420.98555
G1 X118.066 Y78.509 E426.53868
G1 X117.118 Y78.042 E426.64413
G1 X78.189 Y116.972 E432.1375
G1 X77.699 Y116.048 E432.24186
G1 X116.134 Y77.612 E437.66553
G1 X115.108 Y77.224 E437.77498
G1 X77.242 Y115.09 E443.11828
G1 X76.875 Y114.042 E443.22907
G1 X114.04 Y76.878 E448.47339
G1 X113.543 Y76.711 E448.5257
G1 X112.956 Y76.547 E448.58652
G1 X76.544 Y112.96 E453.72471
G1 X76.257 Y111.832 E453.84085
G1 X111.848 Y76.241 E458.86313
G1 X110.661 Y76.014 E458.98371
G1 X76.01 Y110.665 E463.87334
G1 X75.773 Y109.488 E463.99314
G1 X109.41 Y75.851 E468.73969
G1 X108.054 Y75.793 E468.87511
G1 X75.611 Y108.236 E473.45317
G1 X75.523 Y106.91 E473.58577
G1 X106.632 Y75.801 E477.97558
G1 X105.218 Y75.801 E478.11667
