;FLAVOR:Marlin
;TIME:3592
;Filament used: 1.79834m
;Layer height: 0.2
;MINX:91.847
;MINY:81.945
;MINZ:0.3
;MAXX:124.107
;MAXY:121.279
;MAXZ:55.975
;Generated with Cura_SteamEngine 5.2.2
M82 ;absolute extrusion mode
;Profil Homepage: https://github.com/NilsRo/Cura_Anycubic_MegaS_Profile

;Slicer Information - (Support for OctoPrint Slicer Estimator)
;Slicer info:material_guid;0ff92885-617b-4144-a03c-9989872454bc
;Slicer info:material_id;generic_pla_175
;Slicer info:material_brand;Generic
;Slicer info:material_name;PLA
;Slicer info:filament_cost;[0.0]
;Slicer info:material_bed_temperature;43
;Slicer info:material_bed_temperature_layer_0;43
;Slicer info:material_print_temperature;187
;Slicer info:material_print_temperature_layer_0;192
;Slicer info:material_flow;100
;Slicer info:layer_height;0.2
;Slicer info:machine_nozzle_size;0.4
;Slicer info:wall_thickness;1.2000000000000002
;Slicer info:speed_print;50.0
;Slicer info:speed_topbottom;25.0
;Slicer info:travel_speed;100.0
;Slicer info:support;0
;Slicer info:retraction_speed;30
;Slicer info:retraction_amount;6
;Slicer info:layer_height;0.2
;Slicer info:infill_pattern;lines
;Slicer info:infill_sparse_density;100
;Slicer info:cool_fan_enabled;True
;Slicer info:cool_fan_speed;100
;Slicer info:sliced_at;Mon 10-04-2023 01:34:04
G21                                        ; metric values 
G90                                        ; absolute positioning 
M82                                        ; set extruder to absolute mode 
M107                                       ; start with the fan off 
M140 S43   ; Start heating the bed 
G4 S60                                     ; wait 1 minute 
M104 S192 ; start heating the hot end 
M190 S43   ; wait for bed 
M109 S192 ; wait for hotend 
M300 S1000 P500                            ; BEEP heating done 
G28 X0 Y10 Z0                              ; move X/Y to min endstops 
M420 S1                                    ; Enable leveling 
M420 Z2.0                                  ; Set leveling fading height to 2 mm 
G0 Z0.15                                   ; lift nozzle a bit 
G92 E0                                     ; zero the extruded length 
G1 X50 E20 F500                            ; Extrude 20mm of filament in a 5cm line. 
G92 E0                                     ; zero the extruded length again 
G1 E-2 F500                                ; Retract a little 
G1 X50 F500                                ; wipe away from the filament line
G1 X100 F9000                              ; Quickly wipe away from the filament line
G92 E0
G92 E0
G1 F1800 E-6
;LAYER_COUNT:280
;LAYER:0
M106 S76.5
M205 X10 Y10
G1 F480 Z0.375
G0 F6000 X100.174 Y86.677 Z0.375
M205 X8 Y8
;TYPE:SKIRT
G1 F480 Z0.3
G1 F1800 E0
G1 F1200 X100.723 Y86.11 E0.03938
G1 X101.458 Y85.502 E0.08696
G1 X104.294 Y83.438 E0.26196
G1 X104.955 Y83.007 E0.30133
G1 X105.657 Y82.644 E0.34075
G1 X106.391 Y82.354 E0.38013
G1 X107.151 Y82.14 E0.41952
G1 X107.929 Y82.004 E0.45892
G1 X108.884 Y81.945 E0.50666
G1 X112.388 Y81.945 E0.68147
G1 X113.177 Y81.985 E0.72089
G1 X113.957 Y82.104 E0.76025
G1 X114.722 Y82.302 E0.79968
G1 X115.462 Y82.576 E0.83904
G1 X116.171 Y82.924 E0.87845
G1 X116.978 Y83.438 E0.92618
G1 X119.814 Y85.502 E1.10117
G1 X120.428 Y85.999 E1.14058
G1 X120.989 Y86.555 E1.17999
G1 X121.491 Y87.165 E1.2194
G1 X121.928 Y87.822 E1.25877
G1 X122.297 Y88.52 E1.29816
G1 X122.641 Y89.396 E1.34511
G1 X123.724 Y92.725 E1.51977
G1 X123.93 Y93.487 E1.55915
G1 X124.058 Y94.267 E1.59858
G1 X124.107 Y95.055 E1.63797
G1 X124.075 Y95.844 E1.67737
G1 X123.964 Y96.626 E1.71677
G1 X123.702 Y97.619 E1.76801
G1 X123.312 Y98.78 E1.82911
G1 X123.604 Y99.903 E1.887
G1 X123.764 Y100.676 E1.92638
G1 X123.858 Y101.604 E1.97292
G1 X123.832 Y104.215 E2.10319
G1 X123.784 Y105.003 E2.14257
G1 X123.656 Y105.783 E2.18201
G1 X123.424 Y106.626 E2.22563
G1 X121.949 Y111.005 E2.45616
G1 X121.659 Y111.74 E2.49558
G1 X121.096 Y112.767 E2.55401
G1 X120.276 Y114.028 E2.62906
G1 X119.813 Y114.668 E2.66846
G1 X119.287 Y115.257 E2.70786
G1 X118.704 Y115.79 E2.74727
G1 X118.201 Y116.173 E2.77881
G1 X113.879 Y119.189 E3.04175
G1 X113.209 Y119.607 E3.08115
G1 X112.5 Y119.956 E3.12057
G1 X111.98 Y120.158 E3.1484
G1 X110.283 Y120.749 E3.23805
G1 X109.525 Y120.971 E3.27746
G1 X108.749 Y121.115 E3.31684
G1 X107.949 Y121.18 E3.35688
G1 X104.603 Y121.279 E3.52388
G1 X103.813 Y121.262 E3.56331
G1 X103.029 Y121.166 E3.60271
G1 X102.259 Y120.99 E3.64212
G1 X101.511 Y120.738 E3.6815
G1 X100.792 Y120.412 E3.72088
G1 X100.059 Y119.981 E3.76331
G1 X97.776 Y118.466 E3.9
G1 X97.141 Y117.997 E3.93939
G1 X96.557 Y117.466 E3.97877
G1 X96.029 Y116.878 E4.01819
G1 X95.564 Y116.24 E4.05758
G1 X95.165 Y115.558 E4.097
G1 X94.837 Y114.84 E4.13638
G1 X94.668 Y114.368 E4.1614
G1 X93.985 Y112.257 E4.27209
G1 X93.78 Y111.494 E4.3115
G1 X93.653 Y110.715 E4.35088
G1 X93.606 Y109.927 E4.39027
G1 X93.639 Y109.138 E4.42966
G1 X93.752 Y108.356 E4.46908
G1 X93.985 Y107.455 E4.51551
G1 X94.668 Y105.344 E4.62621
G1 X94.949 Y104.606 E4.6656
G1 X95.174 Y104.158 E4.69061
G1 X95.049 Y103.217 E4.73797
G1 X95.037 Y101.895 E4.80393
G1 X95.159 Y100.847 E4.85657
G1 X95.426 Y99.748 E4.91299
G1 X95.616 Y99.157 E4.94397
G1 X95.896 Y98.418 E4.98339
G1 X96.511 Y97.25 E5.04925
G1 X97.231 Y96.216 E5.11211
G1 X97.171 Y95.209 E5.16244
G1 X97.204 Y94.42 E5.20183
G1 X97.316 Y93.639 E5.2412
G1 X97.55 Y92.737 E5.28769
G1 X98.627 Y89.408 E5.46225
G1 X98.908 Y88.67 E5.50165
G1 X99.261 Y87.964 E5.54103
G1 X99.685 Y87.298 E5.58041
G1 X100.174 Y86.677 E5.61985
M205 X10 Y10
G0 F6000 X100.528 Y86.881
M205 X8 Y8
G1 F1200 X101.069 Y86.334 E5.65823
G1 X101.694 Y85.826 E5.69841
G1 X104.53 Y83.762 E5.87341
G1 X105.174 Y83.342 E5.91177
G1 X105.859 Y82.992 E5.95014
G1 X106.576 Y82.714 E5.98851
G1 X107.318 Y82.513 E6.02686
G1 X108.078 Y82.389 E6.06528
G1 X108.884 Y82.345 E6.10555
G1 X112.388 Y82.345 E6.28037
G1 X113.156 Y82.385 E6.31873
G1 X113.916 Y82.504 E6.35711
G1 X114.659 Y82.702 E6.39547
G1 X115.378 Y82.976 E6.43386
G1 X116.064 Y83.323 E6.47222
G1 X116.742 Y83.762 E6.51251
G1 X119.578 Y85.826 E6.68751
G1 X120.176 Y86.31 E6.72589
G1 X120.72 Y86.854 E6.76427
G1 X121.205 Y87.451 E6.80264
G1 X121.625 Y88.095 E6.841
G1 X121.976 Y88.78 E6.8794
G1 X122.261 Y89.52 E6.91896
G1 X123.344 Y92.849 E7.09362
G1 X123.544 Y93.592 E7.132
G1 X123.665 Y94.351 E7.17035
G1 X123.707 Y95.119 E7.20872
G1 X123.669 Y95.887 E7.24708
G1 X123.551 Y96.647 E7.28546
G1 X123.323 Y97.492 E7.32912
G1 X122.895 Y98.767 E7.39622
G1 X123.217 Y100.004 E7.45999
G1 X123.371 Y100.757 E7.49833
G1 X123.458 Y101.635 E7.54235
G1 X123.432 Y104.211 E7.67088
G1 X123.384 Y104.979 E7.70927
G1 X123.257 Y105.737 E7.74761
G1 X123.045 Y106.498 E7.78702
G1 X121.57 Y110.877 E8.01755
G1 X121.287 Y111.592 E8.05592
G1 X120.761 Y112.549 E8.1104
G1 X119.941 Y113.81 E8.18544
G1 X119.488 Y114.432 E8.22383
G1 X118.974 Y115.004 E8.2622
G1 X118.403 Y115.519 E8.30056
G1 X117.972 Y115.845 E8.32752
G1 X113.65 Y118.861 E8.59046
G1 X112.997 Y119.267 E8.62882
G1 X112.181 Y119.664 E8.67409
G1 X110.152 Y120.371 E8.78129
G1 X109.413 Y120.586 E8.81968
G1 X108.656 Y120.723 E8.85807
G1 X107.937 Y120.78 E8.89405
G1 X104.591 Y120.879 E9.06105
G1 X103.822 Y120.862 E9.09943
G1 X103.059 Y120.765 E9.1378
G1 X102.31 Y120.589 E9.17619
G1 X101.583 Y120.336 E9.21459
G1 X100.887 Y120.01 E9.25294
G1 X100.28 Y119.648 E9.28819
G1 X97.997 Y118.133 E9.42489
G1 X97.379 Y117.675 E9.46327
G1 X96.812 Y117.155 E9.50165
G1 X96.302 Y116.579 E9.54003
G1 X95.855 Y115.954 E9.57837
G1 X95.475 Y115.285 E9.61675
G1 X95.048 Y114.245 E9.67284
G1 X94.365 Y112.134 E9.78354
G1 X94.167 Y111.391 E9.8219
G1 X94.047 Y110.631 E9.86028
G1 X94.006 Y109.863 E9.89865
G1 X94.045 Y109.095 E9.93702
G1 X94.164 Y108.335 E9.9754
G1 X94.365 Y107.578 E10.01447
G1 X95.048 Y105.467 E10.12517
G1 X95.323 Y104.749 E10.16353
G1 X95.585 Y104.229 E10.19257
G1 X95.446 Y103.165 E10.24611
G1 X95.437 Y101.915 E10.30847
G1 X95.557 Y100.893 E10.35981
G1 X95.807 Y99.87 E10.41235
G1 X95.997 Y99.279 E10.44332
G1 X96.27 Y98.56 E10.48169
G1 X96.854 Y97.456 E10.544
G1 X97.446 Y96.609 E10.59556
G1 X97.681 Y96.349 E10.61304
G1 X97.612 Y95.914 E10.63502
G1 X97.571 Y95.146 E10.67339
G1 X97.61 Y94.377 E10.7118
G1 X97.729 Y93.617 E10.75018
G1 X97.93 Y92.86 E10.78926
G1 X99.007 Y89.531 E10.96382
G1 X99.282 Y88.813 E11.00217
G1 X99.629 Y88.127 E11.04053
G1 X100.046 Y87.48 E11.07893
G1 X100.528 Y86.881 E11.11729
M205 X10 Y10
G0 F6000 X100.881 Y87.086
M205 X8 Y8
G1 F1200 X101.415 Y86.562 E11.15461
G1 X101.929 Y86.149 E11.18751
G1 X104.765 Y84.085 E11.3625
G1 X105.392 Y83.678 E11.3998
G1 X106.06 Y83.34 E11.43715
G1 X106.759 Y83.075 E11.47444
G1 X107.483 Y82.887 E11.51176
G1 X108.223 Y82.776 E11.54909
G1 X108.884 Y82.745 E11.58211
G1 X112.388 Y82.745 E11.75692
G1 X113.135 Y82.785 E11.79424
G1 X113.873 Y82.904 E11.83154
G1 X114.595 Y83.102 E11.86889
G1 X115.291 Y83.375 E11.90619
G1 X115.954 Y83.722 E11.94352
G1 X116.507 Y84.085 E11.97652
G1 X119.343 Y86.149 E12.15152
G1 X119.924 Y86.621 E12.18886
G1 X120.45 Y87.152 E12.22615
G1 X120.917 Y87.737 E12.2635
G1 X121.32 Y88.367 E12.30081
G1 X121.652 Y89.038 E12.33816
G1 X121.881 Y89.643 E12.37043
G1 X122.964 Y92.972 E12.54508
G1 X123.157 Y93.695 E12.58242
G1 X123.272 Y94.434 E12.61973
G1 X123.307 Y95.182 E12.65709
G1 X123.262 Y95.928 E12.69437
G1 X123.138 Y96.666 E12.73171
G1 X122.943 Y97.365 E12.76791
G1 X122.477 Y98.753 E12.84096
G1 X122.829 Y100.104 E12.91061
G1 X122.979 Y100.837 E12.94794
G1 X123.055 Y101.938 E13.003
G1 X123.032 Y104.207 E13.1162
G1 X122.984 Y104.954 E13.15355
G1 X122.857 Y105.691 E13.19086
G1 X122.666 Y106.37 E13.22605
G1 X121.191 Y110.749 E13.45658
G1 X120.914 Y111.445 E13.49395
G1 X120.425 Y112.331 E13.54444
G1 X119.605 Y113.592 E13.61948
G1 X119.165 Y114.197 E13.65681
G1 X118.662 Y114.75 E13.6941
G1 X118.016 Y115.325 E13.73725
G1 X113.421 Y118.532 E14.01681
G1 X112.785 Y118.927 E14.05416
G1 X112.008 Y119.302 E14.0972
G1 X110.02 Y119.994 E14.20222
G1 X109.302 Y120.202 E14.23951
G1 X108.565 Y120.332 E14.27685
G1 X107.925 Y120.38 E14.30887
G1 X104.579 Y120.479 E14.47588
G1 X103.831 Y120.461 E14.5132
G1 X103.089 Y120.364 E14.55054
G1 X102.362 Y120.187 E14.58787
G1 X101.658 Y119.935 E14.62517
G1 X100.985 Y119.608 E14.6625
G1 X100.501 Y119.315 E14.69073
G1 X98.218 Y117.8 E14.82743
G1 X97.618 Y117.353 E14.86475
G1 X97.069 Y116.845 E14.90207
G1 X96.577 Y116.282 E14.93937
G1 X96.148 Y115.669 E14.9767
G1 X95.787 Y115.014 E15.01401
G1 X95.429 Y114.122 E15.06197
G1 X94.746 Y112.011 E15.17266
G1 X94.554 Y111.288 E15.20998
G1 X94.44 Y110.548 E15.24733
G1 X94.406 Y109.801 E15.28464
G1 X94.452 Y109.054 E15.32198
G1 X94.577 Y108.317 E15.35927
G1 X94.746 Y107.701 E15.39114
G1 X95.429 Y105.59 E15.50184
G1 X95.697 Y104.892 E15.53914
G1 X95.998 Y104.302 E15.57218
G1 X95.843 Y103.113 E15.632
G1 X95.837 Y101.936 E15.69072
G1 X95.955 Y100.94 E15.74076
G1 X96.188 Y99.993 E15.78942
G1 X96.378 Y99.402 E15.82039
G1 X96.645 Y98.703 E15.85772
G1 X97.196 Y97.665 E15.91635
G1 X97.774 Y96.839 E15.96665
G1 X98.104 Y96.474 E15.9912
G1 X98.005 Y95.831 E16.02365
G1 X97.971 Y95.084 E16.06096
G1 X98.017 Y94.337 E16.0983
G1 X98.142 Y93.599 E16.13564
G1 X98.311 Y92.983 E16.16751
G1 X99.388 Y89.654 E16.34207
G1 X99.656 Y88.956 E16.37937
G1 X99.997 Y88.29 E16.4167
G1 X100.407 Y87.664 E16.45403
G1 X100.881 Y87.086 E16.49133
M205 X10 Y10
G0 F6000 X101.234 Y87.294
M205 X8 Y8
G1 F1200 X101.759 Y86.792 E16.52757
G1 X102.164 Y86.473 E16.55329
G1 X105 Y84.409 E16.72828
G1 X105.61 Y84.014 E16.76454
G1 X106.26 Y83.689 E16.80079
G1 X106.941 Y83.437 E16.83702
G1 X107.646 Y83.262 E16.87326
G1 X108.366 Y83.165 E16.9095
G1 X108.884 Y83.145 E16.93537
G1 X112.388 Y83.145 E17.11018
G1 X113.113 Y83.185 E17.14641
G1 X113.83 Y83.304 E17.18267
G1 X114.529 Y83.502 E17.21891
G1 X115.202 Y83.775 E17.25515
G1 X115.841 Y84.12 E17.29138
G1 X116.272 Y84.409 E17.31727
G1 X119.108 Y86.473 E17.49226
G1 X119.671 Y86.932 E17.5285
G1 X120.18 Y87.45 E17.56473
G1 X120.629 Y88.021 E17.60097
G1 X121.012 Y88.638 E17.6372
G1 X121.326 Y89.293 E17.67344
G1 X121.5 Y89.767 E17.69863
G1 X122.583 Y93.096 E17.87328
G1 X122.77 Y93.798 E17.90953
G1 X122.878 Y94.517 E17.9458
G1 X122.906 Y95.242 E17.982
G1 X122.855 Y95.967 E18.01826
G1 X122.724 Y96.681 E18.05447
G1 X122.564 Y97.237 E18.08334
G1 X122.06 Y98.738 E18.16233
G1 X122.442 Y100.205 E18.23796
G1 X122.586 Y100.917 E18.2742
G1 X122.655 Y101.934 E18.32506
G1 X122.632 Y104.203 E18.43827
G1 X122.584 Y104.928 E18.47451
G1 X122.458 Y105.643 E18.51074
G1 X122.287 Y106.243 E18.54186
G1 X120.812 Y110.622 E18.77239
G1 X120.542 Y111.296 E18.80862
G1 X120.09 Y112.113 E18.8552
G1 X119.27 Y113.374 E18.93024
G1 X118.841 Y113.96 E18.96647
G1 X118.35 Y114.496 E19.00274
G1 X117.514 Y115.188 E19.05688
G1 X113.192 Y118.204 E19.31982
G1 X112.574 Y118.587 E19.35609
G1 X111.586 Y119.025 E19.41001
G1 X109.889 Y119.616 E19.49966
G1 X109.191 Y119.817 E19.5359
G1 X108.475 Y119.939 E19.57213
G1 X107.913 Y119.98 E19.60025
G1 X104.567 Y120.079 E19.76725
G1 X103.841 Y120.061 E19.80348
G1 X103.121 Y119.962 E19.83974
G1 X102.417 Y119.786 E19.87595
G1 X101.736 Y119.533 E19.91219
G1 X100.983 Y119.154 E19.95425
G1 X98.44 Y117.466 E20.10653
G1 X97.857 Y117.032 E20.14279
G1 X97.327 Y116.536 E20.179
G1 X96.853 Y115.985 E20.21526
G1 X96.443 Y115.386 E20.25148
G1 X96.102 Y114.745 E20.2877
G1 X95.809 Y113.999 E20.32769
G1 X95.126 Y111.888 E20.43838
G1 X94.941 Y111.185 E20.47465
G1 X94.834 Y110.467 E20.51086
G1 X94.807 Y109.741 E20.54711
G1 X94.86 Y109.017 E20.58333
G1 X95.017 Y108.162 E20.62669
G1 X95.809 Y105.713 E20.75511
G1 X96.071 Y105.036 E20.79132
G1 X96.435 Y104.333 E20.83082
G1 X96.333 Y103.782 E20.85877
G1 X96.24 Y103.062 E20.89499
G1 X96.236 Y101.955 E20.95022
G1 X96.353 Y100.987 E20.99887
G1 X96.569 Y100.115 E21.04369
G1 X96.759 Y99.524 E21.07466
G1 X97.019 Y98.846 E21.11089
G1 X97.538 Y97.87 E21.16604
G1 X98.102 Y97.069 E21.21491
G1 X98.526 Y96.602 E21.24638
G1 X98.399 Y95.749 E21.2894
G1 X98.372 Y95.023 E21.32565
G1 X98.425 Y94.299 E21.36187
G1 X98.582 Y93.442 E21.40533
G1 X99.768 Y89.777 E21.59752
G1 X100.03 Y89.1 E21.63373
G1 X100.364 Y88.455 E21.66997
G1 X100.767 Y87.85 E21.70624
G1 X101.234 Y87.294 E21.74246
M205 X10 Y10
G0 F6000 X101.585 Y87.505
M205 X8 Y8
G1 F1200 X102.174 Y86.961 E21.78247
G1 X105.236 Y84.732 E21.97142
G1 X105.827 Y84.351 E22.0065
G1 X106.459 Y84.039 E22.04166
G1 X107.121 Y83.801 E22.07676
G1 X107.806 Y83.639 E22.11188
G1 X108.607 Y83.545 E22.15211
G1 X112.388 Y83.545 E22.34075
G1 X113.091 Y83.585 E22.37588
G1 X113.785 Y83.704 E22.41101
G1 X114.46 Y83.902 E22.4461
G1 X115.109 Y84.174 E22.48121
G1 X115.812 Y84.569 E22.52144
G1 X118.872 Y86.796 E22.71025
G1 X119.417 Y87.242 E22.74539
G1 X119.908 Y87.747 E22.78053
G1 X120.338 Y88.304 E22.81563
G1 X120.703 Y88.906 E22.85076
G1 X121.037 Y89.635 E22.89076
G1 X122.203 Y93.22 E23.07884
G1 X122.382 Y93.901 E23.11397
G1 X122.483 Y94.597 E23.14906
G1 X122.505 Y95.301 E23.1842
G1 X122.446 Y96.003 E23.21934
G1 X122.286 Y96.81 E23.26039
G1 X121.643 Y98.724 E23.36112
G1 X122.055 Y100.306 E23.44268
G1 X122.194 Y100.996 E23.4778
G1 X122.255 Y101.93 E23.52449
G1 X122.232 Y104.199 E23.6377
G1 X122.185 Y104.901 E23.6728
G1 X122.058 Y105.594 E23.70795
G1 X121.908 Y106.115 E23.735
G1 X120.433 Y110.494 E23.96553
G1 X120.17 Y111.147 E24.00065
G1 X119.755 Y111.895 E24.04333
G1 X118.935 Y113.156 E24.11837
G1 X118.518 Y113.723 E24.15349
G1 X118.04 Y114.24 E24.18861
G1 X117.285 Y114.86 E24.23735
G1 X112.963 Y117.876 E24.50029
G1 X112.364 Y118.246 E24.53542
G1 X111.454 Y118.647 E24.58503
G1 X109.757 Y119.238 E24.67468
G1 X109.08 Y119.432 E24.70982
G1 X108.249 Y119.57 E24.75184
G1 X104.555 Y119.679 E24.93622
G1 X103.852 Y119.66 E24.9713
G1 X103.155 Y119.561 E25.00642
G1 X102.473 Y119.384 E25.04158
G1 X101.816 Y119.131 E25.0767
G1 X100.944 Y118.648 E25.12643
G1 X98.661 Y117.133 E25.26313
G1 X98.097 Y116.711 E25.29827
G1 X97.585 Y116.228 E25.33339
G1 X97.131 Y115.69 E25.36851
G1 X96.741 Y115.104 E25.40363
G1 X96.42 Y114.477 E25.43877
G1 X96.19 Y113.876 E25.47087
G1 X95.507 Y111.765 E25.58157
G1 X95.329 Y111.084 E25.61668
G1 X95.229 Y110.387 E25.65181
