;FLAVOR:Marlin
;TIME:3765
;Filament used: 3.12039m
;Layer height: 0.2
;MINX:70.174
;MINY:54.4
;MINZ:0.3
;MAXX:139.838
;MAXY:155.596
;MAXZ:5.975
;Generated with Cura_SteamEngine 5.2.1
M82 ;absolute extrusion mode
;Profil Homepage: https://github.com/NilsRo/Cura_Anycubic_MegaS_Profile

;Slicer Information - (Support for OctoPrint Slicer Estimator)
;Slicer info:material_guid;0ff92885-617b-4144-a03c-9989872454bc
;Slicer info:material_id;generic_pla_175
;Slicer info:material_brand;Generic
;Slicer info:material_name;PLA
;Slicer info:filament_cost;[0.0]
;Slicer info:material_bed_temperature;60
;Slicer info:material_bed_temperature_layer_0;60
;Slicer info:material_print_temperature;200
;Slicer info:material_print_temperature_layer_0;205
;Slicer info:material_flow;100
;Slicer info:layer_height;0.2
;Slicer info:machine_nozzle_size;0.4
;Slicer info:wall_thickness;1.2000000000000002
;Slicer info:speed_print;50.0
;Slicer info:speed_topbottom;25.0
;Slicer info:travel_speed;100.0
;Slicer info:support;0
;Slicer info:retraction_speed;30
;Slicer info:retraction_amount;6
;Slicer info:layer_height;0.2
;Slicer info:infill_pattern;grid
;Slicer info:infill_sparse_density;25
;Slicer info:cool_fan_enabled;True
;Slicer info:cool_fan_speed;100
;Slicer info:sliced_at;Tue 14-03-2023 09:25:10
G21                                        ; metric values 
G90                                        ; absolute positioning 
M82                                        ; set extruder to absolute mode 
M107                                       ; start with the fan off 
M140 S60   ; Start heating the bed 
G4 S60                                     ; wait 1 minute 
M104 S205 ; start heating the hot end 
M190 S60   ; wait for bed 
M109 S205 ; wait for hotend 
M300 S1000 P500                            ; BEEP heating done 
G28 X0 Y10 Z0                              ; move X/Y to min endstops 
M420 S1                                    ; Enable leveling 
M420 Z2.0                                  ; Set leveling fading height to 2 mm 
G0 Z0.15                                   ; lift nozzle a bit 
G92 E0                                     ; zero the extruded length 
G1 X50 E20 F500                            ; Extrude 20mm of filament in a 5cm line. 
G92 E0                                     ; zero the extruded length again 
G1 E-2 F500                                ; Retract a little 
G1 X50 F500                                ; wipe away from the filament line
G1 X100 F9000                              ; Quickly wipe away from the filament line
G92 E0
G92 E0
G1 F1800 E-6
;LAYER_COUNT:29
;LAYER:0
M106 S76.5
M205 X10 Y10
G1 F480 Z0.375
G0 F6000 X72.891 Y59.344 Z0.375
M205 X8 Y8
;TYPE:SKIRT
G1 F480 Z0.3
G1 F1800 E0
G1 F1200 X73.705 Y58.397 E0.0623
G1 X74.249 Y57.825 E0.10168
G1 X75.124 Y57.107 E0.15815
G1 X76.132 Y56.396 E0.21969
G1 X76.8 Y55.974 E0.25911
G1 X77.824 Y55.492 E0.31558
G1 X78.979 Y55.047 E0.37733
G1 X79.729 Y54.8 E0.41672
G1 X80.865 Y54.579 E0.47446
G1 X81.92 Y54.454 E0.52746
G1 X82.838 Y54.4 E0.57334
G1 X127.181 Y54.4 E2.78562
G1 X127.919 Y54.435 E2.82248
G1 X128.466 Y54.487 E2.8499
G1 X129.624 Y54.686 E2.90852
G1 X130.578 Y54.925 E2.95758
G1 X131.333 Y55.155 E2.99696
G1 X132.011 Y55.437 E3.03359
G1 X133.1 Y55.951 E3.09367
G1 X133.796 Y56.324 E3.13307
G1 X134.451 Y56.765 E3.17246
G1 X134.856 Y57.09 E3.19837
G1 X135.804 Y57.905 E3.26074
G1 X136.376 Y58.45 E3.30016
G1 X137.093 Y59.324 E3.35656
G1 X137.804 Y60.332 E3.4181
G1 X138.226 Y61 E3.45752
G1 X138.708 Y62.022 E3.51389
G1 X139.154 Y63.179 E3.57575
G1 X139.4 Y63.93 E3.61518
G1 X139.622 Y65.071 E3.67317
G1 X139.746 Y66.122 E3.72597
G1 X139.8 Y67.036 E3.77165
G1 X139.8 Y142.028 E7.51302
G1 X139.838 Y142.873 E7.55522
G1 X139.834 Y143.662 E7.59458
G1 X139.749 Y144.447 E7.63397
G1 X139.642 Y144.993 E7.66173
G1 X139.364 Y146.186 E7.72285
G1 X139.147 Y146.945 E7.76223
G1 X138.862 Y147.658 E7.80054
G1 X138.448 Y148.564 E7.85023
G1 X138.084 Y149.265 E7.88964
G1 X137.66 Y149.913 E7.92827
G1 X137.071 Y150.722 E7.9782
G1 X136.574 Y151.336 E8.01761
G1 X136.178 Y151.747 E8.04608
G1 X135.459 Y152.44 E8.0959
G1 X134.863 Y152.959 E8.13533
G1 X133.907 Y153.601 E8.19278
G1 X132.817 Y154.222 E8.25537
G1 X132.112 Y154.578 E8.29477
G1 X131.015 Y154.968 E8.35286
G1 X130.054 Y155.231 E8.40257
G1 X128.909 Y155.454 E8.46076
G1 X128.163 Y155.542 E8.49824
G1 X127.249 Y155.596 E8.54392
G1 X82.466 Y155.596 E10.77815
G1 X81.677 Y155.556 E10.81757
G1 X80.783 Y155.412 E10.86274
G1 X79.837 Y155.203 E10.91108
G1 X78.715 Y154.865 E10.96954
G1 X78.017 Y154.596 E11.00686
G1 X76.964 Y154.097 E11.06499
G1 X76.096 Y153.603 E11.11482
G1 X75.43 Y153.178 E11.15424
G1 X74.541 Y152.44 E11.21188
G1 X73.822 Y151.747 E11.2617
G1 X73.282 Y151.171 E11.30109
G1 X72.929 Y150.722 E11.32959
G1 X72.34 Y149.913 E11.37951
G1 X71.908 Y149.252 E11.41891
G1 X71.555 Y148.57 E11.45722
G1 X71.14 Y147.664 E11.50694
G1 X70.847 Y146.931 E11.54632
G1 X70.68 Y146.372 E11.57543
G1 X70.493 Y145.65 E11.61263
G1 X70.287 Y144.507 E11.67058
G1 X70.209 Y143.763 E11.7079
G1 X70.174 Y142.597 E11.7661
G1 X70.2 Y142.023 E11.79476
G1 X70.206 Y66.653 E15.55499
G1 X70.246 Y65.865 E15.59435
G1 X70.44 Y64.756 E15.65052
G1 X70.725 Y63.62 E15.70895
G1 X70.956 Y62.865 E15.74834
G1 X71.239 Y62.186 E15.78504
G1 X71.754 Y61.096 E15.84519
G1 X72.127 Y60.4 E15.88458
G1 X72.568 Y59.745 E15.92398
G1 X72.891 Y59.344 E15.94967
M205 X10 Y10
G0 F6000 X72.981 Y59.852
M205 X8 Y8
G1 F1200 X74.008 Y58.657 E16.02828
G1 X74.539 Y58.101 E16.06663
G1 X75.355 Y57.434 E16.11922
G1 X76.363 Y56.723 E16.18076
G1 X77.013 Y56.313 E16.2191
G1 X77.968 Y55.865 E16.27172
G1 X79.123 Y55.42 E16.33348
G1 X79.854 Y55.181 E16.37185
G1 X80.912 Y54.976 E16.42561
G1 X81.967 Y54.851 E16.47861
G1 X82.838 Y54.8 E16.52214
G1 X127.181 Y54.8 E18.73442
G1 X127.881 Y54.833 E18.76939
G1 X128.428 Y54.885 E18.7968
G1 X129.526 Y55.074 E18.85238
G1 X130.48 Y55.313 E18.90145
G1 X131.216 Y55.538 E18.93985
G1 X131.841 Y55.799 E18.97364
G1 X132.93 Y56.313 E19.03372
G1 X133.607 Y56.677 E19.07206
G1 X134.341 Y57.175 E19.11632
G1 X135.543 Y58.209 E19.19542
G1 X136.1 Y58.74 E19.23381
G1 X136.766 Y59.555 E19.28632
G1 X137.477 Y60.563 E19.34786
G1 X137.887 Y61.213 E19.3862
G1 X138.335 Y62.166 E19.43874
G1 X138.781 Y63.323 E19.5006
G1 X139.02 Y64.054 E19.53897
G1 X139.225 Y65.118 E19.59303
G1 X139.349 Y66.169 E19.64583
G1 X139.4 Y67.036 E19.68916
G1 X139.4 Y142.024 E23.43033
G1 X139.439 Y142.891 E23.47363
G1 X139.433 Y143.66 E23.51199
G1 X139.333 Y144.559 E23.55712
G1 X138.975 Y146.095 E23.63581
G1 X138.762 Y146.834 E23.67418
G1 X138.499 Y147.492 E23.70953
G1 X138.085 Y148.398 E23.75922
G1 X137.729 Y149.08 E23.79761
G1 X137.336 Y149.678 E23.83331
G1 X136.747 Y150.487 E23.88323
G1 X136.263 Y151.084 E23.92157
G1 X135.9 Y151.459 E23.94761
G1 X135.181 Y152.152 E23.99743
G1 X134.601 Y152.656 E24.03577
G1 X133.709 Y153.254 E24.08935
G1 X132.619 Y153.875 E24.15193
G1 X131.932 Y154.22 E24.19029
G1 X130.909 Y154.583 E24.24444
G1 X129.948 Y154.846 E24.29415
G1 X128.862 Y155.057 E24.34934
G1 X128.116 Y155.145 E24.38682
G1 X127.249 Y155.196 E24.43015
G1 X82.466 Y155.196 E26.66438
G1 X81.698 Y155.156 E26.70275
G1 X80.87 Y155.022 E26.7446
G1 X79.924 Y154.813 E26.79293
G1 X78.859 Y154.492 E26.84842
G1 X78.161 Y154.223 E26.88574
G1 X77.162 Y153.749 E26.94091
G1 X76.294 Y153.255 E26.99074
G1 X75.646 Y152.841 E27.0291
G1 X74.819 Y152.152 E27.0828
G1 X74.1 Y151.459 E27.13262
G1 X73.574 Y150.897 E27.17103
G1 X73.253 Y150.487 E27.197
G1 X72.664 Y149.678 E27.24693
G1 X72.244 Y149.033 E27.28533
G1 X71.918 Y148.404 E27.32068
G1 X71.503 Y147.498 E27.37039
G1 X71.22 Y146.783 E27.40876
G1 X71.067 Y146.271 E27.43542
G1 X70.88 Y145.549 E27.47263
G1 X70.684 Y144.466 E27.52753
G1 X70.606 Y143.722 E27.56486
G1 X70.574 Y142.615 E27.62011
G1 X70.6 Y142.041 E27.64877
G1 X70.606 Y66.653 E31.4099
G1 X70.646 Y65.885 E31.44826
G1 X70.828 Y64.853 E31.50055
G1 X71.113 Y63.717 E31.55898
G1 X71.339 Y62.982 E31.59734
G1 X71.6 Y62.357 E31.63113
G1 X72.115 Y61.267 E31.69128
G1 X72.479 Y60.589 E31.72967
G1 X72.981 Y59.852 E31.77416
M205 X10 Y10
G0 F6000 X73.313 Y60.08
M205 X8 Y8
G1 F1200 X74.312 Y58.918 E31.85061
G1 X74.829 Y58.378 E31.88791
G1 X75.585 Y57.761 E31.93659
G1 X76.593 Y57.05 E31.99813
G1 X77.227 Y56.652 E32.03548
G1 X78.111 Y56.238 E32.08418
G1 X79.266 Y55.793 E32.14593
G1 X79.978 Y55.562 E32.18327
G1 X80.959 Y55.374 E32.23311
G1 X82.014 Y55.249 E32.28611
G1 X82.838 Y55.2 E32.32729
G1 X127.181 Y55.2 E34.53957
G1 X127.843 Y55.231 E34.57264
G1 X128.39 Y55.283 E34.60005
G1 X129.429 Y55.462 E34.65265
G1 X130.383 Y55.701 E34.70171
G1 X131.098 Y55.921 E34.73904
G1 X131.67 Y56.161 E34.76998
G1 X132.759 Y56.675 E34.83006
G1 X133.417 Y57.03 E34.86736
G1 X134.114 Y57.508 E34.90953
G1 X135.282 Y58.512 E34.98637
G1 X135.823 Y59.029 E35.0237
G1 X136.439 Y59.785 E35.07235
G1 X137.15 Y60.793 E35.1339
G1 X137.548 Y61.427 E35.17124
G1 X137.962 Y62.31 E35.2199
G1 X138.408 Y63.467 E35.28176
G1 X138.639 Y64.179 E35.3191
G1 X138.828 Y65.165 E35.36919
G1 X138.952 Y66.216 E35.42199
G1 X139 Y67.036 E35.46297
G1 X139 Y142.042 E39.20503
G1 X139.039 Y142.909 E39.24833
G1 X139.033 Y143.657 E39.28565
G1 X138.933 Y144.512 E39.3286
G1 X138.585 Y146.005 E39.40508
G1 X138.377 Y146.723 E39.44238
G1 X138.135 Y147.325 E39.47475
G1 X137.721 Y148.231 E39.52444
G1 X137.374 Y148.894 E39.56177
G1 X137.013 Y149.442 E39.59451
G1 X136.424 Y150.251 E39.64444
G1 X135.866 Y150.937 E39.68856
G1 X134.904 Y151.864 E39.75521
G1 X134.338 Y152.354 E39.79256
G1 X133.511 Y152.906 E39.84216
G1 X132.421 Y153.527 E39.90475
G1 X131.752 Y153.862 E39.94208
G1 X130.804 Y154.197 E39.99224
G1 X129.843 Y154.46 E40.04195
G1 X128.815 Y154.66 E40.09419
G1 X128.069 Y154.748 E40.13167
G1 X127.249 Y154.796 E40.17265
G1 X82.466 Y154.796 E42.40688
G1 X81.719 Y154.756 E42.44421
G1 X80.956 Y154.631 E42.48278
G1 X80.01 Y154.422 E42.53111
G1 X79.003 Y154.119 E42.58358
G1 X78.305 Y153.85 E42.6209
G1 X77.36 Y153.402 E42.67307
G1 X76.492 Y152.908 E42.7229
G1 X75.862 Y152.504 E42.76024
G1 X75.096 Y151.864 E42.81004
G1 X74.377 Y151.171 E42.85986
G1 X73.778 Y150.529 E42.90366
G1 X72.987 Y149.442 E42.97073
G1 X72.58 Y148.815 E43.00803
G1 X72.282 Y148.237 E43.04047
G1 X71.867 Y147.331 E43.09019
G1 X71.543 Y146.511 E43.13418
G1 X71.268 Y145.449 E43.18891
G1 X71.082 Y144.424 E43.24088
G1 X71.004 Y143.68 E43.2782
G1 X70.973 Y142.633 E43.33046
G1 X71 Y142.037 E43.36022
G1 X71.006 Y66.653 E47.12115
G1 X71.046 Y65.906 E47.15847
G1 X71.216 Y64.951 E47.20686
G1 X71.501 Y63.815 E47.26529
G1 X71.722 Y63.1 E47.30263
G1 X71.962 Y62.528 E47.33358
G1 X72.477 Y61.438 E47.39372
G1 X72.832 Y60.779 E47.43107
G1 X73.313 Y60.08 E47.4734
M205 X10 Y10
G0 F6000 X73.801 Y60.126
M205 X8 Y8
G1 F1200 X74.615 Y59.179 E47.5357
G1 X75.118 Y58.655 E47.57194
G1 X75.816 Y58.088 E47.6168
G1 X76.824 Y57.377 E47.67834
G1 X77.439 Y56.991 E47.71457
G1 X78.255 Y56.611 E47.75948
G1 X79.41 Y56.166 E47.82123
G1 X80.101 Y55.943 E47.85745
G1 X81.006 Y55.771 E47.90341
G1 X82.061 Y55.646 E47.95642
G1 X82.838 Y55.6 E47.99525
G1 X127.181 Y55.6 E50.20753
G1 X127.806 Y55.63 E50.23875
G1 X128.353 Y55.682 E50.26616
G1 X129.332 Y55.85 E50.31572
G1 X130.286 Y56.089 E50.36478
G1 X130.98 Y56.304 E50.40103
G1 X131.499 Y56.522 E50.42911
G1 X132.588 Y57.036 E50.48919
G1 X133.227 Y57.382 E50.52545
G1 X134.074 Y58 E50.57775
G1 X135.022 Y58.815 E50.64013
G1 X135.546 Y59.318 E50.67636
G1 X136.112 Y60.016 E50.7212
G1 X136.823 Y61.024 E50.78274
G1 X137.209 Y61.639 E50.81896
G1 X137.588 Y62.454 E50.86381
G1 X138.034 Y63.611 E50.92567
G1 X138.258 Y64.302 E50.96191
G1 X138.431 Y65.212 E51.00812
G1 X138.555 Y66.263 E51.06092
G1 X138.6 Y67.036 E51.09955
G1 X138.6 Y142.06 E54.84251
G1 X138.639 Y142.927 E54.88581
G1 X138.632 Y143.653 E54.92203
G1 X138.474 Y144.721 E54.9759
G1 X138.196 Y145.914 E55.03701
G1 X137.992 Y146.611 E55.07324
G1 X137.771 Y147.159 E55.10272
G1 X137.357 Y148.065 E55.15242
G1 X137.019 Y148.708 E55.18866
G1 X136.69 Y149.207 E55.21848
G1 X136.101 Y150.016 E55.2684
G1 X135.565 Y150.671 E55.31063
G1 X134.626 Y151.576 E55.37569
G1 X134.076 Y152.051 E55.41195
G1 X133.313 Y152.559 E55.45768
G1 X132.223 Y153.18 E55.52027
G1 X131.573 Y153.504 E55.5565
G1 X130.698 Y153.811 E55.60276
G1 X129.737 Y154.074 E55.65247
G1 X128.768 Y154.263 E55.70173
G1 X128.022 Y154.351 E55.7392
G1 X127.249 Y154.396 E55.77783
G1 X82.466 Y154.396 E58.01206
G1 X81.741 Y154.356 E58.04829
G1 X81.042 Y154.241 E58.08363
G1 X80.096 Y154.032 E58.13197
G1 X79.147 Y153.745 E58.18143
G1 X78.449 Y153.476 E58.21875
G1 X77.557 Y153.054 E58.26798
G1 X76.689 Y152.56 E58.31781
G1 X76.079 Y152.167 E58.35401
G1 X75.374 Y151.576 E58.39991
G1 X74.655 Y150.883 E58.44973
G1 X74.081 Y150.267 E58.49173
G1 X73.31 Y149.207 E58.55713
G1 X72.916 Y148.597 E58.59336
G1 X72.646 Y148.071 E58.62285
G1 X72.231 Y147.165 E58.67257
G1 X71.922 Y146.379 E58.71471
G1 X71.655 Y145.349 E58.76779
G1 X71.48 Y144.382 E58.81682
G1 X71.402 Y143.638 E58.85414
G1 X71.373 Y142.651 E58.9034
G1 X71.4 Y142.055 E58.93317
G1 X71.406 Y66.653 E62.69499
G1 X71.446 Y65.928 E62.73121
G1 X71.604 Y65.048 E62.77582
G1 X71.889 Y63.912 E62.83425
G1 X72.105 Y63.218 E62.87051
G1 X72.324 Y62.699 E62.89862
G1 X72.839 Y61.609 E62.95876
G1 X73.185 Y60.97 E62.99501
G1 X73.801 Y60.126 E63.04714
M205 X10 Y10
G0 F6000 X74.104 Y60.387
M205 X8 Y8
G1 F1200 X74.918 Y59.44 E63.10945
G1 X75.407 Y58.933 E63.14459
G1 X76.046 Y58.415 E63.18563
G1 X77.054 Y57.704 E63.24717
G1 X77.652 Y57.331 E63.28233
G1 X78.399 Y56.985 E63.3234
G1 X79.554 Y56.54 E63.38515
G1 X80.224 Y56.324 E63.42027
G1 X81.054 Y56.168 E63.46241
G1 X82.109 Y56.043 E63.51541
G1 X82.838 Y56 E63.55184
G1 X127.181 Y56 E65.76412
G1 X127.768 Y56.028 E65.79344
G1 X128.315 Y56.08 E65.82086
G1 X129.235 Y56.238 E65.86743
G1 X130.189 Y56.477 E65.91649
G1 X130.861 Y56.686 E65.9516
G1 X131.328 Y56.884 E65.97691
G1 X132.417 Y57.398 E66.03699
G1 X133.036 Y57.734 E66.07213
G1 X133.813 Y58.304 E66.1202
G1 X134.761 Y59.119 E66.18258
G1 X135.268 Y59.607 E66.21768
G1 X135.785 Y60.246 E66.25869
G1 X136.496 Y61.254 E66.32023
G1 X136.869 Y61.852 E66.35539
G1 X137.215 Y62.598 E66.39642
G1 X137.661 Y63.755 E66.45828
G1 X137.877 Y64.425 E66.4934
G1 X138.033 Y65.259 E66.53573
G1 X138.157 Y66.31 E66.58853
G1 X138.2 Y67.036 E66.62482
G1 X138.2 Y142.054 E70.36748
G1 X138.24 Y142.944 E70.41193
G1 X138.231 Y143.648 E70.44705
G1 X138.084 Y144.63 E70.49659
G1 X137.806 Y145.823 E70.5577
G1 X137.608 Y146.499 E70.59285
G1 X137.407 Y146.993 E70.61945
G1 X136.993 Y147.899 E70.66915
G1 X136.665 Y148.521 E70.70423
G1 X136.366 Y148.971 E70.73119
G1 X135.777 Y149.78 E70.78111
G1 X135.267 Y150.403 E70.82128
G1 X134.349 Y151.288 E70.8849
G1 X133.815 Y151.747 E70.92003
G1 X133.115 Y152.211 E70.96193
G1 X132.025 Y152.832 E71.02451
G1 X131.395 Y153.145 E71.05961
G1 X130.593 Y153.425 E71.10199
G1 X129.632 Y153.688 E71.1517
G1 X128.721 Y153.865 E71.198
G1 X127.975 Y153.953 E71.23547
G1 X127.249 Y153.996 E71.27176
G1 X82.466 Y153.996 E73.50599
G1 X81.763 Y153.956 E73.54112
G1 X81.128 Y153.85 E73.57324
G1 X80.182 Y153.641 E73.62157
G1 X79.29 Y153.372 E73.66805
G1 X78.592 Y153.103 E73.70537
G1 X77.755 Y152.706 E73.75159
G1 X76.887 Y152.212 E73.80142
G1 X76.296 Y151.83 E73.83652
G1 X75.651 Y151.288 E73.87856
G1 X74.932 Y150.595 E73.92838
G1 X74.388 Y150.007 E73.96834
G1 X73.634 Y148.971 E74.03227
G1 X73.252 Y148.38 E74.06738
G1 X73.009 Y147.904 E74.09404
G1 X72.594 Y146.998 E74.14376
G1 X72.3 Y146.244 E74.18413
G1 X72.042 Y145.249 E74.23541
G1 X71.878 Y144.34 E74.2815
G1 X71.8 Y143.596 E74.31882
G1 X71.772 Y142.669 E74.36509
G1 X71.8 Y142.051 E74.39595
G1 X71.806 Y66.654 E78.15752
G1 X71.846 Y65.951 E78.19265
G1 X71.992 Y65.145 E78.23352
G1 X72.277 Y64.009 E78.29195
G1 X72.487 Y63.337 E78.32707
G1 X72.685 Y62.869 E78.35243
G1 X73.2 Y61.779 E78.41257
G1 X73.537 Y61.161 E78.44769
G1 X74.104 Y60.387 E78.49556
M205 X10 Y10
G0 F6000 X74.408 Y60.647
M205 X8 Y8
G1 F1200 X75.222 Y59.7 E78.55786
G1 X75.695 Y59.211 E78.5918
G1 X76.277 Y58.741 E78.62912
G1 X77.285 Y58.03 E78.69066
G1 X77.863 Y57.671 E78.72461
G1 X78.543 Y57.358 E78.76196
G1 X79.698 Y56.913 E78.82371
