;FLAVOR:Marlin
;TIME:5848
;Filament used: 2.63266m
;Layer height: 0.1
;MINX:67.6
;MINY:70.661
;MINZ:0.3
;MAXX:121.28
;MAXY:155.861
;MAXZ:5.875
;Generated with Cura_SteamEngine 5.2.1
M82 ;absolute extrusion mode
;Profil Homepage: https://github.com/NilsRo/Cura_Anycubic_MegaS_Profile

;Slicer Information - (Support for OctoPrint Slicer Estimator)
;Slicer info:material_guid;0ff92885-617b-4144-a03c-9989872454bc
;Slicer info:material_id;generic_pla_175
;Slicer info:material_brand;Generic
;Slicer info:material_name;PLA
;Slicer info:filament_cost;[0.0]
;Slicer info:material_bed_temperature;60
;Slicer info:material_bed_temperature_layer_0;60
;Slicer info:material_print_temperature;200
;Slicer info:material_print_temperature_layer_0;205
;Slicer info:material_flow;100
;Slicer info:layer_height;0.1
;Slicer info:machine_nozzle_size;0.4
;Slicer info:wall_thickness;1.2000000000000002
;Slicer info:speed_print;50.0
;Slicer info:speed_topbottom;25.0
;Slicer info:travel_speed;100.0
;Slicer info:support;0
;Slicer info:retraction_speed;30
;Slicer info:retraction_amount;6
;Slicer info:layer_height;0.1
;Slicer info:infill_pattern;grid
;Slicer info:infill_sparse_density;25
;Slicer info:cool_fan_enabled;True
;Slicer info:cool_fan_speed;100
;Slicer info:sliced_at;Thu 16-03-2023 17:13:59
G21                                        ; metric values 
G90                                        ; absolute positioning 
M82                                        ; set extruder to absolute mode 
M107                                       ; start with the fan off 
M140 S60   ; Start heating the bed 
G4 S60                                     ; wait 1 minute 
M104 S205 ; start heating the hot end 
M190 S60   ; wait for bed 
M109 S205 ; wait for hotend 
M300 S1000 P500                            ; BEEP heating done 
G28 X0 Y10 Z0                              ; move X/Y to min endstops 
M420 S1                                    ; Enable leveling 
M420 Z2.0                                  ; Set leveling fading height to 2 mm 
G0 Z0.15                                   ; lift nozzle a bit 
G92 E0                                     ; zero the extruded length 
G1 X50 E20 F500                            ; Extrude 20mm of filament in a 5cm line. 
G92 E0                                     ; zero the extruded length again 
G1 E-2 F500                                ; Retract a little 
G1 X50 F500                                ; wipe away from the filament line
G1 X100 F9000                              ; Quickly wipe away from the filament line
G92 E0
G92 E0
G1 F1800 E-6
;LAYER_COUNT:56
;LAYER:0
M106 S76.5
M205 X10 Y10
G1 F480 Z0.375
;MESH:Cashplate M.stl
G0 F6000 X119.867 Y73.414 Z0.375
M205 X8 Y8
;TYPE:WALL-INNER
G1 F480 Z0.3
G1 F1800 E0
G1 F1200 X119.276 Y72.619 E0.04942
G1 X118.339 Y71.923 E0.10765
G1 X117.591 Y71.634 E0.14766
G1 X116.818 Y71.462 E0.18717
G1 X72.334 Y71.461 E2.40648
G1 X71.456 Y71.566 E2.4506
G1 X70.544 Y71.917 E2.49935
G1 X69.736 Y72.487 E2.54869
G1 X69.234 Y73.067 E2.58696
G1 X68.825 Y73.749 E2.62663
G1 X68.558 Y74.494 E2.66611
G1 X68.44 Y75.294 E2.70646
G1 X68.434 Y150.481 E6.45755
G1 X68.416 Y151.385 E6.50266
G1 X68.507 Y151.973 E6.53235
G1 X68.745 Y152.733 E6.57208
G1 X69.163 Y153.408 E6.61169
G1 X69.547 Y153.861 E6.64132
G1 X70.176 Y154.382 E6.68206
G1 X70.673 Y154.665 E6.7106
G1 X71.46 Y154.945 E6.75227
G1 X72.028 Y155.057 E6.78116
G1 X116.621 Y155.057 E9.00591
G1 X117.237 Y154.983 E9.03686
G1 X117.797 Y154.83 E9.06583
G1 X118.539 Y154.479 E9.10678
G1 X119.013 Y154.143 E9.13576
G1 X119.583 Y153.566 E9.17623
G1 X120.024 Y152.889 E9.21654
G1 X120.335 Y152.16 E9.25608
G1 X120.465 Y151.163 E9.30624
G1 X120.434 Y150.509 E9.3389
G1 X120.434 Y75.344 E13.0889
G1 X120.37 Y74.668 E13.12278
G1 X120.125 Y73.93 E13.16157
G1 X119.867 Y73.414 E13.19036
M205 X10 Y10
G1 F1800 E7.19036
G1 F480 Z0.375
G0 F6000 X68.909 Y72.832 Z0.375
M205 X8 Y8
G1 F480 Z0.3
G1 F1800 E13.19036
G1 F1200 X68.461 Y73.577 E13.23373
G1 X68.168 Y74.397 E13.27717
G1 X68.04 Y75.265 E13.32094
G1 X68.034 Y150.473 E17.07308
G1 X68.015 Y151.412 E17.11994
G1 X68.116 Y152.064 E17.15286
G1 X68.378 Y152.901 E17.19661
G1 X68.839 Y153.644 E17.24024
G1 X69.265 Y154.146 E17.27308
G1 X69.947 Y154.712 E17.3173
G1 X70.506 Y155.03 E17.34939
G1 X71.354 Y155.332 E17.3943
G1 X71.989 Y155.457 E17.42658
G1 X116.645 Y155.457 E19.65448
G1 X117.314 Y155.377 E19.6881
G1 X117.936 Y155.207 E19.72027
G1 X118.742 Y154.826 E19.76474
G1 X119.273 Y154.449 E19.79723
G1 X119.896 Y153.818 E19.84147
G1 X120.378 Y153.079 E19.88549
G1 X120.725 Y152.266 E19.92959
G1 X120.866 Y151.179 E19.98428
G1 X120.834 Y150.491 E20.01864
G1 X120.834 Y75.325 E23.76868
G1 X120.764 Y74.586 E23.80572
G1 X120.496 Y73.776 E23.84828
G1 X120.209 Y73.203 E23.88026
G1 X119.562 Y72.333 E23.93435
G1 X118.534 Y71.57 E23.99822
G1 X117.707 Y71.25 E24.04246
G1 X116.864 Y71.062 E24.08555
G1 X72.31 Y71.061 E26.30836
G1 X71.359 Y71.174 E26.35614
G1 X70.354 Y71.562 E26.40988
G1 X69.465 Y72.189 E26.46416
G1 X68.909 Y72.832 E26.50657
M205 X10 Y10
G1 F1800 E20.50657
G1 F480 Z0.375
G0 F6000 X121.158 Y74.503 Z0.375
M205 X8 Y8
;TYPE:WALL-OUTER
G1 F480 Z0.3
G1 F1800 E26.50657
G1 F1200 X120.866 Y73.623 E26.55282
G1 X120.551 Y72.993 E26.58796
G1 X119.848 Y72.047 E26.64676
G1 X118.729 Y71.216 E26.7163
G1 X117.823 Y70.866 E26.76476
G1 X117.133 Y70.712 E26.80003
G1 X116.605 Y70.662 E26.82649
G1 X72.286 Y70.661 E29.03757
G1 X71.262 Y70.783 E29.08902
G1 X70.164 Y71.206 E29.14773
G1 X69.195 Y71.89 E29.2069
G1 X68.584 Y72.596 E29.25348
G1 X68.098 Y73.405 E29.30057
G1 X67.778 Y74.299 E29.34794
G1 X67.64 Y75.235 E29.39514
G1 X67.634 Y150.465 E33.14838
G1 X67.615 Y151.439 E33.19698
G1 X67.726 Y152.155 E33.23313
G1 X68.012 Y153.069 E33.28091
G1 X68.515 Y153.88 E33.32852
G1 X68.983 Y154.432 E33.36463
G1 X69.719 Y155.042 E33.41232
G1 X70.338 Y155.395 E33.44787
G1 X71.248 Y155.719 E33.49606
G1 X71.951 Y155.857 E33.5318
G1 X116.669 Y155.857 E35.76279
G1 X117.391 Y155.771 E35.79907
G1 X118.076 Y155.583 E35.83451
G1 X118.945 Y155.172 E35.88247
G1 X119.533 Y154.755 E35.91843
G1 X120.209 Y154.07 E35.96645
G1 X120.732 Y153.268 E36.01421
G1 X121.115 Y152.372 E36.06283
G1 X121.267 Y151.196 E36.12199
G1 X121.234 Y150.473 E36.15809
G1 X121.234 Y75.306 E39.90819
G1 X121.158 Y74.503 E39.94843
M205 X10 Y10
G0 F6000 X121.096 Y74.314
G1 F1800 E33.94843
G1 F480 Z0.375
G0 F6000 X70.391 Y154.066 Z0.375
M205 X8 Y8
;TYPE:SKIN
G1 F480 Z0.3
G1 F1800 E39.94843
G1 F1200 X70.829 Y154.315 E39.97357
G1 X71.559 Y154.575 E40.01223
G1 X72.07 Y154.677 E40.03823
G1 X116.595 Y154.677 E42.25959
G1 X117.167 Y154.608 E42.28833
G1 X117.661 Y154.473 E42.31388
G1 X118.342 Y154.151 E42.35146
G1 X118.768 Y153.849 E42.37751
G1 X119.289 Y153.321 E42.41452
G1 X119.689 Y152.706 E42.45112
G1 X119.964 Y152.061 E42.48611
G1 X120.083 Y151.142 E42.53234
G1 X120.055 Y150.53 E42.5629
G1 X120.054 Y75.36 E46.31315
G1 X119.995 Y74.748 E46.34382
G1 X119.772 Y74.071 E46.37938
G1 X119.541 Y73.611 E46.40506
G1 X119.004 Y72.892 E46.44984
G1 X118.155 Y72.259 E46.50267
G1 X117.477 Y71.998 E46.53891
G1 X116.774 Y71.842 E46.57484
G1 X72.359 Y71.842 E48.79071
G1 X71.544 Y71.938 E48.83166
G1 X70.73 Y72.252 E48.87518
G1 X69.991 Y72.774 E48.92032
G1 X69.547 Y73.287 E48.95417
G1 X69.172 Y73.908 E48.99036
G1 X68.929 Y74.591 E49.02653
G1 X68.821 Y75.326 E49.06359
G1 X68.814 Y150.466 E52.81234
G1 X68.797 Y151.354 E52.85665
G1 X68.878 Y151.886 E52.8835
G1 X69.094 Y152.575 E52.91953
G1 X69.471 Y153.182 E52.95517
G1 X69.816 Y153.589 E52.98179
G1 X70.391 Y154.066 E53.01907
M205 X10 Y10
G1 F1800 E47.01907
G1 F480 Z0.375
G0 F6000 X69.249 Y152.405 Z0.375
M205 X8 Y8
G1 F480 Z0.3
G1 F1800 E53.01907
G1 F1200 X71.009 Y154.165 E53.14324
G1 X71.079 Y154.235
M205 X10 Y10
G0 F6000 X71.886 Y154.476
M205 X8 Y8
G1 F1200 X69.04 Y151.63 E53.34404
M205 X10 Y10
G0 F6000 X69.002 Y151.026
M205 X8 Y8
G1 F1200 X72.452 Y154.476 E53.58746
M205 X10 Y10
G0 F6000 X73.017 Y154.476
M205 X8 Y8
G1 F1200 X69.012 Y150.471 E53.87003
M205 X10 Y10
G0 F6000 X69.013 Y149.906
M205 X8 Y8
G1 F1200 X73.583 Y154.476 E54.19247
M205 X10 Y10
G0 F6000 X74.149 Y154.476
M205 X8 Y8
G1 F1200 X69.013 Y149.34 E54.55485
M205 X10 Y10
G0 F6000 X69.013 Y148.775
M205 X8 Y8
G1 F1200 X74.715 Y154.476 E54.95712
M205 X10 Y10
G0 F6000 X75.28 Y154.476
M205 X8 Y8
G1 F1200 X69.013 Y148.209 E55.39929
M205 X10 Y10
G0 F6000 X69.013 Y147.643
M205 X8 Y8
G1 F1200 X75.846 Y154.476 E55.88139
M205 X10 Y10
G0 F6000 X76.412 Y154.476
M205 X8 Y8
G1 F1200 X69.013 Y147.078 E56.4034
M205 X10 Y10
G0 F6000 X69.013 Y146.512
M205 X8 Y8
G1 F1200 X76.977 Y154.476 E56.9653
M205 X10 Y10
G0 F6000 X77.543 Y154.476
M205 X8 Y8
G1 F1200 X69.013 Y145.946 E57.56714
M205 X10 Y10
G0 F6000 X69.013 Y145.381
M205 X8 Y8
G1 F1200 X78.109 Y154.476 E58.20887
M205 X10 Y10
G0 F6000 X78.674 Y154.476
M205 X8 Y8
G1 F1200 X69.013 Y144.815 E58.89051
M205 X10 Y10
G0 F6000 X69.013 Y144.249
M205 X8 Y8
G1 F1200 X79.24 Y154.476 E59.61208
M205 X10 Y10
G0 F6000 X79.806 Y154.476
M205 X8 Y8
G1 F1200 X69.013 Y143.684 E60.37355
M205 X10 Y10
G0 F6000 X69.014 Y143.119
M205 X8 Y8
G1 F1200 X80.371 Y154.476 E61.17485
M205 X10 Y10
G0 F6000 X80.937 Y154.476
M205 X8 Y8
G1 F1200 X69.014 Y142.553 E62.01608
M205 X10 Y10
G0 F6000 X69.014 Y141.987
M205 X8 Y8
G1 F1200 X81.503 Y154.476 E62.89725
M205 X10 Y10
G0 F6000 X82.068 Y154.476
M205 X8 Y8
G1 F1200 X69.014 Y141.422 E63.81828
M205 X10 Y10
G0 F6000 X69.014 Y140.856
M205 X8 Y8
G1 F1200 X82.634 Y154.476 E64.77924
M205 X10 Y10
G0 F6000 X83.2 Y154.476
M205 X8 Y8
G1 F1200 X69.014 Y140.29 E65.78014
M205 X10 Y10
G0 F6000 X69.014 Y139.725
M205 X8 Y8
G1 F1200 X83.765 Y154.476 E66.8209
M205 X10 Y10
G0 F6000 X84.331 Y154.476
M205 X8 Y8
G1 F1200 X69.014 Y139.159 E67.9016
M205 X10 Y10
G0 F6000 X69.014 Y138.593
M205 X8 Y8
G1 F1200 X84.897 Y154.476 E69.02223
M205 X10 Y10
G0 F6000 X85.463 Y154.476
M205 X8 Y8
G1 F1200 X69.014 Y138.027 E70.1828
M205 X10 Y10
G0 F6000 X69.014 Y137.462
M205 X8 Y8
G1 F1200 X86.028 Y154.476 E71.38323
M205 X10 Y10
G0 F6000 X86.594 Y154.476
M205 X8 Y8
G1 F1200 X69.014 Y136.896 E72.62359
M205 X10 Y10
G0 F6000 X69.015 Y136.331
M205 X8 Y8
G1 F1200 X87.16 Y154.476 E73.90382
M205 X10 Y10
G0 F6000 X87.725 Y154.476
M205 X8 Y8
G1 F1200 X69.015 Y135.765 E75.22394
M205 X10 Y10
G0 F6000 X69.015 Y135.2
M205 X8 Y8
G1 F1200 X88.291 Y154.476 E76.58397
M205 X10 Y10
G0 F6000 X88.857 Y154.476
M205 X8 Y8
G1 F1200 X69.015 Y134.634 E77.98393
M205 X10 Y10
G0 F6000 X69.015 Y134.068
M205 X8 Y8
G1 F1200 X89.422 Y154.476 E79.42379
M205 X10 Y10
G0 F6000 X89.988 Y154.476
M205 X8 Y8
G1 F1200 X69.015 Y133.503 E80.90355
M205 X10 Y10
G0 F6000 X69.015 Y132.937
M205 X8 Y8
G1 F1200 X90.554 Y154.476 E82.42324
M205 X10 Y10
G0 F6000 X91.119 Y154.476
M205 X8 Y8
G1 F1200 X69.015 Y132.371 E83.98283
M205 X10 Y10
G0 F6000 X69.015 Y131.806
M205 X8 Y8
G1 F1200 X91.685 Y154.476 E85.58232
M205 X10 Y10
G0 F6000 X92.251 Y154.476
M205 X8 Y8
G1 F1200 X69.015 Y131.24 E87.22175
M205 X10 Y10
G0 F6000 X69.015 Y130.674
M205 X8 Y8
G1 F1200 X92.816 Y154.476 E88.90107
M205 X10 Y10
G0 F6000 X93.382 Y154.476
M205 X8 Y8
G1 F1200 X69.015 Y130.109 E90.6203
M205 X10 Y10
G0 F6000 X69.015 Y129.544
M205 X8 Y8
G1 F1200 X93.948 Y154.476 E92.37942
M205 X10 Y10
G0 F6000 X94.514 Y154.476
M205 X8 Y8
G1 F1200 X69.015 Y128.978 E94.17848
M205 X10 Y10
G0 F6000 X69.015 Y128.412
M205 X8 Y8
G1 F1200 X95.079 Y154.476 E96.01743
M205 X10 Y10
G0 F6000 X95.645 Y154.476
M205 X8 Y8
G1 F1200 X69.015 Y127.847 E97.89629
M205 X10 Y10
G0 F6000 X69.015 Y127.281
M205 X8 Y8
G1 F1200 X96.211 Y154.476 E99.81508
M205 X10 Y10
G0 F6000 X96.776 Y154.476
M205 X8 Y8
G1 F1200 X69.015 Y126.715 E101.77377
M205 X10 Y10
G0 F6000 X69.015 Y126.149
M205 X8 Y8
G1 F1200 X97.342 Y154.476 E103.77239
M205 X10 Y10
G0 F6000 X97.908 Y154.476
M205 X8 Y8
G1 F1200 X69.015 Y125.584 E105.81091
M205 X10 Y10
G0 F6000 X69.015 Y125.018
M205 X8 Y8
G1 F1200 X98.473 Y154.476 E107.88933
M205 X10 Y10
G0 F6000 X99.039 Y154.476
M205 X8 Y8
G1 F1200 X69.015 Y124.452 E110.00769
M205 X10 Y10
G0 F6000 X69.015 Y123.887
M205 X8 Y8
G1 F1200 X99.605 Y154.476 E112.16594
M205 X10 Y10
G0 F6000 X100.17 Y154.476
M205 X8 Y8
G1 F1200 X69.015 Y123.321 E114.36409
M205 X10 Y10
G0 F6000 X69.016 Y122.756
M205 X8 Y8
G1 F1200 X100.736 Y154.476 E116.60211
M205 X10 Y10
G0 F6000 X101.302 Y154.476
M205 X8 Y8
G1 F1200 X69.016 Y122.19 E118.88006
M205 X10 Y10
G0 F6000 X69.016 Y121.625
M205 X8 Y8
G1 F1200 X101.867 Y154.476 E121.19788
M205 X10 Y10
G0 F6000 X102.433 Y154.476
M205 X8 Y8
G1 F1200 X69.016 Y121.059 E123.55563
M205 X10 Y10
G0 F6000 X69.016 Y120.493
M205 X8 Y8
G1 F1200 X102.999 Y154.476 E125.95331
M205 X10 Y10
G0 F6000 X103.564 Y154.476
M205 X8 Y8
G1 F1200 X69.016 Y119.928 E128.39086
M205 X10 Y10
G0 F6000 X69.016 Y119.362
M205 X8 Y8
G1 F1200 X104.13 Y154.476 E130.86834
M205 X10 Y10
G0 F6000 X104.696 Y154.476
M205 X8 Y8
G1 F1200 X69.016 Y118.796 E133.38576
M205 X10 Y10
G0 F6000 X69.016 Y118.231
M205 X8 Y8
G1 F1200 X105.262 Y154.476 E135.94308
M205 X10 Y10
G0 F6000 X105.827 Y154.476
M205 X8 Y8
G1 F1200 X69.016 Y117.665 E138.54029
M205 X10 Y10
G0 F6000 X69.016 Y117.099
M205 X8 Y8
G1 F1200 X106.393 Y154.476 E141.17744
M205 X10 Y10
G0 F6000 X106.959 Y154.476
M205 X8 Y8
G1 F1200 X69.016 Y116.534 E143.85449
M205 X10 Y10
G0 F6000 X69.017 Y115.969
M205 X8 Y8
G1 F1200 X107.524 Y154.476 E146.57137
M205 X10 Y10
G0 F6000 X108.09 Y154.476
M205 X8 Y8
G1 F1200 X69.017 Y115.403 E149.32818
M205 X10 Y10
G0 F6000 X69.017 Y114.837
M205 X8 Y8
G1 F1200 X108.656 Y154.476 E152.12492
M205 X10 Y10
G0 F6000 X109.221 Y154.476
M205 X8 Y8
G1 F1200 X69.017 Y114.271 E154.96157
M205 X10 Y10
G0 F6000 X69.017 Y113.706
M205 X8 Y8
G1 F1200 X109.787 Y154.476 E157.83811
M205 X10 Y10
G0 F6000 X110.353 Y154.476
M205 X8 Y8
G1 F1200 X69.017 Y113.14 E160.75459
M205 X10 Y10
G0 F6000 X69.017 Y112.574
M205 X8 Y8
G1 F1200 X110.918 Y154.476 E163.71097
M205 X10 Y10
G0 F6000 X111.484 Y154.476
M205 X8 Y8
G1 F1200 X69.017 Y112.009 E166.70724
M205 X10 Y10
G0 F6000 X69.017 Y111.443
M205 X8 Y8
G1 F1200 X112.05 Y154.476 E169.74345
M205 X10 Y10
G0 F6000 X112.615 Y154.476
M205 X8 Y8
G1 F1200 X69.017 Y110.877 E172.81956
M205 X10 Y10
G0 F6000 X69.017 Y110.312
M205 X8 Y8
G1 F1200 X113.181 Y154.476 E175.93557
M205 X10 Y10
G0 F6000 X113.747 Y154.476
M205 X8 Y8
G1 F1200 X69.017 Y109.746 E179.09151
M205 X10 Y10
G0 F6000 X69.017 Y109.181
M205 X8 Y8
G1 F1200 X114.313 Y154.476 E182.28736
M205 X10 Y10
G0 F6000 X114.878 Y154.476
M205 X8 Y8
G1 F1200 X69.017 Y108.615 E185.5231
M205 X10 Y10
G0 F6000 X69.017 Y108.05
M205 X8 Y8
G1 F1200 X115.444 Y154.476 E188.79874
M205 X10 Y10
G0 F6000 X116.01 Y154.476
M205 X8 Y8
G1 F1200 X69.017 Y107.484 E192.11431
M205 X10 Y10
G0 F6000 X69.017 Y106.918
M205 X8 Y8
G1 F1200 X116.575 Y154.476 E195.46979
M205 X10 Y10
G0 F6000 X117.08 Y154.415
M205 X8 Y8
G1 F1200 X69.017 Y106.353 E198.86085
M205 X10 Y10
G0 F6000 X69.017 Y105.787
M205 X8 Y8
G1 F1200 X117.538 Y154.308 E202.28427
M205 X10 Y10
G0 F6000 X117.922 Y154.126
M205 X8 Y8
G1 F1200 X69.017 Y105.221 E205.73479
M205 X10 Y10
G0 F6000 X69.017 Y104.656
M205 X8 Y8
G1 F1200 X118.297 Y153.935 E209.21172
M205 X10 Y10
G0 F6000 X118.629 Y153.701
M205 X8 Y8
G1 F1200 X69.017 Y104.09 E212.71208
M205 X10 Y10
G0 F6000 X69.017 Y103.524
M205 X8 Y8
G1 F1200 X118.912 Y153.418 E216.23241
M205 X10 Y10
G0 F6000 X119.18 Y153.121
M205 X8 Y8
G1 F1200 X69.017 Y102.958 E219.77168
M205 X10 Y10
G0 F6000 X69.018 Y102.394
M205 X8 Y8
G1 F1200 X119.403 Y152.778 E223.32658
M205 X10 Y10
G0 F6000 X119.598 Y152.408
M205 X8 Y8
G1 F1200 X69.018 Y101.828 E226.89527
M205 X10 Y10
G0 F6000 X69.018 Y101.262
M205 X8 Y8
G1 F1200 X119.767 Y152.011 E230.47588
M205 X10 Y10
G0 F6000 X119.833 Y151.511
M205 X8 Y8
G1 F1200 X69.018 Y100.696 E234.06116
M205 X10 Y10
G0 F6000 X69.018 Y100.131
M205 X8 Y8
G1 F1200 X119.875 Y150.988 E237.64939
M205 X10 Y10
G0 F6000 X119.855 Y150.402
M205 X8 Y8
G1 F1200 X69.018 Y99.565 E241.23622
M205 X10 Y10
G0 F6000 X69.018 Y98.999
M205 X8 Y8
G1 F1200 X119.855 Y149.836 E244.82304
M205 X10 Y10
G0 F6000 X119.855 Y149.27
M205 X8 Y8
G1 F1200 X69.018 Y98.434 E248.40983
M205 X10 Y10
G0 F6000 X69.018 Y97.868
M205 X8 Y8
G1 F1200 X119.855 Y148.705 E251.99666
M205 X10 Y10
