;FLAVOR:Marlin
;TIME:5811
;Filament used: 7.91628m
;Layer height: 0.3
;MINX:70.401
;MINY:50.401
;MINZ:0.36
;MAXX:139.6
;MAXY:159.599
;MAXZ:5.535
;Generated with Cura_SteamEngine 5.2.2
M82 ;absolute extrusion mode
;Profil Homepage: https://github.com/NilsRo/Cura_Anycubic_MegaS_Profile

;Slicer Information - (Support for OctoPrint Slicer Estimator)
;Slicer info:material_guid;0ff92885-617b-4144-a03c-9989872454bc
;Slicer info:material_id;generic_pla_175
;Slicer info:material_brand;Generic
;Slicer info:material_name;PLA
;Slicer info:filament_cost;[0.0]
;Slicer info:material_bed_temperature;60
;Slicer info:material_bed_temperature_layer_0;60
;Slicer info:material_print_temperature;210
;Slicer info:material_print_temperature_layer_0;215
;Slicer info:material_flow;100
;Slicer info:layer_height;0.3
;Slicer info:machine_nozzle_size;0.4
;Slicer info:wall_thickness;1.2000000000000002
;Slicer info:speed_print;50.0
;Slicer info:speed_topbottom;25.0
;Slicer info:travel_speed;100.0
;Slicer info:support;0
;Slicer info:retraction_speed;30
;Slicer info:retraction_amount;6
;Slicer info:layer_height;0.3
;Slicer info:infill_pattern;grid
;Slicer info:infill_sparse_density;25
;Slicer info:cool_fan_enabled;True
;Slicer info:cool_fan_speed;100
;Slicer info:sliced_at;Sat 18-02-2023 13:00:17
G21                                        ; metric values 
G90                                        ; absolute positioning 
M82                                        ; set extruder to absolute mode 
M107                                       ; start with the fan off 
M140 S60   ; Start heating the bed 
G4 S60                                     ; wait 1 minute 
M104 S215 ; start heating the hot end 
M190 S60   ; wait for bed 
M109 S215 ; wait for hotend 
M300 S1000 P500                            ; BEEP heating done 
G28 X0 Y10 Z0                              ; move X/Y to min endstops 
M420 S1                                    ; Enable leveling 
M420 Z2.0                                  ; Set leveling fading height to 2 mm 
G0 Z0.15                                   ; lift nozzle a bit 
G92 E0                                     ; zero the extruded length 
G1 X50 E20 F500                            ; Extrude 20mm of filament in a 5cm line. 
G92 E0                                     ; zero the extruded length again 
G1 E-2 F500                                ; Retract a little 
G1 X50 F500                                ; wipe away from the filament line
G1 X100 F9000                              ; Quickly wipe away from the filament line
G92 E0
G92 E0
G1 F1800 E-6
;LAYER_COUNT:13
;LAYER:-6
M107
M205 X10 Y10
G0 F6000 X72.816 Y56.955 Z0.36
M205 X8 Y8
;TYPE:SUPPORT-INTERFACE
G1 F1800 E0
G1 F1125 X72.23 Y57.931 E0.13631
G1 X71.781 Y58.804 E0.25385
G1 X71.365 Y59.781 E0.381
G1 X71.024 Y60.782 E0.50762
G1 X70.745 Y61.84 E0.63863
G1 X70.557 Y62.877 E0.76482
G1 X70.448 Y63.86 E0.88324
G1 X70.401 Y65.009 E1.02094
G1 X70.401 Y145.348 E10.64045
G1 X70.49 Y146.608 E10.79169
G1 X70.657 Y147.701 E10.92408
G1 X70.859 Y148.618 E11.03651
G1 X71.157 Y149.626 E11.16237
G1 X71.562 Y150.708 E11.3007
G1 X71.984 Y151.606 E11.41951
G1 X72.583 Y152.674 E11.56613
G1 X73.185 Y153.57 E11.69538
G1 X73.782 Y154.345 E11.81251
G1 X74.554 Y155.195 E11.95
G1 X75.317 Y155.923 E12.07627
G1 X76.023 Y156.511 E12.18628
G1 X76.947 Y157.179 E12.32281
G1 X77.927 Y157.768 E12.45971
G1 X78.804 Y158.219 E12.57779
G1 X79.78 Y158.635 E12.70483
G1 X80.783 Y158.976 E12.83167
G1 X81.84 Y159.255 E12.96257
G1 X82.877 Y159.443 E13.08876
G1 X83.86 Y159.552 E13.20718
G1 X84.991 Y159.599 E13.34272
G1 X125.348 Y159.599 E18.17493
G1 X126.608 Y159.51 E18.32617
G1 X127.701 Y159.343 E18.45856
G1 X128.618 Y159.141 E18.57099
G1 X129.626 Y158.843 E18.69685
G1 X130.713 Y158.436 E18.83583
G1 X131.608 Y158.015 E18.95426
G1 X132.675 Y157.416 E19.10077
G1 X133.571 Y156.815 E19.22995
G1 X134.348 Y156.215 E19.3475
G1 X135.195 Y155.446 E19.48448
G1 X135.923 Y154.683 E19.61075
G1 X136.511 Y153.977 E19.72076
G1 X137.184 Y153.045 E19.85841
G1 X137.77 Y152.069 E19.99472
G1 X138.219 Y151.195 E20.11237
G1 X138.638 Y150.213 E20.24021
G1 X138.976 Y149.217 E20.36615
G1 X139.255 Y148.16 E20.49704
G1 X139.443 Y147.123 E20.62323
G1 X139.552 Y146.14 E20.74166
G1 X139.6 Y144.991 E20.87935
G1 X139.599 Y64.652 E30.49886
G1 X139.51 Y63.388 E30.65058
G1 X139.343 Y62.299 E30.7825
G1 X139.141 Y61.382 E30.89493
G1 X138.843 Y60.372 E31.02102
G1 X138.434 Y59.281 E31.16053
G1 X138.015 Y58.392 E31.27821
G1 X137.416 Y57.324 E31.42483
G1 X136.873 Y56.504 E31.54258
G1 X136.215 Y55.652 E31.67148
G1 X135.446 Y54.805 E31.80846
G1 X134.683 Y54.077 E31.93473
G1 X133.977 Y53.489 E32.04475
G1 X133.052 Y52.821 E32.18137
G1 X132.069 Y52.23 E32.3187
G1 X131.196 Y51.781 E32.43625
G1 X130.22 Y51.365 E32.56328
G1 X129.217 Y51.024 E32.69013
G1 X128.16 Y50.745 E32.82102
G1 X127.123 Y50.557 E32.94721
G1 X126.14 Y50.448 E33.06564
G1 X125.007 Y50.401 E33.20142
G1 X84.652 Y50.401 E38.03338
G1 X83.392 Y50.49 E38.18463
G1 X82.299 Y50.657 E38.31702
G1 X81.382 Y50.859 E38.42945
G1 X80.374 Y51.157 E38.5553
G1 X79.287 Y51.564 E38.69428
G1 X78.392 Y51.985 E38.81271
G1 X77.325 Y52.584 E38.95923
G1 X76.429 Y53.185 E39.08841
G1 X75.652 Y53.785 E39.20595
G1 X74.805 Y54.554 E39.34293
G1 X74.077 Y55.317 E39.46921
G1 X73.489 Y56.023 E39.57922
G1 X72.816 Y56.955 E39.71687
M205 X10 Y10
G0 F6000 X73.098 Y57.259
M205 X8 Y8
G1 F1125 X139.199 Y123.36 E50.90994
M205 X10 Y10
G1 F1800 E44.90994
G1 F480 Z0.435
G0 F6000 X139.199 Y125.623 Z0.435
M205 X8 Y8
G1 F480 Z0.36
G1 F1800 E50.90994
G1 F1125 X72.28 Y58.704 E62.24154
M205 X10 Y10
G1 F1800 E56.24154
G1 F480 Z0.435
G0 F6000 X71.61 Y60.296 Z0.435
M205 X8 Y8
G1 F480 Z0.36
G1 F1800 E62.24154
G1 F1125 X139.199 Y127.885 E73.68658
M205 X10 Y10
G1 F1800 E67.68658
G1 F480 Z0.435
G0 F6000 X139.199 Y130.148 Z0.435
M205 X8 Y8
G1 F480 Z0.36
G1 F1800 E73.68658
G1 F1125 X71.11 Y62.059 E85.2163
M205 X10 Y10
G1 F1800 E79.2163
G1 F480 Z0.435
G0 F6000 X70.839 Y64.051 Z0.435
M205 X8 Y8
G1 F480 Z0.36
G1 F1800 E85.2163
G1 F1125 X139.199 Y132.411 E96.7919
M205 X10 Y10
G1 F1800 E90.7919
G1 F480 Z0.435
G0 F6000 X139.199 Y134.674 Z0.435
M205 X8 Y8
G1 F480 Z0.36
G1 F1800 E96.7919
G1 F1125 X70.799 Y66.274 E108.37427
M205 X10 Y10
G1 F1800 E102.37427
G1 F480 Z0.435
G0 F6000 X70.799 Y68.537 Z0.435
M205 X8 Y8
G1 F480 Z0.36
G1 F1800 E108.37427
G1 F1125 X139.199 Y136.936 E119.95656
M205 X10 Y10
G1 F1800 E113.95656
G1 F480 Z0.435
G0 F6000 X139.199 Y139.199 Z0.435
M205 X8 Y8
G1 F480 Z0.36
G1 F1800 E119.95656
G1 F1125 X70.799 Y70.799 E131.53894
M205 X10 Y10
G1 F1800 E125.53894
G1 F480 Z0.435
G0 F6000 X70.799 Y73.062 Z0.435
M205 X8 Y8
G1 F480 Z0.36
G1 F1800 E131.53894
G1 F1125 X139.199 Y141.462 E143.12131
M205 X10 Y10
G1 F1800 E137.12131
G1 F480 Z0.435
G0 F6000 X139.199 Y143.725 Z0.435
M205 X8 Y8
G1 F480 Z0.36
G1 F1800 E143.12131
G1 F1125 X70.799 Y75.325 E154.70368
M205 X10 Y10
G1 F1800 E148.70368
G1 F480 Z0.435
G0 F6000 X70.799 Y77.587 Z0.435
M205 X8 Y8
G1 F480 Z0.36
G1 F1800 E154.70368
G1 F1125 X139.16 Y145.948 E166.27946
M205 X10 Y10
G1 F1800 E160.27946
G1 F480 Z0.435
G0 F6000 X138.889 Y147.94 Z0.435
M205 X8 Y8
G1 F480 Z0.36
G1 F1800 E166.27946
G1 F1125 X70.799 Y79.85 E177.80934
M205 X10 Y10
G1 F1800 E171.80934
G1 F480 Z0.435
G0 F6000 X70.799 Y82.113 Z0.435
M205 X8 Y8
G1 F480 Z0.36
G1 F1800 E177.80934
G1 F1125 X138.389 Y149.702 E189.25447
M205 X10 Y10
G1 F1800 E183.25447
G1 F480 Z0.435
G0 F6000 X137.718 Y151.294 Z0.435
M205 X8 Y8
G1 F480 Z0.36
G1 F1800 E189.25447
G1 F1125 X70.799 Y84.376 E200.58598
M205 X10 Y10
G1 F1800 E194.58598
G1 F480 Z0.435
G0 F6000 X70.799 Y86.638 Z0.435
M205 X8 Y8
G1 F480 Z0.36
G1 F1800 E200.58598
G1 F1125 X136.9 Y152.74 E211.77914
M205 X10 Y10
G1 F1800 E205.77914
G1 F480 Z0.435
G0 F6000 X135.938 Y154.04 Z0.435
M205 X8 Y8
G1 F480 Z0.36
G1 F1800 E211.77914
G1 F1125 X70.799 Y88.901 E222.80932
M205 X10 Y10
G1 F1800 E216.80932
G1 F480 Z0.435
G0 F6000 X70.799 Y91.164 Z0.435
M205 X8 Y8
G1 F480 Z0.36
G1 F1800 E222.80932
G1 F1125 X134.85 Y155.215 E233.65526
M205 X10 Y10
G1 F1800 E227.65526
G1 F480 Z0.435
G0 F6000 X133.632 Y156.259 Z0.435
M205 X8 Y8
G1 F480 Z0.36
G1 F1800 E233.65526
G1 F1125 X70.799 Y93.427 E244.29488
M205 X10 Y10
G1 F1800 E238.29488
G1 F480 Z0.435
G0 F6000 X70.799 Y95.689 Z0.435
M205 X8 Y8
G1 F480 Z0.36
G1 F1800 E244.29488
G1 F1125 X132.284 Y157.174 E254.70631
M205 X10 Y10
G1 F1800 E248.70631
G1 F480 Z0.435
G0 F6000 X130.799 Y157.952 Z0.435
M205 X8 Y8
G1 F480 Z0.36
G1 F1800 E254.70631
G1 F1125 X70.799 Y97.952 E264.86629
M205 X10 Y10
G1 F1800 E258.86629
G1 F480 Z0.435
G0 F6000 X70.799 Y100.215 Z0.435
M205 X8 Y8
G1 F480 Z0.36
G1 F1800 E264.86629
G1 F1125 X129.149 Y158.565 E274.74687
M205 X10 Y10
G1 F1800 E268.74687
G1 F480 Z0.435
G0 F6000 X127.317 Y158.995 Z0.435
M205 X8 Y8
G1 F480 Z0.36
G1 F1800 E274.74687
G1 F1125 X70.799 Y102.478 E284.31715
M205 X10 Y10
G1 F1800 E278.31715
G1 F480 Z0.435
G0 F6000 X70.799 Y104.74 Z0.435
M205 X8 Y8
G1 F480 Z0.36
G1 F1800 E284.31715
G1 F1125 X125.257 Y159.198 E293.53868
M205 X10 Y10
G1 F1800 E287.53868
G1 F480 Z0.435
G0 F6000 X122.994 Y159.198 Z0.435
M205 X8 Y8
G1 F480 Z0.36
G1 F1800 E293.53868
G1 F1125 X70.799 Y107.003 E302.37701
M205 X10 Y10
G1 F1800 E296.37701
G1 F480 Z0.435
G0 F6000 X70.799 Y109.266 Z0.435
M205 X8 Y8
G1 F480 Z0.36
G1 F1800 E302.37701
G1 F1125 X120.732 Y159.198 E310.83223
M205 X10 Y10
G1 F1800 E304.83223
G1 F480 Z0.435
G0 F6000 X118.469 Y159.198 Z0.435
M205 X8 Y8
G1 F480 Z0.36
G1 F1800 E310.83223
G1 F1125 X70.799 Y111.529 E318.90425
M205 X10 Y10
G1 F1800 E312.90425
G1 F480 Z0.435
G0 F6000 X70.799 Y113.791 Z0.435
M205 X8 Y8
G1 F480 Z0.36
G1 F1800 E318.90425
G1 F1125 X116.206 Y159.198 E326.59315
M205 X10 Y10
G1 F1800 E320.59315
G1 F480 Z0.435
G0 F6000 X113.943 Y159.198 Z0.435
M205 X8 Y8
G1 F480 Z0.36
G1 F1800 E326.59315
G1 F1125 X70.799 Y116.054 E333.89885
M205 X10 Y10
G1 F1800 E327.89885
G1 F480 Z0.435
G0 F6000 X70.799 Y118.317 Z0.435
M205 X8 Y8
G1 F480 Z0.36
G1 F1800 E333.89885
G1 F1125 X111.681 Y159.198 E340.82144
M205 X10 Y10
G1 F1800 E334.82144
G1 F480 Z0.435
G0 F6000 X109.418 Y159.198 Z0.435
M205 X8 Y8
G1 F480 Z0.36
G1 F1800 E340.82144
G1 F1125 X70.799 Y120.58 E347.36082
M205 X10 Y10
G1 F1800 E341.36082
G1 F480 Z0.435
G0 F6000 X70.799 Y122.842 Z0.435
M205 X8 Y8
G1 F480 Z0.36
G1 F1800 E347.36082
G1 F1125 X107.155 Y159.198 E353.51709
M205 X10 Y10
G1 F1800 E347.51709
G1 F480 Z0.435
G0 F6000 X104.892 Y159.198 Z0.435
M205 X8 Y8
G1 F480 Z0.36
G1 F1800 E353.51709
G1 F1125 X70.799 Y125.105 E359.29016
M205 X10 Y10
G1 F1800 E353.29016
G1 F480 Z0.435
G0 F6000 X70.799 Y127.368 Z0.435
M205 X8 Y8
G1 F480 Z0.36
G1 F1800 E359.29016
G1 F1125 X102.63 Y159.198 E364.68011
M205 X10 Y10
G1 F1800 E358.68011
G1 F480 Z0.435
G0 F6000 X100.367 Y159.198 Z0.435
M205 X8 Y8
G1 F480 Z0.36
G1 F1800 E364.68011
G1 F1125 X70.799 Y129.631 E369.68687
M205 X10 Y10
G1 F1800 E363.68687
G1 F480 Z0.435
G0 F6000 X70.799 Y131.893 Z0.435
M205 X8 Y8
G1 F480 Z0.36
G1 F1800 E369.68687
G1 F1125 X98.104 Y159.198 E374.3105
M205 X10 Y10
G1 F1800 E368.3105
G1 F480 Z0.435
G0 F6000 X95.841 Y159.198 Z0.435
M205 X8 Y8
G1 F480 Z0.36
G1 F1800 E374.3105
G1 F1125 X70.799 Y134.156 E378.55094
M205 X10 Y10
G1 F1800 E372.55094
G1 F480 Z0.435
G0 F6000 X70.799 Y136.419 Z0.435
M205 X8 Y8
G1 F480 Z0.36
G1 F1800 E378.55094
G1 F1125 X93.579 Y159.198 E382.40826
M205 X10 Y10
G1 F1800 E376.40826
G1 F480 Z0.435
G0 F6000 X91.316 Y159.198 Z0.435
M205 X8 Y8
G1 F480 Z0.36
G1 F1800 E382.40826
G1 F1125 X70.799 Y138.682 E385.88238
M205 X10 Y10
G1 F1800 E379.88238
G1 F480 Z0.435
G0 F6000 X70.799 Y140.944 Z0.435
M205 X8 Y8
G1 F480 Z0.36
G1 F1800 E385.88238
G1 F1125 X89.053 Y159.198 E388.97338
M205 X10 Y10
G1 F1800 E382.97338
G1 F480 Z0.435
G0 F6000 X86.79 Y159.198 Z0.435
M205 X8 Y8
G1 F480 Z0.36
G1 F1800 E388.97338
G1 F1125 X70.799 Y143.207 E391.68119
M205 X10 Y10
G1 F1800 E385.68119
G1 F480 Z0.435
G0 F6000 X70.811 Y145.481 Z0.435
M205 X8 Y8
G1 F480 Z0.36
G1 F1800 E391.68119
G1 F1125 X84.507 Y159.177 E394.00037
M205 X10 Y10
G1 F1800 E388.00037
G1 F480 Z0.435
G0 F6000 X81.929 Y158.862 Z0.435
M205 X8 Y8
G1 F480 Z0.36
G1 F1800 E394.00037
G1 F1125 X71.151 Y148.084 E395.82544
M205 X10 Y10
G1 F1800 E389.82544
G1 F480 Z0.435
G0 F6000 X72.484 Y151.68 Z0.435
M205 X8 Y8
G1 F480 Z0.36
G1 F1800 E395.82544
G1 F1125 X78.325 Y157.521 E396.81452
M205 X10 Y10
G1 F1800 E390.81452
G1 F480 Z0.435
G0 F6000 X139.199 Y121.097 Z0.435
M205 X8 Y8
G1 F480 Z0.36
G1 F1800 E396.81452
G1 F1125 X74.06 Y55.959 E407.84461
M205 X10 Y10
G1 F1800 E401.84461
G1 F480 Z0.435
G0 F6000 X75.147 Y54.783 Z0.435
M205 X8 Y8
G1 F480 Z0.36
G1 F1800 E407.84461
G1 F1125 X139.199 Y118.834 E418.69064
M205 X10 Y10
G1 F1800 E412.69064
G1 F480 Z0.435
G0 F6000 X139.199 Y116.572 Z0.435
M205 X8 Y8
G1 F480 Z0.36
G1 F1800 E418.69064
G1 F1125 X76.366 Y53.739 E429.33034
M205 X10 Y10
G1 F1800 E423.33034
G1 F480 Z0.435
G0 F6000 X77.714 Y52.824 Z0.435
M205 X8 Y8
G1 F480 Z0.36
G1 F1800 E429.33034
G1 F1125 X139.199 Y114.309 E439.74178
M205 X10 Y10
G1 F1800 E433.74178
G1 F480 Z0.435
G0 F6000 X139.199 Y112.046 Z0.435
M205 X8 Y8
G1 F480 Z0.36
G1 F1800 E439.74178
G1 F1125 X79.2 Y52.047 E449.90158
M205 X10 Y10
G1 F1800 E443.90158
G1 F480 Z0.435
G0 F6000 X80.849 Y51.434 Z0.435
M205 X8 Y8
G1 F480 Z0.36
G1 F1800 E449.90158
G1 F1125 X139.199 Y109.783 E459.78208
M205 X10 Y10
G1 F1800 E453.78208
G1 F480 Z0.435
G0 F6000 X139.199 Y107.521 Z0.435
M205 X8 Y8
G1 F480 Z0.36
G1 F1800 E459.78208
G1 F1125 X82.681 Y51.003 E469.35244
M205 X10 Y10
G1 F1800 E463.35244
G1 F480 Z0.435
G0 F6000 X84.742 Y50.801 Z0.435
M205 X8 Y8
G1 F480 Z0.36
G1 F1800 E469.35244
G1 F1125 X139.199 Y105.258 E478.5738
M205 X10 Y10
G1 F1800 E472.5738
G1 F480 Z0.435
G0 F6000 X139.199 Y102.995 Z0.435
M205 X8 Y8
G1 F480 Z0.36
G1 F1800 E478.5738
G1 F1125 X87.005 Y50.801 E487.41197
M205 X10 Y10
G1 F1800 E481.41197
G1 F480 Z0.435
G0 F6000 X89.267 Y50.801 Z0.435
M205 X8 Y8
G1 F480 Z0.36
G1 F1800 E487.41197
G1 F1125 X139.199 Y100.733 E495.8671
M205 X10 Y10
G1 F1800 E489.8671
G1 F480 Z0.435
G0 F6000 X139.199 Y98.47 Z0.435
M205 X8 Y8
G1 F480 Z0.36
G1 F1800 E495.8671
G1 F1125 X91.53 Y50.801 E503.93904
M205 X10 Y10
G1 F1800 E497.93904
G1 F480 Z0.435
G0 F6000 X93.793 Y50.801 Z0.435
M205 X8 Y8
G1 F480 Z0.36
G1 F1800 E503.93904
G1 F1125 X139.199 Y96.207 E511.62777
M205 X10 Y10
G1 F1800 E505.62777
G1 F480 Z0.435
G0 F6000 X139.199 Y93.944 Z0.435
M205 X8 Y8
G1 F480 Z0.36
G1 F1800 E511.62777
G1 F1125 X96.056 Y50.801 E518.9333
M205 X10 Y10
G1 F1800 E512.9333
G1 F480 Z0.435
G0 F6000 X98.318 Y50.801 Z0.435
M205 X8 Y8
G1 F480 Z0.36
G1 F1800 E518.9333
G1 F1125 X139.199 Y91.682 E525.8558
M205 X10 Y10
G1 F1800 E519.8558
G1 F480 Z0.435
G0 F6000 X139.199 Y89.419 Z0.435
M205 X8 Y8
G1 F480 Z0.36
G1 F1800 E525.8558
G1 F1125 X100.581 Y50.801 E532.3951
M205 X10 Y10
G1 F1800 E526.3951
G1 F480 Z0.435
G0 F6000 X102.844 Y50.801 Z0.435
M205 X8 Y8
G1 F480 Z0.36
G1 F1800 E532.3951
G1 F1125 X139.199 Y87.156 E538.5512
M205 X10 Y10
G1 F1800 E532.5512
G1 F480 Z0.435
G0 F6000 X139.199 Y84.893 Z0.435
M205 X8 Y8
G1 F480 Z0.36
G1 F1800 E538.5512
G1 F1125 X105.107 Y50.801 E544.3241
M205 X10 Y10
G1 F1800 E538.3241
G1 F480 Z0.435
G0 F6000 X107.369 Y50.801 Z0.435
M205 X8 Y8
G1 F480 Z0.36
G1 F1800 E544.3241
G1 F1125 X139.199 Y82.631 E549.71397
M205 X10 Y10
G1 F1800 E543.71397
G1 F480 Z0.435
G0 F6000 X139.199 Y80.368 Z0.435
M205 X8 Y8
G1 F480 Z0.36
G1 F1800 E549.71397
G1 F1125 X109.632 Y50.801 E554.72064
M205 X10 Y10
G1 F1800 E548.72064
G1 F480 Z0.435
G0 F6000 X111.895 Y50.801 Z0.435
M205 X8 Y8
G1 F480 Z0.36
G1 F1800 E554.72064
G1 F1125 X139.199 Y78.105 E559.3441
M205 X10 Y10
G1 F1800 E553.3441
G1 F480 Z0.435
G0 F6000 X139.199 Y75.842 Z0.435
M205 X8 Y8
G1 F480 Z0.36
G1 F1800 E559.3441
G1 F1125 X114.158 Y50.801 E563.58437
M205 X10 Y10
G1 F1800 E557.58437
G1 F480 Z0.435
G0 F6000 X116.42 Y50.801 Z0.435
M205 X8 Y8
G1 F480 Z0.36
G1 F1800 E563.58437
G1 F1125 X139.199 Y73.58 E567.44161
M205 X10 Y10
G1 F1800 E561.44161
G1 F480 Z0.435
G0 F6000 X139.199 Y71.317 Z0.435
M205 X8 Y8
G1 F480 Z0.36
G1 F1800 E567.44161
G1 F1125 X118.683 Y50.801 E570.91564
M205 X10 Y10
G1 F1800 E564.91564
G1 F480 Z0.435
