;FLAVOR:Marlin
;TIME:3060
;Filament used: 2.17024m
;Layer height: 0.2
;MINX:79.292
;MINY:56.334
;MINZ:0.36
;MAXX:123.568
;MAXY:103.136
;MAXZ:39.185
;Generated with Cura_SteamEngine 5.2.2
M82 ;absolute extrusion mode
;Profil Homepage: https://github.com/NilsRo/Cura_Anycubic_MegaS_Profile

;Slicer Information - (Support for OctoPrint Slicer Estimator)
;Slicer info:material_guid;0ff92885-617b-4144-a03c-9989872454bc
;Slicer info:material_id;generic_pla_175
;Slicer info:material_brand;Generic
;Slicer info:material_name;PLA
;Slicer info:filament_cost;[0.0]
;Slicer info:material_bed_temperature;45
;Slicer info:material_bed_temperature_layer_0;45
;Slicer info:material_print_temperature;190
;Slicer info:material_print_temperature_layer_0;195
;Slicer info:material_flow;100
;Slicer info:layer_height;0.2
;Slicer info:machine_nozzle_size;0.4
;Slicer info:wall_thickness;1.2000000000000002
;Slicer info:speed_print;50.0
;Slicer info:speed_topbottom;25.0
;Slicer info:travel_speed;100.0
;Slicer info:support;0
;Slicer info:retraction_speed;30
;Slicer info:retraction_amount;6
;Slicer info:layer_height;0.2
;Slicer info:infill_pattern;lines
;Slicer info:infill_sparse_density;70
;Slicer info:cool_fan_enabled;True
;Slicer info:cool_fan_speed;100
;Slicer info:sliced_at;Thu 23-03-2023 22:30:23
G21                                        ; metric values 
G90                                        ; absolute positioning 
M82                                        ; set extruder to absolute mode 
M107                                       ; start with the fan off 
M140 S45   ; Start heating the bed 
G4 S60                                     ; wait 1 minute 
M104 S195 ; start heating the hot end 
M190 S45   ; wait for bed 
M109 S195 ; wait for hotend 
M300 S1000 P500                            ; BEEP heating done 
G28 X0 Y10 Z0                              ; move X/Y to min endstops 
M420 S1                                    ; Enable leveling 
M420 Z2.0                                  ; Set leveling fading height to 2 mm 
G0 Z0.15                                   ; lift nozzle a bit 
G92 E0                                     ; zero the extruded length 
G1 X50 E20 F500                            ; Extrude 20mm of filament in a 5cm line. 
G92 E0                                     ; zero the extruded length again 
G1 E-2 F500                                ; Retract a little 
G1 X50 F500                                ; wipe away from the filament line
G1 X100 F9000                              ; Quickly wipe away from the filament line
G92 E0
G92 E0
G1 F1800 E-6
;LAYER_COUNT:189
;LAYER:-6
M107
M205 X10 Y10
G0 F6000 X85.23 Y68.365 Z0.36
M205 X8 Y8
;TYPE:SUPPORT-INTERFACE
G1 F1800 E0
G1 F1125 X84.374 Y69.59 E0.17894
G1 X83.744 Y70.566 E0.31803
G1 X82.891 Y72.018 E0.51967
G1 X82.372 Y72.996 E0.65224
G1 X81.654 Y74.497 E0.85147
G1 X81.168 Y75.644 E1.00063
G1 X80.678 Y76.971 E1.17
G1 X80.285 Y78.215 E1.32621
G1 X79.952 Y79.461 E1.48064
G1 X79.784 Y80.171 E1.568
G1 X79.596 Y81.241 E1.69808
G1 X79.445 Y82.31 E1.82735
G1 X79.357 Y83.112 E1.92395
G1 X79.304 Y84.14 E2.04721
G1 X79.292 Y85.045 E2.15558
G1 X79.318 Y86.126 E2.28505
G1 X79.406 Y87.084 E2.40024
G1 X79.51 Y87.903 E2.49909
G1 X79.768 Y89.334 E2.6732
G1 X80.05 Y90.377 E2.80257
G1 X80.291 Y91.146 E2.89906
G1 X80.565 Y91.941 E2.99975
G1 X81.007 Y92.992 E3.13627
G1 X81.534 Y94.013 E3.27384
G1 X81.832 Y94.544 E3.34675
G1 X82.122 Y95.035 E3.41503
G1 X82.799 Y96.04 E3.56012
G1 X83.37 Y96.769 E3.671
G1 X84.12 Y97.602 E3.80521
G1 X84.623 Y98.116 E3.89132
G1 X85.75 Y99.159 E4.07518
G1 X86.665 Y99.861 E4.21327
G1 X87.509 Y100.419 E4.33442
G1 X88.017 Y100.728 E4.40561
G1 X89.01 Y101.281 E4.5417
G1 X90.064 Y101.761 E4.68038
G1 X90.986 Y102.107 E4.79829
G1 X91.547 Y102.294 E4.8691
G1 X92.394 Y102.548 E4.97498
G1 X93.5 Y102.802 E5.11085
G1 X94.538 Y102.959 E5.23655
G1 X95.272 Y103.042 E5.325
G1 X95.933 Y103.1 E5.40445
G1 X96.93 Y103.136 E5.5239
G1 X98.094 Y103.09 E5.66339
G1 X98.906 Y103.025 E5.76092
G1 X100.142 Y102.877 E5.90998
G1 X101.102 Y102.682 E6.02727
G1 X102.12 Y102.438 E6.15261
G1 X103.189 Y102.141 E6.28546
G1 X104.229 Y101.765 E6.41788
G1 X105.255 Y101.351 E6.55035
G1 X105.851 Y101.094 E6.62806
G1 X106.916 Y100.556 E6.77093
G1 X108.046 Y99.931 E6.92555
G1 X109.426 Y99.064 E7.12069
G1 X110.5 Y98.311 E7.27775
G1 X111.721 Y97.361 E7.46298
G1 X112.83 Y96.41 E7.63791
G1 X113.792 Y95.514 E7.79532
G1 X114.946 Y94.337 E7.99268
G1 X115.894 Y93.28 E8.16269
G1 X116.963 Y91.978 E8.3644
G1 X117.706 Y90.989 E8.51252
G1 X118.761 Y89.45 E8.73593
G1 X119.416 Y88.401 E8.88401
G1 X120.24 Y86.938 E9.08506
G1 X120.788 Y85.859 E9.22996
G1 X121.452 Y84.397 E9.42222
G1 X121.98 Y83.069 E9.59334
G1 X122.399 Y81.828 E9.75018
G1 X122.846 Y80.254 E9.94609
G1 X123.102 Y79.128 E10.08436
G1 X123.236 Y78.45 E10.16711
G1 X123.399 Y77.258 E10.31116
G1 X123.507 Y76.162 E10.44303
G1 X123.568 Y75.181 E10.56072
G1 X123.568 Y74.179 E10.68069
G1 X123.538 Y73.389 E10.77535
G1 X123.444 Y72.171 E10.92163
G1 X123.286 Y71.168 E11.0432
G1 X123.161 Y70.505 E11.12399
G1 X123.007 Y69.768 E11.21414
G1 X122.728 Y68.75 E11.34053
G1 X122.32 Y67.597 E11.48697
G1 X122.084 Y67.012 E11.5625
G1 X121.715 Y66.176 E11.67192
G1 X121.263 Y65.299 E11.79005
G1 X120.741 Y64.437 E11.91072
G1 X120.337 Y63.829 E11.99812
G1 X119.672 Y62.906 E12.13434
G1 X119.033 Y62.149 E12.25295
G1 X118.203 Y61.295 E12.39554
G1 X117.775 Y60.892 E12.46593
G1 X117.054 Y60.251 E12.58145
G1 X116.206 Y59.6 E12.70946
G1 X115.345 Y59.034 E12.83283
G1 X114.519 Y58.533 E12.9485
G1 X113.32 Y57.929 E13.10925
G1 X112.123 Y57.432 E13.26444
G1 X110.428 Y56.902 E13.47708
G1 X109.407 Y56.678 E13.60224
G1 X108.874 Y56.582 E13.66709
G1 X107.634 Y56.409 E13.817
G1 X106.524 Y56.345 E13.95013
G1 X105.955 Y56.334 E14.01827
G1 X104.847 Y56.355 E14.15096
G1 X103.905 Y56.436 E14.26417
G1 X103.153 Y56.528 E14.35488
G1 X101.884 Y56.737 E14.50888
G1 X100.935 Y56.966 E14.62577
G1 X100.046 Y57.214 E14.73628
G1 X99.125 Y57.5 E14.85175
G1 X98.085 Y57.907 E14.98547
G1 X97.089 Y58.338 E15.11542
G1 X96.46 Y58.63 E15.19845
G1 X95.533 Y59.12 E15.324
G1 X94.463 Y59.738 E15.47195
G1 X93.294 Y60.491 E15.63845
G1 X91.975 Y61.438 E15.83287
G1 X91.002 Y62.209 E15.98152
G1 X89.841 Y63.216 E16.16554
G1 X89.06 Y63.951 E16.29395
G1 X87.862 Y65.174 E16.49894
G1 X87.135 Y65.983 E16.62917
G1 X86.044 Y67.296 E16.83357
G1 X85.23 Y68.365 E16.99446
M205 X10 Y10
G0 F6000 X85.094 Y69.255
M205 X8 Y8
G1 F1125 X112.232 Y96.393 E21.58981
M205 X10 Y10
G1 F1800 E15.58981
G1 F480 Z0.435
G0 F6000 X113.417 Y95.315 Z0.435
M205 X8 Y8
G1 F480 Z0.36
G1 F1800 E21.58981
G1 F1125 X86.049 Y67.947 E26.22412
M205 X10 Y10
G1 F1800 E20.22412
G1 F480 Z0.435
G0 F6000 X87.061 Y66.696 Z0.435
M205 X8 Y8
G1 F480 Z0.36
G1 F1800 E26.22412
G1 F1125 X114.542 Y94.177 E30.87756
M205 X10 Y10
G1 F1800 E24.87756
G1 F480 Z0.435
G0 F6000 X115.615 Y92.988 Z0.435
M205 X8 Y8
G1 F480 Z0.36
G1 F1800 E30.87756
G1 F1125 X88.116 Y65.488 E35.53413
M205 X10 Y10
G1 F1800 E29.53413
G1 F480 Z0.435
G0 F6000 X89.234 Y64.343 Z0.435
M205 X8 Y8
G1 F480 Z0.36
G1 F1800 E35.53413
G1 F1125 X116.635 Y91.745 E40.17411
M205 X10 Y10
G1 F1800 E34.17411
G1 F480 Z0.435
G0 F6000 X117.596 Y90.443 Z0.435
M205 X8 Y8
G1 F480 Z0.36
G1 F1800 E40.17411
G1 F1125 X90.407 Y63.254 E44.7781
M205 X10 Y10
G1 F1800 E38.7781
G1 F480 Z0.435
G0 F6000 X91.633 Y62.218 Z0.435
M205 X8 Y8
G1 F480 Z0.36
G1 F1800 E44.7781
G1 F1125 X118.51 Y89.094 E49.32918
M205 X10 Y10
G1 F1800 E43.32918
G1 F480 Z0.435
G0 F6000 X119.361 Y87.682 Z0.435
M205 X8 Y8
G1 F480 Z0.36
G1 F1800 E49.32918
G1 F1125 X92.925 Y61.247 E53.80558
M205 X10 Y10
G1 F1800 E47.80558
G1 F480 Z0.435
G0 F6000 X94.276 Y60.335 Z0.435
M205 X8 Y8
G1 F480 Z0.36
G1 F1800 E53.80558
G1 F1125 X120.157 Y86.216 E58.18809
M205 X10 Y10
G1 F1800 E52.18809
G1 F480 Z0.435
G0 F6000 X120.883 Y84.679 Z0.435
M205 X8 Y8
G1 F480 Z0.36
G1 F1800 E58.18809
G1 F1125 X95.693 Y59.489 E62.45358
M205 X10 Y10
G1 F1800 E56.45358
G1 F480 Z0.435
G0 F6000 X97.196 Y58.729 Z0.435
M205 X8 Y8
G1 F480 Z0.36
G1 F1800 E62.45358
G1 F1125 X121.545 Y83.078 E66.57667
M205 X10 Y10
G1 F1800 E60.57667
G1 F480 Z0.435
G0 F6000 X122.11 Y81.38 Z0.435
M205 X8 Y8
G1 F480 Z0.36
G1 F1800 E66.57667
G1 F1125 X98.79 Y58.061 E70.52543
M205 X10 Y10
G1 F1800 E64.52543
G1 F480 Z0.435
G0 F6000 X100.496 Y57.504 Z0.435
M205 X8 Y8
G1 F480 Z0.36
G1 F1800 E70.52543
G1 F1125 X122.586 Y79.594 E74.266
M205 X10 Y10
G1 F1800 E68.266
G1 F480 Z0.435
G0 F6000 X122.936 Y77.682 Z0.435
M205 X8 Y8
G1 F480 Z0.36
G1 F1800 E74.266
G1 F1125 X102.324 Y57.069 E77.75637
M205 X10 Y10
G1 F1800 E71.75637
G1 F480 Z0.435
G0 F6000 X104.319 Y56.801 Z0.435
M205 X8 Y8
G1 F480 Z0.36
G1 F1800 E77.75637
G1 F1125 X123.139 Y75.621 E80.94322
M205 X10 Y10
G1 F1800 E74.94322
G1 F480 Z0.435
G0 F6000 X123.134 Y73.353 Z0.435
M205 X8 Y8
G1 F480 Z0.36
G1 F1800 E80.94322
G1 F1125 X106.527 Y56.746 E83.75533
M205 X10 Y10
G1 F1800 E77.75533
G1 F480 Z0.435
G0 F6000 X109.066 Y57.023 Z0.435
M205 X8 Y8
G1 F480 Z0.36
G1 F1800 E83.75533
G1 F1125 X122.8 Y70.757 E86.08095
M205 X10 Y10
G1 F1800 E80.08095
G1 F480 Z0.435
G0 F6000 X121.878 Y67.572 Z0.435
M205 X8 Y8
G1 F480 Z0.36
G1 F1800 E86.08095
G1 F1125 X112.205 Y57.899 E87.71891
M205 X10 Y10
G1 F1800 E81.71891
G1 F480 Z0.435
G0 F6000 X84.188 Y70.612 Z0.435
M205 X8 Y8
G1 F480 Z0.36
G1 F1800 E87.71891
G1 F1125 X110.994 Y97.418 E92.25805
M205 X10 Y10
G1 F1800 E86.25805
G1 F480 Z0.435
G0 F6000 X109.697 Y98.384 Z0.435
M205 X8 Y8
G1 F480 Z0.36
G1 F1800 E92.25805
G1 F1125 X83.345 Y72.031 E96.7204
M205 X10 Y10
G1 F1800 E90.7204
G1 F480 Z0.435
G0 F6000 X82.565 Y73.514 Z0.435
M205 X8 Y8
G1 F480 Z0.36
G1 F1800 E96.7204
G1 F1125 X108.33 Y99.279 E101.08326
M205 X10 Y10
G1 F1800 E95.08326
G1 F480 Z0.435
G0 F6000 X106.896 Y100.108 Z0.435
M205 X8 Y8
G1 F480 Z0.36
G1 F1800 E101.08326
G1 F1125 X81.848 Y75.06 E105.32471
M205 X10 Y10
G1 F1800 E99.32471
G1 F480 Z0.435
G0 F6000 X81.209 Y76.684 Z0.435
M205 X8 Y8
G1 F480 Z0.36
G1 F1800 E105.32471
G1 F1125 X105.384 Y100.858 E109.41825
M205 X10 Y10
G1 F1800 E103.41825
G1 F480 Z0.435
G0 F6000 X103.767 Y101.505 Z0.435
M205 X8 Y8
G1 F480 Z0.36
G1 F1800 E109.41825
G1 F1125 X80.651 Y78.389 E113.33255
M205 X10 Y10
G1 F1800 E107.33255
G1 F480 Z0.435
G0 F6000 X80.19 Y80.19 Z0.435
M205 X8 Y8
G1 F480 Z0.36
G1 F1800 E113.33255
G1 F1125 X102.042 Y102.042 E117.03282
M205 X10 Y10
G1 F1800 E111.03282
G1 F480 Z0.435
G0 F6000 X100.194 Y102.456 Z0.435
M205 X8 Y8
G1 F480 Z0.36
G1 F1800 E117.03282
G1 F1125 X79.873 Y82.136 E120.47375
M205 X10 Y10
G1 F1800 E114.47375
G1 F480 Z0.435
G0 F6000 X79.702 Y84.228 Z0.435
M205 X8 Y8
G1 F480 Z0.36
G1 F1800 E120.47375
G1 F1125 X98.157 Y102.683 E123.59879
M205 X10 Y10
G1 F1800 E117.59879
G1 F480 Z0.435
G0 F6000 X95.907 Y102.695 Z0.435
M205 X8 Y8
G1 F480 Z0.36
G1 F1800 E123.59879
G1 F1125 X79.758 Y86.547 E126.33326
M205 X10 Y10
G1 F1800 E120.33326
G1 F480 Z0.435
G0 F6000 X80.151 Y89.202 Z0.435
M104 S190
M205 X8 Y8
G1 F480 Z0.36
G1 F1800 E126.33326
G1 F1125 X93.292 Y102.343 E128.55846
M205 X10 Y10
G1 F1800 E122.55846
G1 F480 Z0.435
G0 F6000 X89.959 Y101.273 Z0.435
M205 X8 Y8
G1 F480 Z0.36
G1 F1800 E128.55846
G1 F1125 X81.269 Y92.582 E130.03005
M205 X10 Y10
G1 F1800 E124.03005
G1 F480 Z0.435
G0 F6000 X85.57 Y68.578 Z0.435
;TIME_ELAPSED:79.792622
;LAYER:-5
G0 X85.57 Y68.578 Z0.735
M205 X8 Y8
;TYPE:SUPPORT
G1 F480 Z0.66
G1 F1800 E130.03005
G1 F1125 X86.346 Y67.556 E130.15809
G1 X87.436 Y66.246 E130.32813
G1 X88.164 Y65.437 E130.43673
G1 X89.334 Y64.243 E130.60353
G1 X90.198 Y63.433 E130.7217
G1 X91.264 Y62.511 E130.86233
G1 X92.22 Y61.753 E130.98407
G1 X92.843 Y61.306 E131.06058
G1 X85.57 Y68.578 E132.08681
G1 X84.642 Y69.905 E132.24838
G1 X84.087 Y70.769 E132.35084
G1 X83.079 Y72.483 E132.54925
G1 X96.569 Y58.994 E134.45277
G1 X98.321 Y58.242 E134.643
G1 X98.999 Y57.977 E134.71564
G1 X81.797 Y75.18 E137.1431
G1 X81.552 Y75.759 E137.20583
G1 X80.916 Y77.475 E137.38843
G1 X101.043 Y57.349 E140.2285
G1 X101.969 Y57.127 E140.32352
G1 X102.818 Y56.987 E140.40937
G1 X80.373 Y79.432 E143.57661
G1 X80.179 Y80.23 E143.65855
G1 X80.004 Y81.216 E143.75847
G1 X104.455 Y56.764 E147.20884
G1 X105.9 Y56.734 E147.35306
G1 X79.768 Y82.866 E151.04056
G1 X79.691 Y84.357 E151.18953
G1 X107.284 Y56.764 E155.0832
G1 X108.528 Y56.934 E155.20848
G1 X79.686 Y85.776 E159.2784
G1 X79.806 Y87.07 E159.40807
G1 X109.721 Y57.155 E163.6294
G1 X110.331 Y57.288 E163.6917
G1 X110.841 Y57.449 E163.74506
G1 X79.99 Y88.3 E168.09847
G1 X80.205 Y89.5 E168.22011
G1 X111.921 Y57.784 E172.69558
G1 X112.922 Y58.197 E172.80363
G1 X80.524 Y90.594 E177.37527
G1 X80.886 Y91.647 E177.48637
G1 X113.892 Y58.641 E182.14388
G1 X114.788 Y59.16 E182.24719
G1 X81.291 Y92.657 E186.97398
G1 X81.767 Y93.594 E187.07885
G1 X115.664 Y59.698 E191.86201
G1 X116.468 Y60.307 E191.96265
G1 X82.252 Y94.523 E196.7909
G1 X82.825 Y95.365 E196.89252
G1 X117.25 Y60.94 E201.75026
G1 X117.972 Y61.632 E201.85005
G1 X83.423 Y96.182 E206.72536
G1 X84.046 Y96.972 E206.82575
G1 X118.674 Y62.344 E211.71213
G1 X119.321 Y63.112 E211.81233
G1 X84.747 Y97.686 E216.6911
G1 X85.48 Y98.367 E216.79093
G1 X119.917 Y63.93 E221.65036
G1 X120.488 Y64.773 E221.75196
G1 X86.233 Y99.028 E226.58571
G1 X87.031 Y99.645 E226.68636
G1 X121.004 Y65.671 E231.48038
G1 X121.481 Y66.608 E231.5853
G1 X87.89 Y100.199 E236.32535
G1 X88.797 Y100.706 E236.42903
G1 X121.898 Y67.606 E241.09987
G1 X122.272 Y68.646 E241.21014
G1 X89.741 Y101.177 E245.80062
G1 X90.21 Y101.388 E245.85193
G1 X90.744 Y101.588 E245.90883
G1 X122.591 Y69.741 E250.40279
G1 X122.731 Y70.392 E250.46923
G1 X122.831 Y70.915 E250.52236
G1 X91.795 Y101.952 E254.90195
G1 X92.886 Y102.275 E255.01548
G1 X123.039 Y72.122 E259.27039
G1 X123.138 Y73.437 E259.40197
G1 X94.089 Y102.486 E263.5011
G1 X94.605 Y102.563 E263.55316
G1 X95.342 Y102.647 E263.62717
G1 X123.19 Y74.799 E267.55683
G1 X123.097 Y76.306 E267.70748
G1 X96.664 Y102.739 E271.43746
G1 X98.132 Y102.686 E271.58404
G1 X122.906 Y77.911 E275.07999
G1 X122.843 Y78.379 E275.1271
G1 X122.706 Y79.062 E275.19661
G1 X122.568 Y79.664 E275.25824
G1 X99.707 Y102.525 E278.48417
G1 X100.083 Y102.48 E278.52196
G1 X101.442 Y102.204 E278.66033
G1 X122.052 Y81.593 E281.56869
G1 X121.616 Y82.892 E281.70541
G1 X121.254 Y83.806 E281.8035
G1 X103.432 Y101.628 E284.31838
G1 X104.033 Y101.411 E284.38214
G1 X105.079 Y100.989 E284.49468
G1 X105.799 Y100.675 E284.57306
G1 X120.054 Y86.42 E286.58459
G1 X119.892 Y86.74 E286.62038
G1 X119.064 Y88.208 E286.78855
G1 X118.431 Y89.223 E286.90791
G1 X117.917 Y89.972 E286.99855
M205 X10 Y10
G1 F1800 E280.99855
G1 F480 Z0.735
G0 F6000 X110.265 Y97.987 Z0.735
M205 X8 Y8
G1 F480 Z0.66
G1 F1800 E286.99855
G1 F1125 X111.456 Y97.06 E287.14914
G1 X112.563 Y96.112 E287.29457
G1 X113.525 Y95.214 E287.42588
G1 X114.665 Y94.05 E287.58845
G1 X115.597 Y93.012 E287.72764
G1 X116.599 Y91.793 E287.88509
G1 X117.366 Y90.774 E288.01235
G1 X117.917 Y89.972 E288.10944
G1 X109.067 Y98.821 E289.3582
M205 X10 Y10
G1 F1800 E283.3582
G1 F480 Z0.735
G0 F6000 X83.122 Y95.802 Z0.735
;TIME_ELAPSED:166.383189
;LAYER:-4
G0 X83.122 Y95.802 Z0.935
M205 X8 Y8
;TYPE:SUPPORT-INTERFACE
G1 F480 Z0.86
G1 F1800 E289.3582
G1 F1500 X83.768 Y96.619 E289.39284
G1 X84.422 Y97.338 E289.42517
G1 X84.89 Y97.819 E289.44749
G1 X86.016 Y98.861 E289.49852
G1 X86.833 Y99.492 E289.53285
G1 X87.466 Y99.912 E289.55812
G1 X82.595 Y95.04 E289.78726
G1 X82.177 Y94.341 E289.81435
G1 X81.819 Y93.698 E289.83883
G1 X88.927 Y100.807 E290.17319
G1 X89.961 Y101.275 E290.21094
G1 X81.268 Y92.582 E290.61983
G1 X80.859 Y91.607 E290.655
G1 X90.91 Y101.658 E291.12776
G1 X91.757 Y101.94 E291.15746
G1 X80.596 Y90.778 E291.68246
G1 X80.338 Y89.954 E291.71118
G1 X92.558 Y102.174 E292.28597
G1 X93.293 Y102.344 E292.31106
G1 X80.151 Y89.202 E292.92922
G1 X80.028 Y88.513 E292.9525
G1 X93.984 Y102.469 E293.60895
G1 X94.648 Y102.567 E293.63127
G1 X79.904 Y87.824 E294.32476
G1 X79.819 Y87.173 E294.34659
G1 X95.287 Y102.641 E295.07416
G1 X95.907 Y102.695 E295.09486
G1 X79.756 Y86.544 E295.85455
G1 X79.712 Y85.934 E295.8749
G1 X96.495 Y102.717 E296.66432
G1 X97.067 Y102.724 E296.68334
G1 X79.698 Y85.354 E297.50035
