;FLAVOR:Marlin
;TIME:11507
;Filament used: 9.42911m
;Layer height: 0.2
;MINX:58.401
;MINY:44.691
;MINZ:0.36
;MAXX:151.6
;MAXY:165.31
;MAXZ:18.985
;Generated with Cura_SteamEngine 5.2.2
M82 ;absolute extrusion mode
;Profil Homepage: https://github.com/NilsRo/Cura_Anycubic_MegaS_Profile

;Slicer Information - (Support for OctoPrint Slicer Estimator)
;Slicer info:material_guid;0ff92885-617b-4144-a03c-9989872454bc
;Slicer info:material_id;generic_pla_175
;Slicer info:material_brand;Generic
;Slicer info:material_name;PLA
;Slicer info:filament_cost;[0.0]
;Slicer info:material_bed_temperature;60
;Slicer info:material_bed_temperature_layer_0;60
;Slicer info:material_print_temperature;210
;Slicer info:material_print_temperature_layer_0;215
;Slicer info:material_flow;100
;Slicer info:layer_height;0.2
;Slicer info:machine_nozzle_size;0.4
;Slicer info:wall_thickness;1.2000000000000002
;Slicer info:speed_print;50.0
;Slicer info:speed_topbottom;25.0
;Slicer info:travel_speed;100.0
;Slicer info:support;0
;Slicer info:retraction_speed;30
;Slicer info:retraction_amount;6
;Slicer info:layer_height;0.2
;Slicer info:infill_pattern;grid
;Slicer info:infill_sparse_density;25
;Slicer info:cool_fan_enabled;True
;Slicer info:cool_fan_speed;100
;Slicer info:sliced_at;Sun 12-03-2023 21:17:29
G21                                        ; metric values 
G90                                        ; absolute positioning 
M82                                        ; set extruder to absolute mode 
M107                                       ; start with the fan off 
M140 S60   ; Start heating the bed 
G4 S60                                     ; wait 1 minute 
M104 S215 ; start heating the hot end 
M190 S60   ; wait for bed 
M109 S215 ; wait for hotend 
M300 S1000 P500                            ; BEEP heating done 
G28 X0 Y10 Z0                              ; move X/Y to min endstops 
M420 S1                                    ; Enable leveling 
M420 Z2.0                                  ; Set leveling fading height to 2 mm 
G0 Z0.15                                   ; lift nozzle a bit 
G92 E0                                     ; zero the extruded length 
G1 X50 E20 F500                            ; Extrude 20mm of filament in a 5cm line. 
G92 E0                                     ; zero the extruded length again 
G1 E-2 F500                                ; Retract a little 
G1 X50 F500                                ; wipe away from the filament line
G1 X100 F9000                              ; Quickly wipe away from the filament line
G92 E0
G92 E0
G1 F1800 E-6
;LAYER_COUNT:88
;LAYER:-6
M107
M205 X10 Y10
G0 F6000 X61.489 Y56.023 Z0.36
M205 X8 Y8
;TYPE:SUPPORT-INTERFACE
G1 F1800 E0
G1 F1125 X60.816 Y56.955 E0.13765
G1 X60.234 Y57.924 E0.27299
G1 X59.781 Y58.804 E0.3915
G1 X59.365 Y59.781 E0.51865
G1 X59.024 Y60.782 E0.64527
G1 X58.745 Y61.84 E0.77628
G1 X58.557 Y62.877 E0.90247
G1 X58.448 Y63.86 E1.02089
G1 X58.401 Y65.009 E1.15858
G1 X58.401 Y86.111 E3.68526
G1 X58.49 Y87.371 E3.83651
G1 X58.657 Y88.464 E3.9689
G1 X58.859 Y89.381 E4.08133
G1 X59.157 Y90.39 E4.2073
G1 X59.564 Y91.477 E4.34628
G1 X59.984 Y92.369 E4.46433
G1 X60.583 Y93.436 E4.61085
G1 X61.185 Y94.333 E4.74019
G1 X61.731 Y95.04 E4.84715
G1 X62.35 Y95.778 E4.96249
G1 X62.718 Y96.349 E5.04383
G1 X63.016 Y96.98 E5.12738
G1 X63.233 Y97.646 E5.21125
G1 X63.357 Y98.289 E5.28966
G1 X63.4 Y98.951 E5.36909
G1 X63.4 Y108.53 E6.51605
G1 X63.366 Y109.12 E6.58681
G1 X63.244 Y109.794 E6.66883
G1 X63.041 Y110.445 E6.75048
G1 X62.747 Y111.083 E6.83459
G1 X62.396 Y111.645 E6.91393
G1 X61.77 Y112.533 E7.04402
G1 X61.23 Y113.431 E7.16948
G1 X60.781 Y114.304 E7.28703
G1 X60.365 Y115.281 E7.41417
G1 X60.024 Y116.282 E7.54079
G1 X59.745 Y117.34 E7.67181
G1 X59.557 Y118.377 E7.798
G1 X59.448 Y119.36 E7.91642
G1 X59.401 Y120.509 E8.05411
G1 X59.401 Y145.348 E11.02825
G1 X59.49 Y146.608 E11.17949
G1 X59.657 Y147.701 E11.31188
G1 X59.859 Y148.618 E11.42431
G1 X60.157 Y149.627 E11.55028
G1 X60.564 Y150.714 E11.68926
G1 X60.984 Y151.606 E11.80731
G1 X61.583 Y152.674 E11.95393
G1 X62.185 Y153.57 E12.08318
G1 X62.782 Y154.345 E12.20032
G1 X63.554 Y155.195 E12.33781
G1 X64.317 Y155.923 E12.46408
G1 X65.023 Y156.511 E12.57409
G1 X65.954 Y157.182 E12.7115
G1 X66.928 Y157.769 E12.84767
G1 X67.804 Y158.219 E12.96559
G1 X68.692 Y158.597 E13.08115
G1 X69.788 Y158.978 E13.22008
G1 X70.84 Y159.251 E13.35021
G1 X71.513 Y159.453 E13.43435
G1 X72.141 Y159.734 E13.51673
G1 X72.738 Y160.097 E13.60039
G1 X73.262 Y160.518 E13.68087
G1 X73.745 Y160.959 E13.75918
G1 X74.609 Y161.644 E13.8912
G1 X75.746 Y162.473 E14.05969
G1 X76.4 Y162.925 E14.15488
G1 X77.321 Y163.48 E14.28363
G1 X78.194 Y163.929 E14.40118
G1 X79.116 Y164.321 E14.52114
G1 X80.189 Y164.69 E14.657
G1 X81.145 Y164.94 E14.77532
G1 X82.271 Y165.153 E14.91253
G1 X83.4 Y165.273 E15.04848
G1 X84.384 Y165.309 E15.16637
G1 X85.78 Y165.31 E15.33353
G1 X86.399 Y165.297 E15.40766
G1 X87.542 Y165.209 E15.54492
G1 X88.669 Y165.026 E15.68163
G1 X89.537 Y164.828 E15.78824
G1 X90.567 Y164.515 E15.91713
G1 X91.66 Y164.095 E16.05733
G1 X92.61 Y163.638 E16.18356
G1 X93.467 Y163.147 E16.30182
G1 X94.383 Y162.538 E16.43353
G1 X95.579 Y161.67 E16.61047
G1 X96.013 Y161.338 E16.6759
G1 X96.776 Y160.694 E16.79545
G1 X97.432 Y160.274 E16.88872
G1 X98.033 Y159.99 E16.96831
G1 X98.703 Y159.77 E17.05275
G1 X99.376 Y159.641 E17.1348
G1 X100.023 Y159.6 E17.21242
G1 X121.683 Y159.598 E19.80592
G1 X122.9 Y159.547 E19.95176
G1 X123.88 Y159.426 E20.07
G1 X124.994 Y159.213 E20.2058
G1 X125.951 Y158.951 E20.3246
G1 X127.062 Y158.564 E20.46547
G1 X127.754 Y158.289 E20.55463
G1 X128.269 Y158.073 E20.6215
G1 X129.296 Y157.573 E20.75827
G1 X130.211 Y157.037 E20.88524
G1 X131.084 Y156.435 E21.01221
G1 X131.927 Y155.76 E21.14152
G1 X132.863 Y154.891 E21.29445
G1 X133.525 Y154.188 E21.41007
G1 X134.165 Y153.437 E21.52822
G1 X134.792 Y152.584 E21.65498
G1 X135.318 Y151.743 E21.77375
G1 X135.856 Y150.739 E21.91014
G1 X136.302 Y149.725 E22.04277
G1 X136.6 Y148.965 E22.14052
G1 X136.981 Y147.862 E22.28024
G1 X137.264 Y146.76 E22.41648
G1 X137.426 Y145.873 E22.52444
G1 X137.47 Y145.546 E22.56395
G1 X137.566 Y144.984 E22.63221
G1 X137.753 Y144.335 E22.71308
G1 X138.039 Y143.684 E22.79822
G1 X138.38 Y143.111 E22.87806
G1 X138.809 Y142.565 E22.9612
G1 X139.296 Y142.085 E23.04308
G1 X139.808 Y141.693 E23.12029
G1 X140.415 Y141.336 E23.20461
G1 X140.974 Y141.1 E23.27726
G1 X141.754 Y140.789 E23.3778
G1 X142.269 Y140.573 E23.44467
G1 X143.296 Y140.073 E23.58144
G1 X144.211 Y139.537 E23.70841
G1 X145.084 Y138.935 E23.83539
G1 X145.927 Y138.26 E23.9647
G1 X146.863 Y137.391 E24.11762
G1 X147.525 Y136.688 E24.23325
G1 X148.165 Y135.937 E24.35139
G1 X148.792 Y135.084 E24.47815
G1 X149.318 Y134.243 E24.59692
G1 X149.856 Y133.239 E24.73331
G1 X150.302 Y132.225 E24.86595
G1 X150.6 Y131.465 E24.96369
G1 X150.979 Y130.367 E25.10277
G1 X151.255 Y129.32 E25.23242
G1 X151.443 Y128.283 E25.35861
G1 X151.552 Y127.3 E25.47703
G1 X151.6 Y126.152 E25.61461
G1 X151.599 Y83.817 E30.68366
G1 X151.547 Y82.603 E30.82915
G1 X151.426 Y81.616 E30.94821
G1 X151.212 Y80.502 E31.08404
G1 X150.929 Y79.464 E31.21286
G1 X150.571 Y78.457 E31.34083
G1 X150.289 Y77.746 E31.43241
G1 X150.073 Y77.231 E31.49928
G1 X149.573 Y76.204 E31.63605
G1 X149.037 Y75.289 E31.76302
G1 X148.435 Y74.416 E31.89
G1 X147.76 Y73.573 E32.01931
G1 X146.891 Y72.637 E32.17223
G1 X146.188 Y71.975 E32.28786
G1 X145.437 Y71.336 E32.40592
G1 X144.591 Y70.714 E32.53165
G1 X143.743 Y70.182 E32.65152
G1 X142.739 Y69.644 E32.7879
G1 X141.725 Y69.198 E32.92054
G1 X140.621 Y68.766 E33.06249
G1 X139.942 Y68.396 E33.15508
G1 X139.388 Y67.994 E33.23704
G1 X138.889 Y67.524 E33.31912
G1 X138.459 Y67 E33.40028
G1 X138.103 Y66.442 E33.47953
G1 X137.819 Y65.839 E33.55934
G1 X137.602 Y65.172 E33.64332
G1 X137.473 Y64.497 E33.72561
G1 X137.428 Y64.129 E33.77
G1 X137.213 Y63.002 E33.90738
G1 X136.926 Y61.957 E34.03713
G1 X136.581 Y60.989 E34.16018
G1 X136.289 Y60.244 E34.25599
G1 X136.073 Y59.731 E34.32264
G1 X135.573 Y58.704 E34.45941
G1 X135.033 Y57.784 E34.58714
G1 X134.426 Y56.902 E34.71534
G1 X133.703 Y56.012 E34.85264
G1 X132.91 Y55.157 E34.99227
G1 X132.18 Y54.464 E35.11279
G1 X131.409 Y53.812 E35.23369
G1 X130.616 Y53.233 E35.35126
G1 X129.636 Y52.618 E35.48979
G1 X128.689 Y52.121 E35.61785
G1 X127.607 Y51.652 E35.75905
G1 X127.039 Y51.431 E35.83203
G1 X125.867 Y51.022 E35.98066
G1 X124.809 Y50.744 E36.11164
G1 X123.779 Y50.558 E36.23696
G1 X122.796 Y50.449 E36.35538
G1 X121.665 Y50.403 E36.49092
G1 X100.017 Y50.401 E39.08297
G1 X99.42 Y50.366 E39.15458
G1 X98.766 Y50.25 E39.23411
G1 X98.138 Y50.056 E39.31281
G1 X97.496 Y49.765 E39.39721
G1 X96.901 Y49.399 E39.48085
G1 X96.337 Y48.942 E39.56777
G1 X95.585 Y48.35 E39.68236
G1 X94.452 Y47.524 E39.85025
G1 X93.929 Y47.16 E39.92655
G1 X92.875 Y46.52 E40.07419
G1 X92.003 Y46.071 E40.19163
G1 X91.027 Y45.655 E40.31867
G1 X90.024 Y45.314 E40.44551
G1 X88.967 Y45.035 E40.57641
G1 X87.93 Y44.847 E40.7026
G1 X86.947 Y44.738 E40.82102
G1 X85.814 Y44.691 E40.9568
G1 X84.419 Y44.691 E41.12383
G1 X83.8 Y44.703 E41.19796
G1 X82.657 Y44.791 E41.33523
G1 X81.53 Y44.974 E41.47194
G1 X80.662 Y45.172 E41.57854
G1 X79.633 Y45.485 E41.70732
G1 X78.55 Y45.901 E41.84623
G1 X77.587 Y46.363 E41.97412
G1 X76.597 Y46.937 E42.11114
G1 X75.826 Y47.455 E42.22236
G1 X74.663 Y48.3 E42.39449
G1 X74.172 Y48.671 E42.46818
G1 X73.344 Y49.377 E42.59847
G1 X72.558 Y49.932 E42.71368
G1 X71.949 Y50.235 E42.79512
G1 X71.299 Y50.462 E42.87756
G1 X70.64 Y50.603 E42.95825
G1 X70.3 Y50.657 E42.99947
G1 X69.382 Y50.859 E43.11202
G1 X68.374 Y51.157 E43.23788
G1 X67.287 Y51.564 E43.37686
G1 X66.392 Y51.985 E43.49529
G1 X65.325 Y52.584 E43.6418
G1 X64.429 Y53.185 E43.77098
G1 X63.652 Y53.785 E43.88853
G1 X62.805 Y54.554 E44.02551
G1 X62.077 Y55.317 E44.15178
G1 X61.489 Y56.023 E44.26179
M205 X10 Y10
G0 F6000 X61.38 Y56.854
M205 X8 Y8
G1 F1125 X143.824 Y139.298 E58.22228
M205 X10 Y10
G1 F1800 E52.22228
G1 F480 Z0.435
G0 F6000 X145.153 Y138.365 Z0.435
M205 X8 Y8
G1 F480 Z0.36
G1 F1800 E58.22228
G1 F1125 X62.373 Y55.584 E72.23975
M205 X10 Y10
G1 F1800 E66.23975
G1 F480 Z0.435
G0 F6000 X63.507 Y54.456 Z0.435
M205 X8 Y8
G1 F480 Z0.36
G1 F1800 E72.23975
G1 F1125 X146.361 Y137.31 E86.26966
M205 X10 Y10
G1 F1800 E80.26966
G1 F480 Z0.435
G0 F6000 X147.46 Y136.147 Z0.435
M205 X8 Y8
G1 F480 Z0.36
G1 F1800 E86.26966
G1 F1125 X64.758 Y53.445 E100.27384
M205 X10 Y10
G1 F1800 E94.27384
G1 F480 Z0.435
G0 F6000 X66.154 Y52.577 Z0.435
M205 X8 Y8
G1 F480 Z0.36
G1 F1800 E100.27384
G1 F1125 X148.449 Y134.873 E114.20918
M205 X10 Y10
G1 F1800 E108.20918
G1 F480 Z0.435
G0 F6000 X149.289 Y133.45 Z0.435
M205 X8 Y8
G1 F480 Z0.36
G1 F1800 E114.20918
G1 F1125 X67.682 Y51.843 E128.02793
M205 X10 Y10
G1 F1800 E122.02793
G1 F480 Z0.435
G0 F6000 X69.379 Y51.277 Z0.435
M205 X8 Y8
G1 F480 Z0.36
G1 F1800 E128.02793
G1 F1125 X149.999 Y131.898 E141.67964
M205 X10 Y10
G1 F1800 E135.67964
G1 F480 Z0.435
G0 F6000 X150.599 Y130.234 Z0.435
M205 X8 Y8
G1 F480 Z0.36
G1 F1800 E141.67964
G1 F1125 X71.247 Y50.882 E155.11655
M205 X10 Y10
G1 F1800 E149.11655
G1 F480 Z0.435
G0 F6000 X72.845 Y50.218 Z0.435
M205 X8 Y8
G1 F480 Z0.36
G1 F1800 E155.11655
G1 F1125 X151.016 Y128.389 E168.35348
M205 X10 Y10
G1 F1800 E162.35348
G1 F480 Z0.435
G0 F6000 X151.192 Y126.302 Z0.435
M205 X8 Y8
G1 F480 Z0.36
G1 F1800 E168.35348
G1 F1125 X74.126 Y49.236 E181.40329
M205 X10 Y10
G1 F1800 E175.40329
G1 F480 Z0.435
G0 F6000 X75.406 Y48.253 Z0.435
M205 X8 Y8
G1 F480 Z0.36
G1 F1800 E181.40329
G1 F1125 X151.199 Y124.046 E194.23754
M205 X10 Y10
G1 F1800 E188.23754
G1 F480 Z0.435
G0 F6000 X151.199 Y121.783 Z0.435
M205 X8 Y8
G1 F480 Z0.36
G1 F1800 E194.23754
G1 F1125 X76.738 Y47.323 E206.84616
M205 X10 Y10
G1 F1800 E200.84616
G1 F480 Z0.435
G0 F6000 X78.193 Y46.515 Z0.435
M205 X8 Y8
G1 F480 Z0.36
G1 F1800 E206.84616
G1 F1125 X151.199 Y119.52 E219.2084
M205 X10 Y10
G1 F1800 E213.2084
G1 F480 Z0.435
G0 F6000 X151.199 Y117.258 Z0.435
M205 X8 Y8
G1 F480 Z0.36
G1 F1800 E219.2084
G1 F1125 X79.795 Y45.854 E231.29945
M205 X10 Y10
G1 F1800 E225.29945
G1 F480 Z0.435
G0 F6000 X81.578 Y45.374 Z0.435
M205 X8 Y8
G1 F480 Z0.36
G1 F1800 E231.29945
G1 F1125 X151.199 Y114.995 E243.08858
M205 X10 Y10
G1 F1800 E237.08858
G1 F480 Z0.435
G0 F6000 X151.199 Y112.732 Z0.435
M205 X8 Y8
G1 F480 Z0.36
G1 F1800 E243.08858
G1 F1125 X83.587 Y45.121 E254.53743
M205 X10 Y10
G1 F1800 E248.53743
G1 F480 Z0.435
G0 F6000 X85.821 Y45.092 Z0.435
M205 X8 Y8
G1 F480 Z0.36
G1 F1800 E254.53743
G1 F1125 X151.199 Y110.469 E265.608
M205 X10 Y10
G1 F1800 E259.608
G1 F480 Z0.435
G0 F6000 X151.199 Y108.207 Z0.435
M205 X8 Y8
G1 F480 Z0.36
G1 F1800 E265.608
G1 F1125 X88.316 Y45.324 E276.25617
M205 X10 Y10
G1 F1800 E270.25617
G1 F480 Z0.435
G0 F6000 X91.58 Y46.326 Z0.435
M205 X8 Y8
G1 F480 Z0.36
G1 F1800 E276.25617
G1 F1125 X151.199 Y105.944 E286.35154
M205 X10 Y10
G1 F1800 E280.35154
G1 F480 Z0.435
G0 F6000 X151.198 Y103.68 Z0.435
M205 X8 Y8
G1 F480 Z0.36
G1 F1800 E286.35154
G1 F1125 X97.91 Y50.392 E295.37496
M205 X10 Y10
G1 F1800 E289.37496
G1 F480 Z0.435
G0 F6000 X100.581 Y50.801 Z0.435
M205 X8 Y8
G1 F480 Z0.36
G1 F1800 E295.37496
G1 F1125 X151.198 Y101.418 E303.94608
M205 X10 Y10
G1 F1800 E297.94608
G1 F480 Z0.435
G0 F6000 X151.198 Y99.155 Z0.435
M205 X8 Y8
G1 F480 Z0.36
G1 F1800 E303.94608
G1 F1125 X102.844 Y50.801 E312.13401
M205 X10 Y10
G1 F1800 E306.13401
G1 F480 Z0.435
G0 F6000 X105.107 Y50.801 Z0.435
M205 X8 Y8
G1 F480 Z0.36
G1 F1800 E312.13401
G1 F1125 X151.198 Y96.892 E319.93874
M205 X10 Y10
G1 F1800 E313.93874
G1 F480 Z0.435
G0 F6000 X151.198 Y94.629 Z0.435
M205 X8 Y8
G1 F480 Z0.36
G1 F1800 E319.93874
G1 F1125 X107.37 Y50.802 E327.36018
M205 X10 Y10
G1 F1800 E321.36018
G1 F480 Z0.435
G0 F6000 X109.633 Y50.802 Z0.435
M205 X8 Y8
G1 F480 Z0.36
G1 F1800 E327.36018
G1 F1125 X151.198 Y92.367 E334.3985
M205 X10 Y10
G1 F1800 E328.3985
G1 F480 Z0.435
G0 F6000 X151.198 Y90.104 Z0.435
M205 X8 Y8
G1 F480 Z0.36
G1 F1800 E334.3985
G1 F1125 X111.896 Y50.802 E341.05362
M205 X10 Y10
G1 F1800 E335.05362
G1 F480 Z0.435
G0 F6000 X114.158 Y50.802 Z0.435
M205 X8 Y8
G1 F480 Z0.36
G1 F1800 E341.05362
G1 F1125 X151.198 Y87.841 E347.32563
M205 X10 Y10
G1 F1800 E341.32563
G1 F480 Z0.435
G0 F6000 X151.198 Y85.579 Z0.435
M205 X8 Y8
G1 F480 Z0.36
G1 F1800 E347.32563
G1 F1125 X116.422 Y50.802 E353.21444
M205 X10 Y10
G1 F1800 E347.21444
G1 F480 Z0.435
G0 F6000 X118.685 Y50.802 Z0.435
M205 X8 Y8
G1 F480 Z0.36
G1 F1800 E353.21444
G1 F1125 X151.175 Y83.293 E358.71615
M205 X10 Y10
G1 F1800 E352.71615
G1 F480 Z0.435
G0 F6000 X150.842 Y80.697 Z0.435
M205 X8 Y8
G1 F480 Z0.36
G1 F1800 E358.71615
G1 F1125 X120.947 Y50.802 E363.77836
M205 X10 Y10
G1 F1800 E357.77836
G1 F480 Z0.435
G0 F6000 X123.317 Y50.909 Z0.435
M205 X8 Y8
G1 F480 Z0.36
G1 F1800 E363.77836
G1 F1125 X137.103 Y64.695 E366.11279
M205 X10 Y10
G1 F1800 E360.11279
G1 F480 Z0.435
G0 F6000 X136.43 Y61.76 Z0.435
M205 X8 Y8
G1 F480 Z0.36
G1 F1800 E366.11279
G1 F1125 X126.25 Y51.579 E367.83668
M205 X10 Y10
G1 F1800 E361.83668
G1 F480 Z0.435
G0 F6000 X130.789 Y53.856 Z0.435
M205 X8 Y8
G1 F480 Z0.36
G1 F1800 E367.83668
G1 F1125 X134.17 Y57.237 E368.4092
M205 X10 Y10
G1 F1800 E362.4092
G1 F480 Z0.435
G0 F6000 X142.293 Y69.886 Z0.435
M205 X8 Y8
G1 F480 Z0.36
G1 F1800 E368.4092
G1 F1125 X149.618 Y77.211 E369.64956
M205 X10 Y10
G1 F1800 E363.64956
G1 F480 Z0.435
G0 F6000 X142.35 Y140.087 Z0.435
M205 X8 Y8
G1 F480 Z0.36
G1 F1800 E369.64956
G1 F1125 X60.514 Y58.251 E383.50709
M205 X10 Y10
G1 F1800 E377.50709
G1 F480 Z0.435
G0 F6000 X59.793 Y59.793 Z0.435
M205 X8 Y8
G1 F480 Z0.36
G1 F1800 E383.50709
G1 F1125 X140.756 Y140.756 E397.2168
M205 X10 Y10
G1 F1800 E391.2168
G1 F480 Z0.435
G0 F6000 X139.309 Y141.572 Z0.435
M205 X8 Y8
G1 F480 Z0.36
G1 F1800 E397.2168
G1 F1125 X59.245 Y61.508 E410.77427
M205 X10 Y10
G1 F1800 E404.77427
G1 F480 Z0.435
G0 F6000 X58.898 Y63.423 Z0.435
M205 X8 Y8
G1 F480 Z0.36
G1 F1800 E410.77427
G1 F1125 X138.186 Y142.711 E424.20034
M205 X10 Y10
G1 F1800 E418.20034
G1 F480 Z0.435
G0 F6000 X137.388 Y144.176 Z0.435
M205 X8 Y8
G1 F480 Z0.36
