;FLAVOR:Marlin
;TIME:3363
;Filament used: 2.81879m
;Layer height: 0.2
;MINX:58.728
;MINY:58.724
;MINZ:0.3
;MAXX:151.268
;MAXY:151.276
;MAXZ:4.975
;Generated with Cura_SteamEngine 5.2.1
M82 ;absolute extrusion mode
;Profil Homepage: https://github.com/NilsRo/Cura_Anycubic_MegaS_Profile

;Slicer Information - (Support for OctoPrint Slicer Estimator)
;Slicer info:material_guid;0ff92885-617b-4144-a03c-9989872454bc
;Slicer info:material_id;generic_pla_175
;Slicer info:material_brand;Generic
;Slicer info:material_name;PLA
;Slicer info:filament_cost;[0.0]
;Slicer info:material_bed_temperature;45
;Slicer info:material_bed_temperature_layer_0;45
;Slicer info:material_print_temperature;190
;Slicer info:material_print_temperature_layer_0;195
;Slicer info:material_flow;100
;Slicer info:layer_height;0.2
;Slicer info:machine_nozzle_size;0.4
;Slicer info:wall_thickness;1.2000000000000002
;Slicer info:speed_print;50.0
;Slicer info:speed_topbottom;25.0
;Slicer info:travel_speed;100.0
;Slicer info:support;0
;Slicer info:retraction_speed;30
;Slicer info:retraction_amount;6
;Slicer info:layer_height;0.2
;Slicer info:infill_pattern;grid
;Slicer info:infill_sparse_density;25
;Slicer info:cool_fan_enabled;True
;Slicer info:cool_fan_speed;100
;Slicer info:sliced_at;Mon 03-04-2023 07:59:00
G21                                        ; metric values 
G90                                        ; absolute positioning 
M82                                        ; set extruder to absolute mode 
M107                                       ; start with the fan off 
M140 S45   ; Start heating the bed 
G4 S60                                     ; wait 1 minute 
M104 S195 ; start heating the hot end 
M190 S45   ; wait for bed 
M109 S195 ; wait for hotend 
M300 S1000 P500                            ; BEEP heating done 
G28 X0 Y10 Z0                              ; move X/Y to min endstops 
M420 S1                                    ; Enable leveling 
M420 Z2.0                                  ; Set leveling fading height to 2 mm 
G0 Z0.15                                   ; lift nozzle a bit 
G92 E0                                     ; zero the extruded length 
G1 X50 E20 F500                            ; Extrude 20mm of filament in a 5cm line. 
G92 E0                                     ; zero the extruded length again 
G1 E-2 F500                                ; Retract a little 
G1 X50 F500                                ; wipe away from the filament line
G1 X100 F9000                              ; Quickly wipe away from the filament line
G92 E0
G92 E0
G1 F1800 E-6
;LAYER_COUNT:24
;LAYER:0
M106 S76.5
M205 X10 Y10
G1 F480 Z0.375
G0 F6000 X72.338 Y72.22 Z0.375
M205 X8 Y8
;TYPE:SKIRT
G1 F480 Z0.3
G1 F1800 E0
G1 F1200 X72.871 Y71.698 E0.03722
G1 X73.625 Y70.987 E0.08892
G1 X74.177 Y70.485 E0.12615
G1 X74.861 Y69.887 E0.17148
G1 X75.66 Y69.216 E0.22353
G1 X76.358 Y68.654 E0.26824
G1 X76.946 Y68.198 E0.30536
G1 X77.784 Y67.575 E0.35746
G1 X78.388 Y67.143 E0.39451
G1 X79.246 Y66.554 E0.44643
G1 X79.99 Y66.066 E0.49082
G1 X80.742 Y65.593 E0.53514
G1 X81.497 Y65.137 E0.57914
G1 X82.132 Y64.769 E0.61576
G1 X83.026 Y64.274 E0.66674
G1 X83.818 Y63.855 E0.71144
G1 X84.607 Y63.459 E0.75549
G1 X85.262 Y63.145 E0.79173
G1 X86.167 Y62.73 E0.8414
G1 X86.828 Y62.441 E0.87739
G1 X87.762 Y62.055 E0.92781
G1 X88.572 Y61.738 E0.9712
G1 X89.241 Y61.49 E1.0068
G1 X90.038 Y61.21 E1.04895
G1 X90.985 Y60.898 E1.09869
G1 X91.794 Y60.648 E1.14093
G1 X92.607 Y60.414 E1.18314
G1 X93.421 Y60.196 E1.22518
G1 X94.221 Y59.997 E1.26631
G1 X94.893 Y59.841 E1.30073
G1 X95.845 Y59.638 E1.34929
G1 X96.516 Y59.508 E1.38339
G1 X97.458 Y59.343 E1.4311
G1 X98.255 Y59.218 E1.47135
G1 X98.919 Y59.125 E1.5048
G1 X99.843 Y59.012 E1.55124
G1 X100.65 Y58.928 E1.59172
G1 X101.433 Y58.861 E1.63093
G1 X102.086 Y58.815 E1.66359
G1 X103.848 Y58.738 E1.75158
G1 X105.128 Y58.724 E1.81544
G1 X106.095 Y58.736 E1.86369
G1 X106.873 Y58.761 E1.90253
G1 X107.719 Y58.804 E1.94479
G1 X109.028 Y58.9 E2.01027
G1 X109.882 Y58.982 E2.05307
G1 X110.809 Y59.09 E2.09963
G1 X111.597 Y59.196 E2.1393
G1 X112.424 Y59.321 E2.18103
G1 X113.091 Y59.435 E2.21479
G1 X113.888 Y59.584 E2.25524
G1 X115.659 Y59.967 E2.34564
G1 X116.445 Y60.162 E2.38604
G1 X117.271 Y60.38 E2.42866
G1 X118.073 Y60.609 E2.47027
G1 X118.746 Y60.813 E2.50535
G1 X119.544 Y61.069 E2.54717
G1 X120.483 Y61.392 E2.59671
G1 X121.153 Y61.635 E2.63226
G1 X122.097 Y61.999 E2.68274
G1 X122.896 Y62.325 E2.72579
G1 X123.702 Y62.672 E2.76957
G1 X124.361 Y62.97 E2.80565
G1 X125.273 Y63.402 E2.856
G1 X126.066 Y63.798 E2.90022
G1 X126.835 Y64.201 E2.94354
G1 X127.477 Y64.551 E2.98002
G1 X128.364 Y65.056 E3.03094
G1 X129.148 Y65.524 E3.07649
G1 X129.877 Y65.98 E3.11939
G1 X130.498 Y66.382 E3.1563
G1 X131.383 Y66.981 E3.20961
G1 X131.987 Y67.409 E3.24655
G1 X132.694 Y67.927 E3.29027
G1 X133.522 Y68.56 E3.34227
G1 X134.103 Y69.022 E3.3793
G1 X134.916 Y69.696 E3.43199
G1 X135.481 Y70.183 E3.4692
G1 X136.251 Y70.874 E3.52082
G1 X136.912 Y71.489 E3.56586
G1 X137.449 Y72.008 E3.60312
G1 X138.193 Y72.759 E3.65586
G1 X138.811 Y73.407 E3.70054
G1 X139.316 Y73.956 E3.73775
G1 X139.91 Y74.625 E3.78239
G1 X140.495 Y75.311 E3.82737
G1 X141.155 Y76.12 E3.87945
G1 X141.715 Y76.834 E3.92473
G1 X142.246 Y77.541 E3.96884
G1 X142.682 Y78.142 E4.00588
G1 X143.274 Y78.993 E4.0576
G1 X143.686 Y79.609 E4.09457
G1 X144.25 Y80.49 E4.14676
G1 X144.635 Y81.118 E4.18351
G1 X145.153 Y82 E4.23454
G1 X145.586 Y82.772 E4.2787
G1 X146.003 Y83.55 E4.32274
G1 X146.336 Y84.199 E4.35913
G1 X146.778 Y85.103 E4.40934
G1 X147.085 Y85.758 E4.44543
G1 X147.498 Y86.696 E4.49656
G1 X147.834 Y87.493 E4.53971
G1 X148.1 Y88.157 E4.5754
G1 X148.458 Y89.106 E4.626
G1 X148.697 Y89.776 E4.66149
G1 X149.016 Y90.723 E4.71134
G1 X149.228 Y91.396 E4.74655
G1 X149.462 Y92.177 E4.78722
G1 X149.73 Y93.145 E4.83733
G1 X149.94 Y93.967 E4.87966
G1 X150.099 Y94.641 E4.91421
G1 X150.274 Y95.437 E4.95487
G1 X150.463 Y96.378 E5.00275
G1 X150.585 Y97.048 E5.03673
G1 X150.739 Y97.989 E5.0843
G1 X150.836 Y98.655 E5.11788
G1 X150.939 Y99.453 E5.15802
G1 X151.042 Y100.384 E5.20475
G1 X151.103 Y101.042 E5.23772
G1 X151.173 Y101.962 E5.28375
G1 X151.211 Y102.613 E5.31629
G1 X151.268 Y104.372 E5.40409
G1 X151.266 Y105.722 E5.47144
G1 X151.238 Y106.796 E5.52504
G1 X151.196 Y107.663 E5.56835
G1 X151.138 Y108.523 E5.61135
G1 X151.062 Y109.416 E5.65606
G1 X150.985 Y110.151 E5.69293
G1 X150.859 Y111.178 E5.74455
G1 X150.732 Y112.061 E5.78906
G1 X150.612 Y112.802 E5.82651
G1 X150.446 Y113.712 E5.87266
G1 X150.234 Y114.757 E5.92586
G1 X150.028 Y115.666 E5.97236
G1 X149.843 Y116.414 E6.0108
G1 X149.566 Y117.452 E6.0644
G1 X149.308 Y118.34 E6.11053
G1 X149.027 Y119.244 E6.15776
G1 X148.779 Y119.99 E6.19698
G1 X148.461 Y120.888 E6.24451
G1 X148.064 Y121.936 E6.30042
G1 X147.766 Y122.674 E6.34013
G1 X147.324 Y123.708 E6.39623
G1 X146.993 Y124.439 E6.43626
G1 X146.504 Y125.461 E6.49279
G1 X146.069 Y126.321 E6.54087
G1 X145.69 Y127.037 E6.58129
G1 X145.132 Y128.036 E6.63837
G1 X144.629 Y128.893 E6.68795
G1 X144.115 Y129.725 E6.73674
G1 X143.576 Y130.559 E6.78628
G1 X143.017 Y131.383 E6.83596
G1 X142.541 Y132.055 E6.87704
G1 X141.859 Y132.978 E6.9343
G1 X141.25 Y133.764 E6.98391
G1 X140.618 Y134.544 E7.03399
G1 X140.082 Y135.178 E7.07541
G1 X139.313 Y136.048 E7.13334
G1 X138.642 Y136.774 E7.18266
G1 X138.066 Y137.374 E7.22416
G1 X137.357 Y138.083 E7.27418
G1 X136.521 Y138.879 E7.33177
G1 X135.909 Y139.44 E7.37319
G1 X135.019 Y140.219 E7.4322
G1 X134.383 Y140.751 E7.47357
G1 X133.463 Y141.487 E7.53235
G1 X132.806 Y141.988 E7.57357
G1 X131.884 Y142.664 E7.63061
G1 X131.08 Y143.225 E7.67952
G1 X130.26 Y143.773 E7.72872
G1 X129.418 Y144.31 E7.77855
G1 X128.573 Y144.822 E7.82784
G1 X127.723 Y145.313 E7.87681
G1 X127.012 Y145.705 E7.91732
G1 X126.157 Y146.156 E7.96554
G1 X125.141 Y146.663 E8.02219
G1 X124.261 Y147.078 E8.07073
G1 X123.528 Y147.406 E8.1108
G1 X122.642 Y147.782 E8.15882
G1 X121.759 Y148.136 E8.20628
G1 X120.701 Y148.532 E8.26264
G1 X119.961 Y148.791 E8.30175
G1 X118.909 Y149.136 E8.35699
G1 X118.015 Y149.408 E8.40361
G1 X117.268 Y149.62 E8.44235
G1 X116.37 Y149.857 E8.48868
G1 X115.472 Y150.075 E8.53478
G1 X114.413 Y150.309 E8.58889
G1 X113.667 Y150.457 E8.62684
G1 X112.632 Y150.642 E8.67929
G1 X111.739 Y150.783 E8.72439
G1 X110.999 Y150.886 E8.76167
G1 X109.952 Y151.012 E8.81428
G1 X109.219 Y151.084 E8.85103
G1 X108.212 Y151.164 E8.90142
G1 X107.339 Y151.217 E8.94506
G1 X106.468 Y151.253 E8.98855
G1 X105.612 Y151.272 E9.03127
G1 X104.902 Y151.276 E9.06669
G1 X103.896 Y151.263 E9.11688
G1 X103.18 Y151.24 E9.15262
G1 X102.171 Y151.19 E9.20302
G1 X101.445 Y151.14 E9.23933
G1 X100.559 Y151.062 E9.2837
G1 X99.529 Y150.952 E9.33538
G1 X98.653 Y150.839 E9.37945
G1 X97.755 Y150.707 E9.42473
G1 X97.012 Y150.583 E9.46231
G1 X95.975 Y150.389 E9.51495
G1 X95.049 Y150.196 E9.56214
G1 X94.307 Y150.025 E9.60013
G1 X93.269 Y149.764 E9.65352
G1 X92.372 Y149.519 E9.69992
G1 X91.624 Y149.3 E9.7388
G1 X90.567 Y148.967 E9.79409
G1 X89.685 Y148.667 E9.84057
G1 X88.94 Y148.399 E9.88007
G1 X87.897 Y147.999 E9.9358
G1 X87.003 Y147.633 E9.98399
G1 X86.115 Y147.247 E10.0323
G1 X85.384 Y146.912 E10.07242
G1 X84.524 Y146.499 E10.12001
G1 X83.498 Y145.978 E10.17742
G1 X82.782 Y145.594 E10.21796
G1 X81.934 Y145.118 E10.26647
G1 X80.938 Y144.529 E10.3242
G1 X80.243 Y144.097 E10.36503
G1 X79.42 Y143.563 E10.41397
G1 X78.46 Y142.909 E10.47193
G1 X77.65 Y142.329 E10.52163
G1 X76.988 Y141.834 E10.56287
G1 X76.076 Y141.124 E10.62053
G1 X75.435 Y140.601 E10.6618
G1 X74.543 Y139.84 E10.7203
G1 X73.925 Y139.289 E10.76161
G1 X73.082 Y138.507 E10.81898
G1 X72.353 Y137.798 E10.86971
G1 X71.771 Y137.207 E10.91109
G1 X70.969 Y136.357 E10.9694
G1 X70.311 Y135.626 E11.01846
G1 X69.659 Y134.872 E11.06819
G1 X69.13 Y134.235 E11.1095
G1 X68.393 Y133.307 E11.16863
G1 X67.895 Y132.648 E11.20984
G1 X67.223 Y131.724 E11.26684
G1 X66.661 Y130.911 E11.31615
G1 X66.207 Y130.226 E11.35714
G1 X65.59 Y129.251 E11.41471
G1 X65.168 Y128.551 E11.45549
G1 X64.597 Y127.555 E11.51277
G1 X64.132 Y126.701 E11.56128
G1 X63.682 Y125.833 E11.61006
G1 X63.325 Y125.109 E11.65033
G1 X62.843 Y124.079 E11.70706
G1 X62.458 Y123.203 E11.7548
G1 X62.15 Y122.466 E11.79465
G1 X61.74 Y121.426 E11.85043
G1 X61.409 Y120.528 E11.89817
G1 X61.151 Y119.783 E11.93751
G1 X60.813 Y118.741 E11.99216
G1 X60.542 Y117.839 E12.03915
G1 X60.333 Y117.092 E12.07785
G1 X60.06 Y116.032 E12.13246
G1 X59.884 Y115.286 E12.1707
G1 X59.691 Y114.398 E12.21603
G1 X59.482 Y113.333 E12.27018
G1 X59.353 Y112.588 E12.3079
G1 X59.216 Y111.702 E12.35263
G1 X59.076 Y110.672 E12.40449
G1 X58.991 Y109.935 E12.4415
G1 X58.893 Y108.909 E12.49292
G1 X58.837 Y108.181 E12.52935
G1 X58.777 Y107.163 E12.58023
G1 X58.744 Y106.294 E12.62361
G1 X58.73 Y105.579 E12.65929
G1 X58.728 Y104.585 E12.70888
G1 X58.74 Y103.871 E12.74451
G1 X58.769 Y103.013 E12.78734
G1 X58.826 Y101.995 E12.83821
G1 X58.891 Y101.123 E12.88183
G1 X58.973 Y100.238 E12.92617
G1 X59.055 Y99.504 E12.96302
G1 X59.168 Y98.626 E13.00718
G1 X59.303 Y97.724 E13.05269
G1 X59.454 Y96.833 E13.09777
G1 X59.655 Y95.779 E13.1513
G1 X59.842 Y94.906 E13.19585
G1 X60.057 Y93.979 E13.24332
G1 X60.248 Y93.231 E13.28184
G1 X60.537 Y92.185 E13.33598
G1 X60.804 Y91.294 E13.38238
G1 X61.093 Y90.393 E13.42959
G1 X61.348 Y89.648 E13.46888
G1 X61.728 Y88.603 E13.52435
G1 X62.077 Y87.709 E13.57223
G1 X62.382 Y86.971 E13.61207
G1 X62.831 Y85.946 E13.6679
G1 X63.168 Y85.216 E13.70801
G1 X63.672 Y84.183 E13.76536
G1 X64.043 Y83.464 E13.80572
G1 X64.5 Y82.616 E13.85378
G1 X65.072 Y81.61 E13.91151
G1 X65.491 Y80.91 E13.95222
G1 X66.103 Y79.933 E14.00973
G1 X66.555 Y79.246 E14.05076
G1 X67.204 Y78.301 E14.10795
G1 X67.787 Y77.494 E14.15762
G1 X68.284 Y76.834 E14.19884
G1 X69.008 Y75.913 E14.25729
G1 X69.643 Y75.146 E14.30697
G1 X70.294 Y74.393 E14.35663
G1 X70.848 Y73.777 E14.39796
G1 X71.519 Y73.058 E14.44702
G1 X72.338 Y72.22 E14.50548
M205 X10 Y10
G0 F6000 X72.618 Y72.506
M205 X8 Y8
G1 F1200 X73.252 Y71.887 E14.54969
G1 X73.894 Y71.283 E14.59367
G1 X74.446 Y70.781 E14.63089
G1 X75.124 Y70.188 E14.67583
G1 X75.911 Y69.527 E14.7271
G1 X76.603 Y68.97 E14.77142
G1 X77.191 Y68.514 E14.80855
G1 X78.017 Y67.9 E14.85989
G1 X78.736 Y67.387 E14.90396
G1 X79.346 Y66.968 E14.94088
G1 X80.203 Y66.404 E14.99206
G1 X80.827 Y66.01 E15.02888
G1 X81.698 Y65.483 E15.07967
G1 X82.458 Y65.044 E15.12346
G1 X83.213 Y64.627 E15.16649
G1 X83.998 Y64.212 E15.21079
G1 X84.649 Y63.884 E15.24716
G1 X85.435 Y63.506 E15.29067
G1 X86.205 Y63.152 E15.33295
G1 X87.13 Y62.748 E15.38331
G1 X87.908 Y62.428 E15.42528
G1 X88.711 Y62.113 E15.46831
G1 X89.38 Y61.865 E15.50391
G1 X90.302 Y61.542 E15.55265
G1 X90.979 Y61.319 E15.58821
G1 X91.906 Y61.032 E15.63662
G1 X92.579 Y60.837 E15.67158
G1 X93.518 Y60.584 E15.7201
G1 X94.19 Y60.416 E15.75466
G1 X95.117 Y60.201 E15.80213
G1 X95.921 Y60.031 E15.84313
G1 X96.715 Y59.878 E15.88347
G1 X97.384 Y59.76 E15.91736
G1 X98.188 Y59.633 E15.95797
G1 X99.104 Y59.505 E16.00412
G1 X99.885 Y59.41 E16.04337
G1 X100.546 Y59.34 E16.07653
G1 X101.461 Y59.26 E16.12235
G1 X102.304 Y59.203 E16.16451
G1 X103.852 Y59.138 E16.2418
G1 X105.132 Y59.124 E16.30567
G1 X106.083 Y59.136 E16.35312
G1 X106.854 Y59.16 E16.3916
G1 X107.502 Y59.191 E16.42397
G1 X108.998 Y59.299 E16.4988
G1 X109.974 Y59.394 E16.54772
G1 X110.756 Y59.486 E16.587
G1 X111.422 Y59.575 E16.62052
G1 X112.357 Y59.716 E16.6677
G1 X113.143 Y59.851 E16.70749
G1 X113.814 Y59.977 E16.74155
G1 X115.563 Y60.355 E16.83082
G1 X116.236 Y60.521 E16.8654
G1 X117.161 Y60.765 E16.91313
G1 X117.957 Y60.992 E16.95443
G1 X118.63 Y61.196 E16.98951
G1 X119.566 Y61.498 E17.03858
G1 X120.347 Y61.768 E17.07981
G1 X121.017 Y62.011 E17.11536
G1 X121.947 Y62.369 E17.16508
G1 X122.609 Y62.638 E17.20073
G1 X123.537 Y63.036 E17.25111
G1 X124.313 Y63.388 E17.29362
G1 X124.968 Y63.698 E17.32977
G1 X125.747 Y64.084 E17.37315
G1 X126.527 Y64.49 E17.41702
G1 X127.402 Y64.967 E17.46673
G1 X128.04 Y65.33 E17.50336
G1 X128.936 Y65.863 E17.55537
G1 X129.659 Y66.316 E17.59793
G1 X130.403 Y66.799 E17.64219
G1 X131.151 Y67.307 E17.6873
G1 X131.858 Y67.809 E17.73056
G1 X132.457 Y68.249 E17.76764
G1 X133.273 Y68.873 E17.81889
G1 X133.854 Y69.335 E17.85592
G1 X134.548 Y69.909 E17.90085
G1 X135.33 Y70.583 E17.95236
G1 X135.885 Y71.081 E17.98956
G1 X136.634 Y71.777 E18.04057
G1 X137.171 Y72.296 E18.07783
G1 X137.811 Y72.94 E18.12313
G1 X138.516 Y73.678 E18.17405
G1 X139.115 Y74.331 E18.21826
G1 X139.707 Y75.002 E18.2629
G1 X140.286 Y75.685 E18.30757
G1 X140.757 Y76.262 E18.34473
G1 X141.396 Y77.075 E18.39632
G1 X141.844 Y77.67 E18.43348
G1 X142.444 Y78.498 E18.48449
G1 X142.941 Y79.215 E18.52802
G1 X143.353 Y79.831 E18.56499
G1 X143.909 Y80.699 E18.61642
G1 X144.294 Y81.327 E18.65317
G1 X144.739 Y82.084 E18.69698
G1 X145.233 Y82.961 E18.74719
G1 X145.647 Y83.733 E18.7909
G1 X146.045 Y84.512 E18.83454
G1 X146.416 Y85.272 E18.87673
G1 X146.723 Y85.927 E18.91282
G1 X147.13 Y86.852 E18.96324
G1 X147.41 Y87.515 E18.99915
G1 X147.784 Y88.449 E19.04934
G1 X148.036 Y89.118 E19.08501
G1 X148.32 Y89.911 E19.12703
G1 X148.588 Y90.702 E19.1687
G1 X148.878 Y91.619 E19.21668
G1 X149.079 Y92.291 E19.25167
G1 X149.343 Y93.244 E19.30101
G1 X149.516 Y93.918 E19.33573
G1 X149.736 Y94.851 E19.38355
G1 X149.909 Y95.644 E19.42404
G1 X150.044 Y96.315 E19.45819
G1 X150.191 Y97.119 E19.49897
G1 X150.343 Y98.046 E19.54583
G1 X150.44 Y98.712 E19.57941
G1 X150.542 Y99.503 E19.6192
G1 X150.63 Y100.292 E19.65881
G1 X150.715 Y101.199 E19.70426
G1 X150.765 Y101.854 E19.73703
G1 X150.82 Y102.816 E19.7851
G1 X150.864 Y104.108 E19.8496
G1 X150.866 Y105.721 E19.93007
G1 X150.839 Y106.777 E19.98277
G1 X150.797 Y107.637 E20.02573
G1 X150.749 Y108.362 E20.06198
G1 X150.664 Y109.374 E20.11264
G1 X150.587 Y110.109 E20.14951
G1 X150.463 Y111.121 E20.20038
G1 X150.337 Y111.997 E20.24453
G1 X150.19 Y112.895 E20.28993
G1 X150.053 Y113.639 E20.32767
G1 X149.844 Y114.67 E20.38016
G1 X149.64 Y115.57 E20.4262
G1 X149.455 Y116.318 E20.46464
G1 X149.223 Y117.193 E20.5098
G1 X148.966 Y118.089 E20.55631
G1 X148.695 Y118.969 E20.60224
