;FLAVOR:Marlin
;TIME:19445
;Filament used: 12.0908m
;Layer height: 0.2
;MINX:80.9
;MINY:85.363
;MINZ:0.36
;MAXX:145.845
;MAXY:136.037
;MAXZ:71.185
;Generated with Cura_SteamEngine 5.3.0
M82 ;absolute extrusion mode
;Profil Homepage: https://github.com/NilsRo/Cura_Anycubic_MegaS_Profile

;Slicer Information - (Support for OctoPrint Slicer Estimator)
;Slicer info:material_guid;0ff92885-617b-4144-a03c-9989872454bc
;Slicer info:material_id;generic_pla_175
;Slicer info:material_brand;Generic
;Slicer info:material_name;PLA
;Slicer info:filament_cost;[0.0]
;Slicer info:material_bed_temperature;50
;Slicer info:material_bed_temperature_layer_0;50
;Slicer info:material_print_temperature;190
;Slicer info:material_print_temperature_layer_0;195
;Slicer info:material_flow;100
;Slicer info:layer_height;0.2
;Slicer info:machine_nozzle_size;0.4
;Slicer info:wall_thickness;1.2000000000000002
;Slicer info:speed_print;50.0
;Slicer info:speed_topbottom;25.0
;Slicer info:travel_speed;100.0
;Slicer info:support;0
;Slicer info:retraction_speed;30
;Slicer info:retraction_amount;6
;Slicer info:layer_height;0.2
;Slicer info:infill_pattern;grid
;Slicer info:infill_sparse_density;20
;Slicer info:cool_fan_enabled;True
;Slicer info:cool_fan_speed;100
;Slicer info:sliced_at;Sun 16-04-2023 22:38:58
G21                                        ; metric values 
G90                                        ; absolute positioning 
M82                                        ; set extruder to absolute mode 
M900 K0                                    ; disable lin. adv. if not set in GCODE
M107                                       ; start with the fan off 
M140 S50   ; Start heating the bed 
G4 S60                                     ; wait 1 minute 
M104 S195 ; start heating the hot end 
M190 S50   ; wait for bed 
M109 S195 ; wait for hotend 
M300 S1000 P500                            ; BEEP heating done 
G28 X0 Y10 Z0                              ; move X/Y to min endstops 
M420 S1                                    ; Enable leveling 
M420 Z2.0                                  ; Set leveling fading height to 2 mm 
G0 Z0.15                                   ; lift nozzle a bit 
G92 E0                                     ; zero the extruded length 
G1 X50 E20 F500                            ; Extrude 20mm of filament in a 5cm line. 
G92 E0                                     ; zero the extruded length again 
G1 E-2 F500                                ; Retract a little 
G1 X50 F500                                ; wipe away from the filament line
G1 X100 F9000                              ; Quickly wipe away from the filament line
G92 E0
G92 E0
G1 F1800 E-6
;LAYER_COUNT:350
;LAYER:-6
M107
M205 X10 Y10
G0 F6000 X97.589 Y87.564 Z0.36
M205 X8 Y8
;TYPE:SUPPORT-INTERFACE
G1 F1800 E0
G1 F1125 X98.192 Y86.958 E0.10236
G1 X99.028 Y86.339 E0.22691
G1 X99.971 Y85.865 E0.35329
G1 X100.98 Y85.531 E0.48055
G1 X101.927 Y85.393 E0.59514
G1 X102.533 Y85.363 E0.66779
G1 X122.434 Y85.363 E3.05066
G1 X123.211 Y85.402 E3.14381
G1 X123.906 Y85.516 E3.22814
G1 X124.488 Y85.676 E3.30041
G1 X125.114 Y85.91 E3.38044
G1 X125.753 Y86.229 E3.46595
G1 X126.339 Y86.603 E3.54919
G1 X126.899 Y87.052 E3.63513
G1 X127.504 Y87.654 E3.73733
G1 X128.121 Y88.485 E3.86125
G1 X128.598 Y89.434 E3.98843
G1 X128.933 Y90.446 E4.11607
G1 X129.071 Y91.395 E4.2309
G1 X129.149 Y92.274 E4.33656
G1 X129.304 Y92.964 E4.42123
G1 X129.543 Y93.613 E4.50405
G1 X129.856 Y94.223 E4.58614
G1 X130.243 Y94.782 E4.66755
G1 X130.688 Y95.279 E4.74742
G1 X131.21 Y95.733 E4.83026
G1 X131.766 Y96.104 E4.91029
G1 X132.392 Y96.416 E4.99404
G1 X133.036 Y96.639 E5.07564
G1 X133.677 Y96.777 E5.15415
G1 X134.457 Y96.837 E5.24782
G1 X139.179 Y96.837 E5.81322
G1 X139.956 Y96.876 E5.90637
G1 X140.651 Y96.99 E5.9907
G1 X141.233 Y97.15 E6.06297
G1 X141.859 Y97.384 E6.14299
G1 X142.498 Y97.703 E6.22851
G1 X143.084 Y98.077 E6.31175
G1 X143.644 Y98.526 E6.39769
G1 X144.249 Y99.128 E6.49988
G1 X144.865 Y99.958 E6.62364
G1 X145.342 Y100.904 E6.7505
G1 X145.678 Y101.92 E6.87863
G1 X145.815 Y102.861 E6.99249
G1 X145.845 Y103.446 E7.06263
G1 X145.845 Y112.371 E8.13128
G1 X145.806 Y113.148 E8.22443
G1 X145.691 Y113.85 E8.30961
G1 X145.498 Y114.543 E8.39574
G1 X145.3 Y115.048 E8.46069
G1 X144.979 Y115.69 E8.54663
G1 X144.605 Y116.276 E8.62987
G1 X144.156 Y116.836 E8.71582
G1 X143.553 Y117.442 E8.81818
G1 X142.717 Y118.061 E8.94273
G1 X141.774 Y118.535 E9.0691
G1 X140.765 Y118.869 E9.19636
G1 X139.818 Y119.007 E9.31095
G1 X139.212 Y119.036 E9.3836
G1 X136.224 Y119.037 E9.74137
G1 X135.57 Y119.078 E9.81983
G1 X134.898 Y119.206 E9.90174
G1 X134.217 Y119.432 E9.98765
G1 X133.627 Y119.714 E10.06595
G1 X133.053 Y120.081 E10.14753
G1 X132.518 Y120.529 E10.23108
G1 X132.061 Y121.02 E10.3114
G1 X131.672 Y121.563 E10.39138
G1 X131.34 Y122.177 E10.47495
G1 X131.1 Y122.794 E10.55422
G1 X130.936 Y123.443 E10.63437
G1 X130.846 Y124.405 E10.75006
G1 X130.845 Y129.371 E11.34467
G1 X130.806 Y130.148 E11.43783
G1 X130.691 Y130.85 E11.523
G1 X130.498 Y131.543 E11.60914
G1 X130.3 Y132.048 E11.67409
G1 X129.979 Y132.69 E11.76003
G1 X129.605 Y133.276 E11.84327
G1 X129.156 Y133.836 E11.92921
G1 X128.553 Y134.442 E12.03157
G1 X127.717 Y135.061 E12.15613
G1 X126.774 Y135.535 E12.2825
G1 X125.765 Y135.869 E12.40976
G1 X124.818 Y136.007 E12.52435
G1 X124.212 Y136.036 E12.59699
G1 X104.311 Y136.037 E14.97987
G1 X103.534 Y135.998 E15.07302
G1 X102.839 Y135.884 E15.15735
G1 X102.257 Y135.724 E15.22962
G1 X101.631 Y135.49 E15.30964
G1 X100.988 Y135.169 E15.39569
G1 X100.302 Y134.73 E15.49321
G1 X99.674 Y134.188 E15.59254
G1 X99.155 Y133.629 E15.68387
G1 X98.621 Y132.909 E15.79121
G1 X98.152 Y131.976 E15.91624
G1 X97.964 Y131.445 E15.98369
G1 X97.781 Y130.737 E16.07125
G1 X97.674 Y130.001 E16.1603
G1 X97.596 Y129.126 E16.26548
G1 X97.441 Y128.436 E16.35016
G1 X97.202 Y127.786 E16.43308
G1 X96.889 Y127.177 E16.51507
G1 X96.502 Y126.618 E16.59648
G1 X96.057 Y126.121 E16.67636
G1 X95.535 Y125.667 E16.75919
G1 X94.979 Y125.296 E16.83922
G1 X94.353 Y124.984 E16.92297
G1 X93.709 Y124.761 E17.00458
G1 X93.068 Y124.623 E17.08309
G1 X92.288 Y124.563 E17.17676
G1 X87.566 Y124.563 E17.74215
G1 X86.789 Y124.524 E17.8353
G1 X86.094 Y124.41 E17.91963
G1 X85.512 Y124.25 E17.9919
G1 X84.886 Y124.016 E18.07193
G1 X84.243 Y123.695 E18.15798
G1 X83.557 Y123.256 E18.25549
G1 X82.929 Y122.714 E18.35482
G1 X82.41 Y122.155 E18.44616
G1 X81.876 Y121.435 E18.55349
G1 X81.407 Y120.502 E18.67852
G1 X81.219 Y119.971 E18.74597
G1 X81.036 Y119.263 E18.83353
G1 X80.93 Y118.533 E18.92185
G1 X80.901 Y117.954 E18.99127
G1 X80.9 Y109.029 E20.05992
G1 X80.939 Y108.252 E20.15307
G1 X81.054 Y107.55 E20.23824
G1 X81.247 Y106.857 E20.32438
G1 X81.445 Y106.352 E20.38933
G1 X81.766 Y105.71 E20.47527
G1 X82.14 Y105.124 E20.55851
G1 X82.589 Y104.564 E20.64445
G1 X83.192 Y103.958 E20.74682
G1 X84.028 Y103.339 E20.87137
G1 X84.971 Y102.865 E20.99774
G1 X85.98 Y102.531 E21.125
G1 X86.927 Y102.393 E21.23959
G1 X87.533 Y102.363 E21.31224
G1 X90.521 Y102.363 E21.67001
G1 X91.175 Y102.322 E21.74847
G1 X91.847 Y102.194 E21.83038
G1 X92.507 Y101.977 E21.91357
G1 X93.119 Y101.685 E21.99476
G1 X93.692 Y101.319 E22.07617
G1 X94.227 Y100.871 E22.15973
G1 X94.684 Y100.38 E22.24004
G1 X95.074 Y99.834 E22.32038
G1 X95.405 Y99.223 E22.40359
G1 X95.645 Y98.606 E22.48286
G1 X95.809 Y97.953 E22.56347
G1 X95.899 Y96.995 E22.67869
G1 X95.9 Y92.029 E23.2733
G1 X95.939 Y91.252 E23.36645
G1 X96.054 Y90.55 E23.45163
G1 X96.247 Y89.857 E23.53776
G1 X96.445 Y89.352 E23.60271
G1 X96.766 Y88.71 E23.68865
G1 X97.14 Y88.124 E23.77189
G1 X97.589 Y87.564 E23.85784
M205 X10 Y10
G0 F6000 X97.442 Y88.391
M205 X8 Y8
G1 F1125 X131.007 Y121.956 E29.5415
M205 X10 Y10
G1 F1800 E23.5415
G1 F480 Z0.435
G0 F6000 X131.91 Y120.597 Z0.435
M205 X8 Y8
G1 F480 Z0.36
G1 F1800 E29.5415
G1 F1125 X98.524 Y87.21 E35.19493
M205 X10 Y10
G1 F1800 E29.19493
G1 F480 Z0.435
G0 F6000 X99.917 Y86.34 Z0.435
M205 X8 Y8
G1 F480 Z0.36
G1 F1800 E35.19493
G1 F1125 X133.132 Y119.556 E40.81941
M205 X10 Y10
G1 F1800 E34.81941
G1 F480 Z0.435
G0 F6000 X134.691 Y118.852 Z0.435
M205 X8 Y8
G1 F480 Z0.36
G1 F1800 E40.81941
G1 F1125 X101.673 Y85.834 E46.41045
M205 X10 Y10
G1 F1800 E40.41045
G1 F480 Z0.435
G0 F6000 X103.864 Y85.762 Z0.435
M205 X8 Y8
G1 F480 Z0.36
G1 F1800 E46.41045
G1 F1125 X136.738 Y118.636 E51.9771
M205 X10 Y10
G1 F1800 E45.9771
G1 F480 Z0.435
G0 F6000 X139 Y118.635 Z0.435
M205 X8 Y8
G1 F480 Z0.36
G1 F1800 E51.9771
G1 F1125 X106.127 Y85.762 E57.54358
M205 X10 Y10
G1 F1800 E51.54358
G1 F480 Z0.435
G0 F6000 X108.39 Y85.762 Z0.435
M205 X8 Y8
G1 F480 Z0.36
G1 F1800 E57.54358
G1 F1125 X140.997 Y118.369 E63.06502
M205 X10 Y10
G1 F1800 E57.06502
G1 F480 Z0.435
G0 F6000 X142.564 Y117.674 Z0.435
M205 X8 Y8
G1 F480 Z0.36
G1 F1800 E63.06502
G1 F1125 X110.653 Y85.762 E68.46869
M205 X10 Y10
G1 F1800 E62.46869
G1 F480 Z0.435
G0 F6000 X112.915 Y85.762 Z0.435
M205 X8 Y8
G1 F480 Z0.36
G1 F1800 E68.46869
G1 F1125 X143.789 Y116.636 E73.69667
M205 X10 Y10
G1 F1800 E67.69667
G1 F480 Z0.435
G0 F6000 X144.722 Y115.307 Z0.435
M205 X8 Y8
G1 F480 Z0.36
G1 F1800 E73.69667
G1 F1125 X115.178 Y85.762 E78.69953
M205 X10 Y10
G1 F1800 E72.69953
G1 F480 Z0.435
G0 F6000 X117.441 Y85.762 Z0.435
M205 X8 Y8
G1 F480 Z0.36
G1 F1800 E78.69953
G1 F1125 X145.319 Y113.641 E83.42028
M205 X10 Y10
G1 F1800 E77.42028
G1 F480 Z0.435
G0 F6000 X145.444 Y111.502 Z0.435
M205 X8 Y8
G1 F480 Z0.36
G1 F1800 E83.42028
G1 F1125 X119.703 Y85.762 E87.779
M205 X10 Y10
G1 F1800 E81.779
G1 F480 Z0.435
G0 F6000 X121.966 Y85.762 Z0.435
M205 X8 Y8
G1 F480 Z0.36
G1 F1800 E87.779
G1 F1125 X128.812 Y92.608 E88.93825
M205 X10 Y10
G1 F1800 E82.93825
G1 F480 Z0.435
G0 F6000 X128.31 Y89.844 Z0.435
M205 X8 Y8
G1 F480 Z0.36
G1 F1800 E88.93825
G1 F1125 X124.619 Y86.152 E89.56334
M205 X10 Y10
G1 F1800 E83.56334
G1 F480 Z0.435
G0 F6000 X133.311 Y97.107 Z0.435
M205 X8 Y8
G1 F480 Z0.36
G1 F1800 E89.56334
G1 F1125 X145.444 Y109.24 E91.61786
M205 X10 Y10
G1 F1800 E85.61786
G1 F480 Z0.435
G0 F6000 X145.444 Y106.977 Z0.435
M205 X8 Y8
G1 F480 Z0.36
G1 F1800 E91.61786
G1 F1125 X135.703 Y97.237 E93.26725
M205 X10 Y10
G1 F1800 E87.26725
G1 F480 Z0.435
G0 F6000 X137.966 Y97.237 Z0.435
M205 X8 Y8
G1 F480 Z0.36
G1 F1800 E93.26725
G1 F1125 X145.444 Y104.714 E94.53343
M205 X10 Y10
G1 F1800 E88.53343
G1 F480 Z0.435
G0 F6000 X145.334 Y102.342 Z0.435
M205 X8 Y8
G1 F480 Z0.36
G1 F1800 E94.53343
G1 F1125 X140.335 Y97.343 E95.37993
M205 X10 Y10
G1 F1800 E89.37993
G1 F480 Z0.435
G0 F6000 X130.506 Y123.718 Z0.435
M205 X8 Y8
G1 F480 Z0.36
G1 F1800 E95.37993
G1 F1125 X96.667 Y89.878 E101.11007
M205 X10 Y10
G1 F1800 E95.11007
G1 F480 Z0.435
G0 F6000 X96.311 Y91.785 Z0.435
M205 X8 Y8
G1 F480 Z0.36
G1 F1800 E101.11007
G1 F1125 X130.446 Y125.92 E106.89025
M205 X10 Y10
G1 F1800 E100.89025
G1 F480 Z0.435
G0 F6000 X130.444 Y128.182 Z0.435
M205 X8 Y8
G1 F480 Z0.36
G1 F1800 E106.89025
G1 F1125 X96.297 Y94.034 E112.67255
M205 X10 Y10
G1 F1800 E106.67255
G1 F480 Z0.435
G0 F6000 X96.296 Y96.296 Z0.435
M205 X8 Y8
G1 F480 Z0.36
G1 F1800 E112.67255
G1 F1125 X130.365 Y130.365 E118.44156
M205 X10 Y10
G1 F1800 E112.44156
G1 F480 Z0.435
G0 F6000 X129.829 Y132.092 Z0.435
M205 X8 Y8
G1 F480 Z0.36
G1 F1800 E118.44156
G1 F1125 X96.113 Y98.376 E124.15079
M205 X10 Y10
G1 F1800 E118.15079
G1 F480 Z0.435
G0 F6000 X95.45 Y99.976 Z0.435
M205 X8 Y8
G1 F480 Z0.36
G1 F1800 E124.15079
G1 F1125 X128.94 Y133.465 E129.82166
M205 X10 Y10
G1 F1800 E123.82166
G1 F480 Z0.435
G0 F6000 X127.749 Y134.537 Z0.435
M205 X8 Y8
G1 F480 Z0.36
G1 F1800 E129.82166
G1 F1125 X94.431 Y101.219 E135.4635
M205 X10 Y10
G1 F1800 E129.4635
G1 F480 Z0.435
G0 F6000 X93.091 Y102.142 Z0.435
M205 X8 Y8
G1 F480 Z0.36
G1 F1800 E135.4635
G1 F1125 X126.238 Y135.289 E141.07638
M205 X10 Y10
G1 F1800 E135.07638
G1 F480 Z0.435
G0 F6000 X124.316 Y135.63 Z0.435
M205 X8 Y8
G1 F480 Z0.36
G1 F1800 E141.07638
G1 F1125 X91.375 Y102.689 E146.65437
M205 X10 Y10
G1 F1800 E140.65437
G1 F480 Z0.435
G0 F6000 X89.185 Y102.762 Z0.435
M205 X8 Y8
G1 F480 Z0.36
G1 F1800 E146.65437
G1 F1125 X122.059 Y135.635 E152.22094
M205 X10 Y10
G1 F1800 E146.22094
G1 F480 Z0.435
G0 F6000 X119.796 Y135.635 Z0.435
M205 X8 Y8
G1 F480 Z0.36
G1 F1800 E152.22094
G1 F1125 X86.954 Y102.793 E157.78217
M205 X10 Y10
G1 F1800 E151.78217
G1 F480 Z0.435
G0 F6000 X85.132 Y103.234 Z0.435
M205 X8 Y8
G1 F480 Z0.36
G1 F1800 E157.78217
G1 F1125 X117.533 Y135.635 E163.26873
M205 X10 Y10
G1 F1800 E157.26873
G1 F480 Z0.435
G0 F6000 X115.271 Y135.635 Z0.435
M205 X8 Y8
G1 F480 Z0.36
G1 F1800 E163.26873
G1 F1125 X83.708 Y104.073 E168.6133
M205 X10 Y10
G1 F1800 E162.6133
G1 F480 Z0.435
G0 F6000 X82.583 Y105.21 Z0.435
M205 X8 Y8
G1 F480 Z0.36
G1 F1800 E168.6133
G1 F1125 X113.008 Y135.635 E173.76526
M205 X10 Y10
G1 F1800 E167.76526
G1 F480 Z0.435
G0 F6000 X110.745 Y135.635 Z0.435
M205 X8 Y8
G1 F480 Z0.36
G1 F1800 E173.76526
G1 F1125 X81.757 Y106.647 E178.67388
M205 X10 Y10
G1 F1800 E172.67388
G1 F480 Z0.435
G0 F6000 X81.327 Y108.48 Z0.435
M205 X8 Y8
G1 F480 Z0.36
G1 F1800 E178.67388
G1 F1125 X108.482 Y135.635 E183.27212
M205 X10 Y10
G1 F1800 E177.27212
G1 F480 Z0.435
G0 F6000 X106.22 Y135.635 Z0.435
M205 X8 Y8
G1 F480 Z0.36
G1 F1800 E183.27212
G1 F1125 X81.299 Y110.715 E187.49198
M205 X10 Y10
G1 F1800 E181.49198
G1 F480 Z0.435
G0 F6000 X81.299 Y112.977 Z0.435
M205 X8 Y8
G1 F480 Z0.36
G1 F1800 E187.49198
G1 F1125 X92.498 Y124.176 E189.38834
M205 X10 Y10
G1 F1800 E183.38834
G1 F480 Z0.435
G0 F6000 X90.221 Y124.163 Z0.435
M205 X8 Y8
G1 F480 Z0.36
G1 F1800 E189.38834
G1 F1125 X81.3 Y115.241 E190.89905
M205 X10 Y10
G1 F1800 E184.89905
G1 F480 Z0.435
G0 F6000 X81.3 Y117.504 Z0.435
M205 X8 Y8
G1 F480 Z0.36
G1 F1800 E190.89905
G1 F1125 X87.958 Y124.162 E192.02646
M205 X10 Y10
G1 F1800 E186.02646
G1 F480 Z0.435
G0 F6000 X85.262 Y123.728 Z0.435
M205 X8 Y8
G1 F480 Z0.36
G1 F1800 E192.02646
G1 F1125 X81.719 Y120.186 E192.62633
M104 S190
M205 X10 Y10
G1 F1800 E186.62633
G1 F480 Z0.435
G0 F6000 X98.05 Y129.729 Z0.435
M205 X8 Y8
G1 F480 Z0.36
G1 F1800 E192.62633
G1 F1125 X103.938 Y135.616 E193.62327
M205 X10 Y10
G1 F1800 E187.62327
G1 F480 Z0.435
G0 F6000 X99.992 Y133.933 Z0.435
M205 X8 Y8
G1 F480 Z0.36
G1 F1800 E193.62327
G1 F1125 X99.878 Y133.819 E193.64258
M205 X10 Y10
G1 F1800 E187.64258
G1 F480 Z0.435
G0 F6000 X130.055 Y131.574 Z0.435
;TIME_ELAPSED:114.588117
;LAYER:-5
G0 X130.055 Y131.574 Z0.735
M205 X8 Y8
;TYPE:SUPPORT
G1 F480 Z0.66
G1 F1800 E193.64258
G1 F1125 X129.831 Y132.113 E193.70082
G1 X129.416 Y132.873 E193.78722
G1 X128.848 Y133.579 E193.87764
G1 X128.4 Y134.029 E193.94099
G1 X127.868 Y134.459 E194.00925
G1 X127.33 Y134.806 E194.07313
G1 X126.738 Y135.106 E194.13935
G1 X126.393 Y135.236 E194.17614
G1 X130.066 Y131.563 E194.69444
G1 X130.272 Y130.862 E194.76734
G1 X130.407 Y130.109 E194.84367
G1 X130.422 Y129.792 E194.87534
G1 X124.579 Y135.636 E195.69992
G1 X123.164 Y135.636 E195.84111
G1 X130.444 Y128.356 E196.8684
G1 X130.444 Y126.942 E197.00949
G1 X121.75 Y135.636 E198.2363
G1 X120.336 Y135.636 E198.37739
G1 X130.444 Y125.528 E199.80374
G1 X130.444 Y124.113 E199.94493
G1 X118.921 Y135.636 E201.57095
G1 X117.507 Y135.636 E201.71204
G1 X130.874 Y122.27 E203.5982
G1 X130.975 Y122.007 E203.62631
G1 X131.324 Y121.362 E203.69948
G1 X131.753 Y120.764 E203.77292
G1 X132.251 Y120.227 E203.84599
G1 X132.814 Y119.758 E203.91911
G1 X133.432 Y119.362 E203.99235
G1 X134.095 Y119.049 E204.0655
G1 X145.444 Y107.699 E205.66704
G1 X145.444 Y106.285 E205.80813
G1 X116.093 Y135.636 E209.94987
G1 X114.679 Y135.636 E210.09096
G1 X145.444 Y104.871 E214.43224
G1 X145.444 Y103.456 E214.57342
G1 X113.265 Y135.636 E219.1143
G1 X111.85 Y135.636 E219.25549
G1 X145.307 Y102.179 E223.97663
G1 X145.147 Y101.563 E224.04014
G1 X144.972 Y101.1 E224.08953
G1 X110.436 Y135.636 E228.96293
G1 X109.022 Y135.636 E229.10402
G1 X144.493 Y100.165 E234.10936
G1 X144.145 Y99.624 E234.17354
G1 X143.891 Y99.352 E234.21068
G1 X107.608 Y135.636 E239.33067
G1 X106.194 Y135.636 E239.47176
G1 X143.185 Y98.644 E244.69166
G1 X142.351 Y98.064 E244.79302
G1 X104.758 Y135.657 E250.0978
G1 X103.41 Y135.591 E250.23247
