;FLAVOR:Marlin
;TIME:8709
;Filament used: 3.9261m
;Layer height: 0.1
;MINX:55.405
;MINY:34.79
;MINZ:0.36
;MAXX:154.589
;MAXY:143.716
;MAXZ:5.935
;POSTPROCESSED
;Generated with Cura_SteamEngine 5.3.1
M82 ;absolute extrusion mode
;Profil Homepage: https://github.com/NilsRo/Cura_Anycubic_MegaS_Profile

;Slicer Information - (Support for OctoPrint Slicer Estimator)
;Slicer info:material_guid;0ff92885-617b-4144-a03c-9989872454bc
;Slicer info:material_id;generic_pla_175
;Slicer info:material_brand;Generic
;Slicer info:material_name;PLA
;Slicer info:filament_cost;[0.0]
;Slicer info:material_bed_temperature;60
;Slicer info:material_bed_temperature_layer_0;60
;Slicer info:material_print_temperature;200
;Slicer info:material_print_temperature_layer_0;205
;Slicer info:material_flow;100
;Slicer info:layer_height;0.1
;Slicer info:machine_nozzle_size;0.4
;Slicer info:wall_thickness;1.2000000000000002
;Slicer info:speed_print;50.0
;Slicer info:speed_topbottom;25.0
;Slicer info:travel_speed;100.0
;Slicer info:support;0
;Slicer info:retraction_speed;30
;Slicer info:retraction_amount;6
;Slicer info:layer_height;0.1
;Slicer info:infill_pattern;grid
;Slicer info:infill_sparse_density;25
;Slicer info:cool_fan_enabled;True
;Slicer info:cool_fan_speed;100
;Slicer info:sliced_at;Tue 20-06-2023 21:08:05
G21                                        ; metric values 
G90                                        ; absolute positioning 
M82                                        ; set extruder to absolute mode 
M900 K0                                    ; disable lin. adv. if not set in GCODE
M107                                       ; start with the fan off 
M140 S60   ; Start heating the bed 
G4 S60                                     ; wait 1 minute 
M104 S205 ; start heating the hot end 
M190 S60   ; wait for bed 
M109 S205 ; wait for hotend 
M300 S1000 P500                            ; BEEP heating done 
G28 X0 Y10 Z0                              ; move X/Y to min endstops 
M420 S1                                    ; Enable leveling 
M420 Z2.0                                  ; Set leveling fading height to 2 mm 
G0 Z0.15                                   ; lift nozzle a bit 
G92 E0                                     ; zero the extruded length 
G1 X50 E20 F500                            ; Extrude 20mm of filament in a 5cm line. 
G92 E0                                     ; zero the extruded length again 
G1 E-2 F500                                ; Retract a little 
G1 X50 F500                                ; wipe away from the filament line
G1 X100 F9000                              ; Quickly wipe away from the filament line
G92 E0
G92 E0
G1 F1800 E-6
;LAYER_COUNT:48
;LAYER:-7
M107
M205 X10 Y10
G0 F6000 X77.274 Y42.18 Z0.36
M205 X8 Y8
;TYPE:SUPPORT-INTERFACE
G1 F1800 E0
G1 F1125 X77.734 Y41.425 E0.10586
G1 X78.403 Y40.478 E0.24469
G1 X79.122 Y39.616 E0.37909
G1 X79.769 Y38.945 E0.4907
G1 X80.588 Y38.206 E0.62279
G1 X81.399 Y37.574 E0.7459
G1 X82.313 Y36.955 E0.87807
G1 X83.356 Y36.375 E1.02097
G1 X84.153 Y35.998 E1.12654
G1 X85.264 Y35.567 E1.26922
G1 X86.259 Y35.27 E1.39355
G1 X87.24 Y35.05 E1.51393
G1 X88.374 Y34.878 E1.65127
G1 X89.62 Y34.79 E1.80083
G1 X119.975 Y34.79 E5.43543
G1 X121.105 Y34.837 E5.57085
G1 X122.132 Y34.952 E5.69459
G1 X123.062 Y35.125 E5.80785
G1 X124.166 Y35.408 E5.94432
G1 X125.179 Y35.752 E6.07241
G1 X126.177 Y36.176 E6.20225
G1 X127.178 Y36.698 E6.33742
G1 X127.931 Y37.156 E6.44295
G1 X128.878 Y37.825 E6.58178
G1 X129.74 Y38.544 E6.71619
G1 X130.411 Y39.191 E6.82779
G1 X131.15 Y40.01 E6.95988
G1 X131.782 Y40.821 E7.08299
G1 X132.401 Y41.735 E7.21516
G1 X132.981 Y42.778 E7.35806
G1 X133.358 Y43.575 E7.46363
G1 X133.789 Y44.686 E7.60631
G1 X134.062 Y45.598 E7.7203
G1 X134.306 Y46.66 E7.85077
G1 X134.478 Y47.791 E7.98775
G1 X134.566 Y49.04 E8.13768
G1 X134.567 Y79.379 E11.77036
G1 X134.551 Y79.814 E11.82248
G1 X134.569 Y80.496 E11.90417
G1 X134.681 Y81.197 E11.98917
G1 X134.997 Y82.184 E12.11326
G1 X135.432 Y83.045 E12.22876
G1 X135.425 Y83.072 E12.2321
G1 X136.18 Y84.377 E12.41262
G1 X136.45 Y84.895 E12.48257
G1 X136.935 Y85.911 E12.61737
G1 X137.319 Y86.894 E12.74373
G1 X137.702 Y88.134 E12.89913
G1 X138.012 Y89.439 E13.05973
G1 X138.269 Y91.282 E13.28254
G1 X138.339 Y92.663 E13.44811
G1 X138.314 Y93.725 E13.5753
G1 X138.203 Y94.846 E13.71019
G1 X138.128 Y95.421 E13.77962
G1 X137.935 Y96.513 E13.9124
G1 X137.632 Y97.722 E14.06163
G1 X137.494 Y98.512 E14.15766
G1 X137.401 Y98.967 E14.21327
G1 X137.308 Y99.613 E14.29141
G1 X137.295 Y100.333 E14.37764
G1 X137.369 Y100.995 E14.4574
G1 X137.527 Y101.649 E14.53796
G1 X137.773 Y102.299 E14.62117
G1 X138.095 Y102.901 E14.70292
G1 X138.487 Y103.454 E14.78408
G1 X138.95 Y103.958 E14.86603
G1 X139.47 Y104.397 E14.94751
G1 X140.085 Y104.792 E15.03503
G1 X140.922 Y105.166 E15.1448
G1 X141.604 Y105.396 E15.23098
G1 X142.603 Y105.824 E15.36111
G1 X143.836 Y106.293 E15.51906
G1 X144.818 Y106.743 E15.6484
G1 X145.205 Y106.944 E15.70062
G1 X146.101 Y107.388 E15.82035
G1 X147.014 Y107.923 E15.94706
G1 X147.541 Y108.274 E16.02287
G1 X147.976 Y108.579 E16.08649
G1 X148.795 Y109.197 E16.20934
G1 X149.535 Y109.846 E16.32719
G1 X150.494 Y110.811 E16.49009
G1 X151.317 Y111.773 E16.64168
G1 X151.942 Y112.62 E16.76771
G1 X152.525 Y113.548 E16.89894
G1 X153.053 Y114.555 E17.03508
G1 X153.504 Y115.574 E17.16851
G1 X153.911 Y116.71 E17.313
G1 X154.209 Y117.804 E17.44876
G1 X154.389 Y118.693 E17.55737
G1 X154.538 Y119.845 E17.69645
G1 X154.589 Y120.814 E17.81264
G1 X154.573 Y121.966 E17.95059
G1 X154.465 Y123.067 E18.08305
G1 X154.296 Y124.075 E18.20543
G1 X154.006 Y125.24 E18.34918
G1 X153.655 Y126.318 E18.48492
G1 X153.22 Y127.384 E18.62278
G1 X152.772 Y128.279 E18.74262
G1 X152.192 Y129.258 E18.87887
G1 X151.525 Y130.197 E19.01678
G1 X150.906 Y130.954 E19.13387
G1 X150.171 Y131.731 E19.26193
G1 X149.386 Y132.449 E19.38931
G1 X148.534 Y133.118 E19.51902
G1 X147.594 Y133.745 E19.65431
G1 X146.798 Y134.203 E19.76427
G1 X146.269 Y134.483 E19.83594
G1 X145.457 Y134.877 E19.94401
G1 X144.394 Y135.309 E20.0814
G1 X143.338 Y135.64 E20.2139
G1 X142.213 Y135.901 E20.35218
G1 X141.271 Y136.048 E20.46634
G1 X140.255 Y136.139 E20.58848
G1 X139.364 Y136.162 E20.6952
G1 X138.231 Y136.156 E20.83086
G1 X137.207 Y136.114 E20.95358
G1 X135.874 Y135.95 E21.11439
G1 X133.388 Y135.528 E21.41631
G1 X132.708 Y135.457 E21.49818
G1 X132.03 Y135.47 E21.57937
G1 X131.368 Y135.567 E21.65948
G1 X130.685 Y135.757 E21.74437
G1 X130.068 Y136.019 E21.82463
G1 X129.474 Y136.364 E21.90688
G1 X128.934 Y136.775 E21.98814
G1 X128.448 Y137.257 E22.07009
G1 X128.119 Y137.663 E22.13267
G1 X127.779 Y138.119 E22.20077
G1 X127.198 Y138.804 E22.30832
G1 X126.4 Y139.626 E22.44549
G1 X125.542 Y140.375 E22.58187
G1 X124.967 Y140.822 E22.66907
G1 X124.111 Y141.41 E22.79342
G1 X123.186 Y141.957 E22.92209
G1 X122.236 Y142.429 E23.04911
G1 X121.282 Y142.82 E23.17256
G1 X120.188 Y143.18 E23.31046
G1 X119.034 Y143.45 E23.45237
G1 X118.11 Y143.599 E23.56443
G1 X116.99 Y143.705 E23.69914
G1 X115.85 Y143.716 E23.83564
G1 X114.951 Y143.665 E23.94346
G1 X113.872 Y143.534 E24.0736
G1 X112.738 Y143.301 E24.21222
G1 X111.751 Y143.022 E24.33503
G1 X111.227 Y142.828 E24.40193
G1 X110.56 Y142.633 E24.48514
G1 X109.531 Y142.452 E24.61024
G1 X108.858 Y142.371 E24.69141
G1 X108.01 Y142.377 E24.79295
G1 X105.712 Y142.766 E25.07201
G1 X104.568 Y142.913 E25.21012
G1 X104.003 Y142.963 E25.27803
G1 X103.436 Y143.001 E25.34608
G1 X102.341 Y143.049 E25.47732
G1 X100.832 Y143.064 E25.65801
G1 X99.673 Y143.045 E25.7968
G1 X99.124 Y143.025 E25.86258
G1 X98.297 Y142.979 E25.96175
G1 X97.123 Y142.871 E26.10292
G1 X95.954 Y142.668 E26.24498
G1 X94.798 Y142.453 E26.38577
G1 X94.062 Y142.305 E26.47566
G1 X92.729 Y141.974 E26.64012
G1 X91.598 Y141.658 E26.78073
G1 X90.197 Y141.197 E26.95733
G1 X89.263 Y140.838 E27.07714
G1 X88.213 Y140.39 E27.21383
G1 X87.369 Y139.996 E27.32535
G1 X86.431 Y139.518 E27.45141
G1 X85.528 Y139.021 E27.57482
G1 X84.919 Y138.726 E27.65585
G1 X84.274 Y138.51 E27.73729
G1 X83.601 Y138.369 E27.81963
G1 X82.559 Y138.129 E27.94766
G1 X81.612 Y137.842 E28.06614
G1 X80.625 Y137.462 E28.19278
G1 X79.656 Y137.004 E28.32111
G1 X78.669 Y136.443 E28.45705
G1 X77.84 Y135.891 E28.5763
G1 X76.957 Y135.205 E28.71018
G1 X76.209 Y134.53 E28.83082
G1 X75.515 Y133.804 E28.95108
G1 X74.79 Y132.94 E29.08613
G1 X74.148 Y132.037 E29.21879
G1 X73.664 Y131.242 E29.33024
G1 X73.13 Y130.21 E29.46937
G1 X72.78 Y129.625 E29.55099
G1 X72.38 Y129.111 E29.62898
G1 X71.897 Y128.626 E29.71093
G1 X71.302 Y128.17 E29.80069
G1 X70.55 Y127.677 E29.90836
G1 X69.25 Y126.718 E30.10179
G1 X68.437 Y126.043 E30.22831
G1 X67.935 Y125.571 E30.31082
G1 X67.309 Y124.951 E30.41631
G1 X66.719 Y124.346 E30.5175
G1 X65.408 Y122.804 E30.75984
G1 X64.846 Y122.057 E30.87177
G1 X64.069 Y120.959 E31.03283
G1 X63.466 Y120.035 E31.16494
G1 X62.972 Y119.219 E31.27916
G1 X62.411 Y118.218 E31.41655
G1 X61.936 Y117.179 E31.55334
G1 X61.588 Y116.263 E31.67067
G1 X61.307 Y115.363 E31.78356
G1 X60.912 Y113.76 E31.98124
G1 X60.619 Y113.04 E32.07432
G1 X60.281 Y112.442 E32.15656
G1 X59.756 Y111.767 E32.25896
G1 X58.899 Y110.781 E32.41538
G1 X58.901 Y110.764 E32.41743
G1 X58.183 Y109.776 E32.56367
G1 X57.631 Y108.879 E32.68978
G1 X57.181 Y108.012 E32.80674
G1 X56.751 Y107.028 E32.93532
G1 X56.376 Y105.97 E33.06972
G1 X56.096 Y104.91 E33.201
G1 X55.913 Y103.935 E33.31978
G1 X55.779 Y102.824 E33.45377
G1 X55.734 Y101.747 E33.58284
G1 X55.768 Y100.689 E33.70958
G1 X55.883 Y99.61 E33.83951
G1 X55.937 Y99.325 E33.87424
G1 X56.019 Y98.617 E33.95958
G1 X56.009 Y97.906 E34.04472
G1 X55.896 Y97.163 E34.13471
G1 X55.646 Y96.031 E34.27352
G1 X55.505 Y95.085 E34.38804
G1 X55.414 Y93.916 E34.52844
G1 X55.405 Y93.153 E34.6198
G1 X55.439 Y92.129 E34.74248
G1 X55.56 Y91.011 E34.87713
G1 X55.743 Y90.005 E34.99956
G1 X56.005 Y88.986 E35.12554
G1 X56.379 Y87.891 E35.26409
G1 X56.743 Y87.031 E35.3759
G1 X57.239 Y86.045 E35.50806
G1 X58.1 Y84.676 E35.7017
G1 X58.78 Y83.78 E35.83638
G1 X59.436 Y83.036 E35.95515
G1 X60.26 Y82.219 E36.09409
G1 X61.132 Y81.49 E36.23018
G1 X61.921 Y80.917 E36.34694
G1 X62.825 Y80.355 E36.47439
G1 X63.87 Y79.815 E36.61524
G1 X64.755 Y79.43 E36.7308
G1 X65.769 Y79.076 E36.85939
G1 X66.867 Y78.786 E36.99537
G1 X67.735 Y78.617 E37.10126
G1 X68.9 Y78.472 E37.24183
G1 X70.023 Y78.427 E37.3764
G1 X70.695 Y78.378 E37.45707
G1 X71.355 Y78.248 E37.53762
G1 X72.008 Y78.028 E37.62012
G1 X72.633 Y77.724 E37.70334
G1 X73.173 Y77.371 E37.78059
G1 X73.7 Y76.928 E37.86302
G1 X74.19 Y76.392 E37.94998
G1 X74.564 Y75.86 E38.02784
G1 X74.885 Y75.259 E38.10943
G1 X75.132 Y74.604 E38.19325
G1 X75.292 Y73.931 E38.27607
G1 X75.366 Y73.057 E38.3811
G1 X75.368 Y49.4 E41.2137
G1 X75.415 Y48.251 E41.3514
G1 X75.53 Y47.224 E41.47513
G1 X75.703 Y46.294 E41.5884
G1 X75.964 Y45.273 E41.71458
G1 X76.328 Y44.182 E41.85229
G1 X76.754 Y43.18 E41.98266
G1 X77.274 Y42.18 E42.11762
M205 X10 Y10
G0 F6000 X77.984 Y41.78
M205 X8 Y8
G1 F1125 X136.939 Y100.735 E52.10064
M205 X10 Y10
G1 F1800 E46.10064
G1 F480 Z0.435
G0 F6000 X137.066 Y98.6 Z0.435
M205 X8 Y8
G1 F480 Z0.36
G1 F1800 E52.10064
G1 F1125 X78.932 Y40.465 E61.94473
M205 X10 Y10
G1 F1800 E55.94473
G1 F480 Z0.435
G0 F6000 X80.004 Y39.275 Z0.435
M205 X8 Y8
G1 F480 Z0.36
G1 F1800 E61.94473
G1 F1125 X137.466 Y96.737 E71.67494
M205 X10 Y10
G1 F1800 E65.67494
G1 F480 Z0.435
G0 F6000 X137.803 Y94.811 Z0.435
M205 X8 Y8
G1 F480 Z0.36
G1 F1800 E71.67494
G1 F1125 X81.215 Y38.223 E81.25716
M205 X10 Y10
G1 F1800 E75.25716
G1 F480 Z0.435
G0 F6000 X82.54 Y37.285 Z0.435
M205 X8 Y8
G1 F480 Z0.36
G1 F1800 E81.25716
G1 F1125 X137.938 Y92.683 E90.63786
M205 X10 Y10
G1 F1800 E84.63786
G1 F480 Z0.435
G0 F6000 X137.712 Y90.195 Z0.435
M205 X8 Y8
G1 F480 Z0.36
G1 F1800 E90.63786
G1 F1125 X84.02 Y36.502 E99.72977
M205 X10 Y10
G1 F1800 E93.72977
G1 F480 Z0.435
G0 F6000 X85.649 Y35.869 Z0.435
M205 X8 Y8
G1 F480 Z0.36
G1 F1800 E99.72977
G1 F1125 X137 Y87.22 E108.42519
M205 X10 Y10
G1 F1800 E102.42519
G1 F480 Z0.435
G0 F6000 X134.876 Y82.833 Z0.435
M205 X8 Y8
G1 F480 Z0.36
G1 F1800 E108.42519
G1 F1125 X87.463 Y35.42 E116.45377
M205 X10 Y10
G1 F1800 E110.45377
G1 F480 Z0.435
G0 F6000 X89.505 Y35.199 Z0.435
M205 X8 Y8
G1 F480 Z0.36
G1 F1800 E116.45377
G1 F1125 X134.151 Y79.845 E124.01381
M205 X10 Y10
G1 F1800 E118.01381
G1 F480 Z0.435
G0 F6000 X134.165 Y77.597 Z0.435
M205 X8 Y8
G1 F480 Z0.36
G1 F1800 E124.01381
G1 F1125 X91.759 Y35.19 E131.19463
M205 X10 Y10
G1 F1800 E125.19463
G1 F480 Z0.435
G0 F6000 X94.021 Y35.19 Z0.435
M205 X8 Y8
G1 F480 Z0.36
G1 F1800 E131.19463
G1 F1125 X134.165 Y75.334 E137.99233
M205 X10 Y10
G1 F1800 E131.99233
G1 F480 Z0.435
G0 F6000 X134.165 Y73.071 Z0.435
M205 X8 Y8
G1 F480 Z0.36
G1 F1800 E137.99233
G1 F1125 X96.284 Y35.19 E144.40684
M205 X10 Y10
G1 F1800 E138.40684
G1 F480 Z0.435
G0 F6000 X98.547 Y35.19 Z0.435
M205 X8 Y8
G1 F480 Z0.36
G1 F1800 E144.40684
G1 F1125 X134.165 Y70.808 E150.43814
M205 X10 Y10
G1 F1800 E144.43814
G1 F480 Z0.435
G0 F6000 X134.165 Y68.546 Z0.435
M205 X8 Y8
G1 F480 Z0.36
G1 F1800 E150.43814
G1 F1125 X100.81 Y35.19 E156.08632
M205 X10 Y10
G1 F1800 E150.08632
G1 F480 Z0.435
G0 F6000 X103.072 Y35.19 Z0.435
M205 X8 Y8
G1 F480 Z0.36
G1 F1800 E156.08632
G1 F1125 X134.165 Y66.283 E161.35139
M205 X10 Y10
G1 F1800 E155.35139
G1 F480 Z0.435
G0 F6000 X134.165 Y64.02 Z0.435
M205 X8 Y8
G1 F480 Z0.36
G1 F1800 E161.35139
G1 F1125 X105.335 Y35.19 E166.23326
M205 X10 Y10
G1 F1800 E160.23326
G1 F480 Z0.435
G0 F6000 X107.598 Y35.19 Z0.435
M205 X8 Y8
G1 F480 Z0.36
G1 F1800 E166.23326
G1 F1125 X134.165 Y61.757 E170.73193
M205 X10 Y10
G1 F1800 E164.73193
G1 F480 Z0.435
G0 F6000 X134.165 Y59.495 Z0.435
M205 X8 Y8
G1 F480 Z0.36
G1 F1800 E170.73193
G1 F1125 X109.861 Y35.19 E174.84748
M205 X10 Y10
G1 F1800 E168.84748
G1 F480 Z0.435
G0 F6000 X112.123 Y35.19 Z0.435
M205 X8 Y8
G1 F480 Z0.36
G1 F1800 E174.84748
G1 F1125 X134.165 Y57.232 E178.57992
M205 X10 Y10
G1 F1800 E172.57992
G1 F480 Z0.435
G0 F6000 X134.165 Y54.969 Z0.435
M205 X8 Y8
G1 F480 Z0.36
G1 F1800 E178.57992
G1 F1125 X114.386 Y35.19 E181.92916
M205 X10 Y10
G1 F1800 E175.92916
G1 F480 Z0.435
G0 F6000 X116.649 Y35.19 Z0.435
M205 X8 Y8
G1 F480 Z0.36
G1 F1800 E181.92916
G1 F1125 X134.165 Y52.707 E184.89528
M205 X10 Y10
G1 F1800 E178.89528
G1 F480 Z0.435
G0 F6000 X134.165 Y50.444 Z0.435
M205 X8 Y8
G1 F480 Z0.36
G1 F1800 E184.89528
G1 F1125 X118.912 Y35.19 E187.4782
M205 X10 Y10
G1 F1800 E181.4782
G1 F480 Z0.435
G0 F6000 X121.239 Y35.254 Z0.435
M205 X8 Y8
G1 F480 Z0.36
G1 F1800 E187.4782
G1 F1125 X134.099 Y48.115 E189.65591
M205 X10 Y10
G1 F1800 E183.65591
G1 F480 Z0.435
G0 F6000 X133.557 Y45.31 Z0.435
M205 X8 Y8
G1 F480 Z0.36
G1 F1800 E189.65591
G1 F1125 X124.034 Y35.787 E191.26846
M205 X10 Y10
G1 F1800 E185.26846
G1 F480 Z0.435
G0 F6000 X128.745 Y38.235 Z0.435
M205 X8 Y8
G1 F480 Z0.36
G1 F1800 E191.26846
G1 F1125 X131.072 Y40.562 E191.6625
M205 X10 Y10
G1 F1800 E185.6625
G1 F480 Z0.435
G0 F6000 X77.175 Y43.234 Z0.435
M205 X8 Y8
G1 F480 Z0.36
G1 F1800 E191.6625
G1 F1125 X154.157 Y120.215 E204.69801
M205 X10 Y10
G1 F1800 E198.69801
G1 F480 Z0.435
G0 F6000 X154.123 Y122.445 Z0.435
M205 X8 Y8
G1 F480 Z0.36
G1 F1800 E204.69801
G1 F1125 X76.525 Y44.847 E217.83791
M205 X10 Y10
G1 F1800 E211.83791
G1 F480 Z0.435
G0 F6000 X76.045 Y46.63 Z0.435
M205 X8 Y8
G1 F480 Z0.36
G1 F1800 E217.83791
G1 F1125 X153.804 Y124.389 E231.00507
M205 X10 Y10
G1 F1800 E225.00507
G1 F480 Z0.435
G0 F6000 X153.292 Y126.139 Z0.435
M205 X8 Y8
G1 F480 Z0.36
G1 F1800 E231.00507
G1 F1125 X75.798 Y48.645 E244.12736
M205 X10 Y10
G1 F1800 E238.12736
G1 F480 Z0.435
G0 F6000 X75.766 Y50.876 Z0.435
M205 X8 Y8
G1 F480 Z0.36
G1 F1800 E244.12736
G1 F1125 X152.606 Y127.716 E257.1389
M205 X10 Y10
G1 F1800 E251.1389
G1 F480 Z0.435
G0 F6000 X151.777 Y129.15 Z0.435
M205 X8 Y8
G1 F480 Z0.36
G1 F1800 E257.1389
G1 F1125 X75.766 Y53.139 E270.01007
M205 X10 Y10
G1 F1800 E264.01007
G1 F480 Z0.435
G0 F6000 X75.765 Y55.401 Z0.435
M205 X8 Y8
G1 F480 Z0.36
G1 F1800 E270.01007
G1 F1125 X150.807 Y130.442 E282.71707
M205 X10 Y10
G1 F1800 E276.71707
G1 F480 Z0.435
