;FLAVOR:Marlin
;TIME:6697
;Filament used: 2.75363m
;Layer height: 0.1
;MINX:48.931
;MINY:17.735
;MINZ:0.12
;MAXX:166.88
;MAXY:123.443
;MAXZ:4.695
;POSTPROCESSED
;Generated with Cura_SteamEngine 5.0.0
M140 S60
M105
M190 S60
M104 S200
M105
M109 S200
M82 ;absolute extrusion mode
G21 ;metric values
G90 ;absolute positioning
M82 ;set extruder to absolute mode
M107 ;start with the fan off
G28 X0 Y0 ;move X/Y to min endstops
G28 Z0 ;move Z to min endstops
G1 Z15.0 F50 ;move the platform down 15mm
G92 E0 ;zero the extruded length
G1 F200 E3 ;extrude 3mm of feed stock
G92 E0 ;zero the extruded length again
G1 F50
G0 Y20 F50
M117 Printing...
G5
G92 E0
G92 E0
G1 F2400 E-6
;LAYER_COUNT:40
;LAYER:-7
M107
M204 S3000
M205 X10 Y10
G0 F3000 X49.861 Y27.217 Z0.12
M204 S1800
M205 X8 Y8
;TYPE:SUPPORT-INTERFACE
G1 F2400 E0
G1 F1125 X49.53 Y28.214 E0.04193
G1 X49.267 Y29.237 E0.08409
G1 X49.104 Y30.117 E0.11981
G1 X48.979 Y31.195 E0.16312
G1 X48.932 Y32.343 E0.20898
G1 X48.931 Y45.274 E0.72508
G1 X48.948 Y45.959 E0.75243
G1 X49.032 Y47.016 E0.79475
G1 X49.193 Y48.062 E0.83699
G1 X49.433 Y49.114 E0.88006
G1 X49.747 Y50.133 E0.92261
G1 X50.131 Y51.121 E0.96492
G1 X50.592 Y52.089 E1.00771
G1 X51.114 Y53.005 E1.04979
G1 X51.718 Y53.904 E1.09302
G1 X52.373 Y54.744 E1.13553
G1 X53.086 Y55.529 E1.17786
G1 X53.848 Y56.257 E1.21992
G1 X54.687 Y56.946 E1.26325
G1 X55.563 Y57.563 E1.30602
G1 X56.46 Y58.103 E1.3478
G1 X57.43 Y58.594 E1.3912
G1 X58.426 Y59.008 E1.43425
G1 X59.413 Y59.335 E1.47575
G1 X60.434 Y59.598 E1.51783
G1 X61.316 Y59.761 E1.55362
G1 X62.39 Y59.886 E1.59678
G1 X63.522 Y59.933 E1.642
G1 X70.097 Y59.934 E1.90442
G1 X71.125 Y60.035 E1.94565
G1 X71.692 Y60.184 E1.96905
G1 X72.415 Y60.463 E1.99998
G1 X73.013 Y60.799 E2.02736
G1 X73.563 Y61.206 E2.05466
G1 X74.054 Y61.676 E2.08179
G1 X74.458 Y62.174 E2.10739
G1 X74.84 Y62.78 E2.13598
G1 X75.086 Y63.317 E2.15955
G1 X75.271 Y63.867 E2.18271
G1 X75.436 Y64.663 E2.21516
G1 X75.481 Y65.403 E2.24475
G1 X75.429 Y66.094 E2.2724
G1 X75.29 Y66.765 E2.29975
G1 X75.068 Y67.408 E2.3269
G1 X74.774 Y68.007 E2.35354
G1 X74.395 Y68.677 E2.38426
G1 X74.002 Y69.484 E2.42008
G1 X73.766 Y70.056 E2.44478
G1 X73.548 Y70.622 E2.46899
G1 X73.291 Y71.403 E2.5018
G1 X73.023 Y72.443 E2.54467
G1 X72.859 Y73.329 E2.58063
G1 X72.734 Y74.404 E2.62383
G1 X72.687 Y75.545 E2.66941
G1 X72.736 Y76.774 E2.7185
G1 X72.915 Y78.166 E2.77451
G1 X73.069 Y78.899 E2.80441
G1 X73.182 Y79.467 E2.82752
G1 X73.263 Y80.032 E2.8503
G1 X73.27 Y80.74 E2.87856
G1 X73.172 Y81.551 E2.91116
G1 X73.071 Y82.607 E2.9535
G1 X73.047 Y83.68 E2.99634
G1 X73.1 Y84.733 E3.03842
G1 X73.232 Y85.794 E3.08109
G1 X73.437 Y86.824 E3.12301
G1 X73.726 Y87.874 E3.16648
G1 X74.079 Y88.863 E3.20839
G1 X74.454 Y89.727 E3.24598
G1 X74.941 Y90.665 E3.28816
G1 X75.313 Y91.269 E3.31648
G1 X75.596 Y91.718 E3.33766
G1 X76.232 Y92.581 E3.38045
G1 X76.865 Y93.328 E3.41953
G1 X77.204 Y93.778 E3.44201
G1 X77.55 Y94.366 E3.46924
G1 X77.822 Y95.002 E3.49685
G1 X78.007 Y95.651 E3.52378
G1 X78.261 Y96.606 E3.56323
G1 X78.425 Y97.147 E3.58579
G1 X78.827 Y98.19 E3.6304
G1 X79.166 Y98.927 E3.66278
G1 X79.851 Y100.186 E3.71999
G1 X80.151 Y100.681 E3.74309
G1 X80.6 Y101.388 E3.77651
G1 X81.086 Y102.113 E3.81135
G1 X81.638 Y102.888 E3.84933
G1 X82.175 Y103.598 E3.88486
G1 X82.915 Y104.511 E3.93176
G1 X83.57 Y105.25 E3.97118
G1 X84.215 Y105.921 E4.00832
G1 X84.785 Y106.468 E4.03985
G1 X85.505 Y107.104 E4.0782
G1 X86.222 Y107.68 E4.1149
G1 X86.955 Y108.218 E4.15119
G1 X87.703 Y108.712 E4.18697
G1 X88.307 Y109.174 E4.21732
G1 X88.768 Y109.632 E4.24326
G1 X89.195 Y110.176 E4.27086
G1 X89.547 Y110.764 E4.29821
G1 X89.819 Y111.287 E4.32174
G1 X90.365 Y112.179 E4.36348
G1 X90.985 Y113.044 E4.40596
G1 X91.68 Y113.874 E4.44917
G1 X92.41 Y114.63 E4.49111
G1 X93.201 Y115.338 E4.53348
G1 X94.052 Y115.994 E4.57637
G1 X94.941 Y116.58 E4.61886
G1 X95.878 Y117.105 E4.66173
G1 X96.83 Y117.551 E4.70369
G1 X97.723 Y117.898 E4.74193
G1 X98.285 Y118.082 E4.76553
G1 X99.293 Y118.351 E4.80717
G1 X100.065 Y118.521 E4.83872
G1 X100.711 Y118.747 E4.86604
G1 X101.312 Y119.043 E4.89277
G1 X102.107 Y119.481 E4.929
G1 X103.104 Y119.98 E4.9735
G1 X103.611 Y120.214 E4.99579
G1 X104.594 Y120.639 E5.03853
G1 X105.141 Y120.855 E5.062
G1 X106.146 Y121.22 E5.10468
G1 X106.73 Y121.413 E5.12923
G1 X107.734 Y121.715 E5.17107
G1 X108.819 Y122.001 E5.21586
G1 X109.848 Y122.236 E5.25798
G1 X110.853 Y122.428 E5.29882
G1 X111.822 Y122.583 E5.33799
G1 X112.879 Y122.706 E5.38046
G1 X113.537 Y122.76 E5.40681
G1 X114.219 Y122.8 E5.43408
G1 X115.135 Y122.832 E5.47066
G1 X116.573 Y122.843 E5.52805
G1 X117.933 Y122.817 E5.58234
G1 X119.175 Y122.742 E5.632
G1 X120.121 Y122.639 E5.66999
G1 X121.078 Y122.502 E5.70857
G1 X122.6 Y122.251 E5.77014
G1 X123.28 Y122.225 E5.7973
G1 X123.942 Y122.283 E5.82382
G1 X124.707 Y122.41 E5.85477
G1 X125.34 Y122.592 E5.88106
G1 X125.933 Y122.795 E5.90608
G1 X126.992 Y123.078 E5.94983
G1 X128.031 Y123.277 E5.99205
G1 X129.114 Y123.4 E6.03555
G1 X130.179 Y123.443 E6.07809
G1 X131.217 Y123.412 E6.11954
G1 X132.281 Y123.3 E6.16224
G1 X133.319 Y123.117 E6.20431
G1 X134.357 Y122.852 E6.24707
G1 X135.384 Y122.505 E6.29033
G1 X136.358 Y122.098 E6.33246
G1 X137.304 Y121.619 E6.37478
G1 X138.22 Y121.066 E6.41749
G1 X139.098 Y120.444 E6.46044
G1 X139.929 Y119.76 E6.50339
G1 X140.694 Y119.031 E6.54557
G1 X141.288 Y118.384 E6.58062
G1 X141.886 Y117.661 E6.61807
G1 X142.369 Y117.203 E6.64464
G1 X142.92 Y116.794 E6.67203
G1 X143.505 Y116.466 E6.6988
G1 X144.137 Y116.21 E6.72601
G1 X144.794 Y116.035 E6.75315
G1 X145.473 Y115.944 E6.78049
G1 X146.152 Y115.939 E6.80759
G1 X147.22 Y116.09 E6.85064
G1 X147.811 Y116.185 E6.87453
G1 X148.612 Y116.296 E6.90681
G1 X149.141 Y116.362 E6.92808
G1 X149.953 Y116.431 E6.96061
G1 X150.773 Y116.48 E6.9934
G1 X152.046 Y116.466 E7.04421
G1 X152.783 Y116.403 E7.07373
G1 X153.489 Y116.335 E7.10204
G1 X154.061 Y116.248 E7.12513
G1 X154.793 Y116.103 E7.15491
G1 X155.698 Y115.895 E7.19198
G1 X156.68 Y115.596 E7.23295
G1 X157.65 Y115.229 E7.27434
G1 X158.905 Y114.638 E7.32971
G1 X159.57 Y114.255 E7.36033
G1 X160.091 Y113.948 E7.38447
G1 X160.762 Y113.494 E7.41681
G1 X161.615 Y112.833 E7.45988
G1 X162.41 Y112.122 E7.50244
G1 X163.142 Y111.365 E7.54447
G1 X163.827 Y110.543 E7.58718
G1 X164.451 Y109.675 E7.62985
G1 X165.004 Y108.768 E7.67224
G1 X165.492 Y107.824 E7.71466
G1 X165.911 Y106.846 E7.75712
G1 X166.257 Y105.826 E7.80011
G1 X166.527 Y104.805 E7.84226
G1 X166.72 Y103.769 E7.88432
G1 X166.84 Y102.688 E7.92773
G1 X166.88 Y101.606 E7.97095
G1 X166.835 Y100.469 E8.01636
G1 X166.712 Y99.384 E8.05995
G1 X166.518 Y98.358 E8.10162
G1 X166.246 Y97.324 E8.1443
G1 X165.891 Y96.302 E8.18748
G1 X165.474 Y95.329 E8.22973
G1 X164.907 Y94.245 E8.27855
G1 X164.437 Y93.456 E8.31521
G1 X163.752 Y92.474 E8.36299
G1 X163.375 Y91.992 E8.38742
G1 X162.932 Y91.472 E8.41468
G1 X162.461 Y90.947 E8.44283
G1 X161.553 Y90.073 E8.49313
G1 X161.028 Y89.638 E8.52035
G1 X160.579 Y89.275 E8.54339
G1 X159.323 Y88.421 E8.60401
G1 X158.823 Y88.129 E8.62712
G1 X157.755 Y87.547 E8.67567
G1 X156.981 Y87.18 E8.70985
G1 X156.308 Y86.885 E8.73918
G1 X155.517 Y86.568 E8.77319
G1 X154.678 Y86.21 E8.8096
G1 X153.843 Y85.847 E8.84594
G1 X153.257 Y85.497 E8.87318
G1 X152.75 Y85.102 E8.89884
G1 X152.273 Y84.63 E8.92562
G1 X151.846 Y84.085 E8.95325
G1 X151.496 Y83.495 E8.98063
G1 X151.225 Y82.868 E9.00789
G1 X151.035 Y82.216 E9.035
G1 X150.929 Y81.538 E9.06239
G1 X150.91 Y80.859 E9.0895
G1 X150.959 Y80.282 E9.11261
G1 X151.075 Y79.642 E9.13857
G1 X151.325 Y78.614 E9.1808
G1 X151.444 Y77.98 E9.20654
G1 X151.547 Y77.239 E9.2364
G1 X151.63 Y76.489 E9.26652
G1 X151.673 Y75.773 E9.29515
G1 X151.674 Y75.024 E9.32504
G1 X151.659 Y74.269 E9.35518
G1 X151.595 Y73.415 E9.38936
G1 X151.412 Y72.132 E9.44109
G1 X151.283 Y71.487 E9.46734
G1 X150.979 Y70.307 E9.51598
G1 X150.482 Y68.858 E9.57712
G1 X150.092 Y67.97 E9.61582
G1 X149.804 Y67.336 E9.64362
G1 X149.379 Y66.547 E9.67939
G1 X148.996 Y65.886 E9.70988
G1 X148.503 Y64.976 E9.75118
G1 X148.281 Y64.464 E9.77346
G1 X147.866 Y63.617 E9.8111
G1 X147.349 Y62.702 E9.85305
G1 X146.784 Y61.844 E9.89405
G1 X146.141 Y61.028 E9.93552
G1 X145.69 Y60.473 E9.96406
G1 X145.117 Y59.861 E9.99752
G1 X144.2 Y59.002 E10.04767
G1 X143.52 Y58.444 E10.08278
G1 X142.491 Y57.712 E10.13318
G1 X141.711 Y57.231 E10.16975
G1 X140.654 Y56.669 E10.21753
G1 X139.748 Y56.265 E10.25713
G1 X138.687 Y55.875 E10.30224
G1 X137.601 Y55.559 E10.34739
G1 X136.659 Y55.354 E10.38586
G1 X135.891 Y55.228 E10.41693
G1 X134.827 Y55.12 E10.45961
G1 X134.103 Y54.999 E10.48891
G1 X133.544 Y54.826 E10.51226
G1 X132.892 Y54.545 E10.5406
G1 X132.444 Y54.279 E10.56139
G1 X131.993 Y53.952 E10.58363
G1 X131.326 Y53.372 E10.61891
G1 X130.924 Y53.008 E10.64055
G1 X130.064 Y52.337 E10.68409
G1 X129.187 Y51.749 E10.72623
G1 X128.265 Y51.222 E10.76862
G1 X127.294 Y50.762 E10.8115
G1 X126.297 Y50.373 E10.85421
G1 X125.288 Y50.064 E10.89633
G1 X124.229 Y49.823 E10.93968
G1 X123.188 Y49.664 E10.98171
G1 X122.131 Y49.579 E11.02403
G1 X121.082 Y49.573 E11.0659
G1 X119.996 Y49.646 E11.10934
G1 X118.93 Y49.798 E11.15232
G1 X117.883 Y50.023 E11.19506
G1 X116.864 Y50.326 E11.23749
G1 X115.875 Y50.699 E11.27968
G1 X114.901 Y51.15 E11.32252
G1 X113.976 Y51.661 E11.3647
G1 X113.079 Y52.248 E11.40748
G1 X112.252 Y52.878 E11.44898
G1 X111.445 Y53.593 E11.49201
G1 X110.691 Y54.366 E11.53511
G1 X110.005 Y55.183 E11.57769
G1 X109.338 Y56.098 E11.62288
G1 X108.618 Y56.95 E11.6674
G1 X108.218 Y57.341 E11.68973
G1 X107.758 Y57.766 E11.71472
G1 X107.288 Y58.165 E11.73933
G1 X106.674 Y58.634 E11.77017
G1 X106.071 Y59.06 E11.79963
G1 X105.41 Y59.487 E11.83104
G1 X104.708 Y59.899 E11.86353
G1 X103.965 Y60.297 E11.89717
G1 X103.159 Y60.686 E11.93289
G1 X102.455 Y60.993 E11.96354
G1 X101.755 Y61.268 E11.99356
G1 X101.03 Y61.527 E12.02429
G1 X100.346 Y61.744 E12.05293
G1 X99.807 Y61.895 E12.07527
G1 X99.073 Y62.074 E12.10542
G1 X98.358 Y62.221 E12.13456
G1 X97.626 Y62.336 E12.16413
G1 X96.767 Y62.42 E12.19858
G1 X96.243 Y62.443 E12.21951
G1 X95.511 Y62.436 E12.24873
G1 X94.829 Y62.379 E12.27605
G1 X94.226 Y62.26 E12.30058
G1 X93.483 Y62.063 E12.33126
G1 X91.633 Y61.501 E12.40843
G1 X91.182 Y61.338 E12.42757
G1 X90.593 Y61.055 E12.45365
G1 X90.011 Y60.681 E12.48126
G1 X89.507 Y60.258 E12.50752
G1 X89.052 Y59.768 E12.53421
G1 X88.688 Y59.261 E12.55912
G1 X88.335 Y58.628 E12.58805
G1 X88.113 Y58.062 E12.61231
G1 X87.916 Y57.317 E12.64307
G1 X87.839 Y56.667 E12.66919
G1 X87.841 Y55.944 E12.69805
G1 X87.935 Y55.266 E12.72537
G1 X88.112 Y54.608 E12.75256
G1 X88.37 Y53.978 E12.77974
G1 X88.747 Y53.324 E12.80986
G1 X89.3 Y52.405 E12.85267
G1 X89.791 Y51.433 E12.89614
G1 X90.207 Y50.435 E12.93929
G1 X90.532 Y49.454 E12.98054
G1 X90.795 Y48.431 E13.02269
G1 X90.958 Y47.551 E13.05841
G1 X91.083 Y46.473 E13.10173
G1 X91.131 Y45.325 E13.14759
G1 X91.131 Y32.394 E13.66369
G1 X91.114 Y31.706 E13.69116
G1 X91.029 Y30.644 E13.73368
G1 X90.869 Y29.606 E13.7756
G1 X90.627 Y28.547 E13.81896
G1 X90.315 Y27.533 E13.8613
G1 X89.931 Y26.547 E13.90353
G1 X89.47 Y25.579 E13.94632
G1 X88.948 Y24.663 E13.9884
G1 X88.344 Y23.764 E14.03163
G1 X87.689 Y22.924 E14.07414
G1 X86.976 Y22.139 E14.11647
G1 X86.214 Y21.411 E14.15853
G1 X85.375 Y20.722 E14.20186
G1 X84.499 Y20.105 E14.24463
G1 X83.602 Y19.565 E14.28642
G1 X82.632 Y19.074 E14.32981
G1 X81.636 Y18.66 E14.37286
G1 X80.649 Y18.333 E14.41436
G1 X79.628 Y18.07 E14.45644
G1 X78.746 Y17.907 E14.49224
G1 X77.672 Y17.782 E14.53539
G1 X76.54 Y17.735 E14.58061
G1 X63.593 Y17.735 E15.09735
G1 X62.905 Y17.751 E15.12482
G1 X61.843 Y17.836 E15.16734
G1 X60.804 Y17.996 E15.2093
G1 X59.756 Y18.233 E15.25218
G1 X58.73 Y18.549 E15.29503
G1 X57.745 Y18.934 E15.33724
G1 X56.774 Y19.397 E15.38018
G1 X55.858 Y19.917 E15.42222
G1 X54.961 Y20.519 E15.46533
G1 X54.122 Y21.176 E15.50787
G1 X53.336 Y21.889 E15.55022
G1 X52.61 Y22.651 E15.59223
G1 X51.919 Y23.492 E15.63567
G1 X51.3 Y24.368 E15.67848
G1 X50.762 Y25.263 E15.72016
G1 X50.271 Y26.235 E15.76362
G1 X49.861 Y27.217 E15.8061
M204 S3000
M205 X10 Y10
G0 F3000 X50.172 Y27.544
M204 S1800
M205 X8 Y8
G1 F1125 X140.867 Y118.24 E20.92534
M204 S3000
M205 X10 Y10
G0 F3000 X139.744 Y119.38
M204 S1800
M205 X8 Y8
G1 F1125 X49.663 Y29.298 E26.00993
M204 S3000
M205 X10 Y10
G0 F3000 X49.375 Y31.273
M204 S1800
M205 X8 Y8
G1 F1125 X138.487 Y120.385 E31.0398
M204 S3000
M205 X10 Y10
G0 F3000 X137.108 Y121.268
M204 S1800
M205 X8 Y8
G1 F1125 X49.33 Y33.491 E35.99434
M204 S3000
M205 X10 Y10
G0 F3000 X49.33 Y35.754
M204 S1800
M205 X8 Y8
G1 F1125 X135.57 Y121.993 E40.86207
M204 S3000
M205 X10 Y10
G0 F3000 X133.875 Y122.561
M204 S1800
M205 X8 Y8
G1 F1125 X75.808 Y64.495 E44.13959
M204 S3000
M205 X10 Y10
G0 F3000 X75.715 Y66.664
M204 S1800
M205 X8 Y8
G1 F1125 X131.98 Y122.929 E47.31543
M204 S3000
M205 X10 Y10
G0 F3000 X129.816 Y123.028
M204 S1800
M205 X8 Y8
G1 F1125 X75.068 Y68.28 E50.40565
M204 S3000
M205 X10 Y10
G0 F3000 X74.316 Y69.79
M204 S1800
M205 X8 Y8
G1 F1125 X127.244 Y122.719 E53.39316
M204 S3000
M205 X10 Y10
G0 F3000 X124.181 Y121.918
M204 S1800
M205 X8 Y8
G1 F1125 X73.699 Y71.436 E56.24258
M204 S3000
M205 X10 Y10
G0 F3000 X73.275 Y73.275
M204 S1800
M205 X8 Y8
G1 F1125 X121.95 Y121.95 E58.99001
M204 S3000
M205 X10 Y10
G0 F3000 X119.987 Y122.25
M204 S1800
M205 X8 Y8
G1 F1125 X73.094 Y75.357 E61.63685
M204 S3000
M205 X10 Y10
G0 F3000 X73.273 Y77.798
M204 S1800
M205 X8 Y8
G1 F1125 X117.89 Y122.415 E64.15523
M204 S3000
M205 X10 Y10
G0 F3000 X115.646 Y122.434
M204 S1800
M205 X8 Y8
G1 F1125 X73.665 Y80.453 E66.52482
M204 S3000
M205 X10 Y10
G0 F3000 X73.48 Y82.531
M204 S1800
M205 X8 Y8
G1 F1125 X113.285 Y122.336 E68.77158
M204 S3000
M205 X10 Y10
G0 F3000 X110.671 Y121.985
M204 S1800
M205 X8 Y8
G1 F1125 X73.515 Y84.829 E70.86883
M204 S3000
M205 X10 Y10
G0 F3000 X74.08 Y87.657
M204 S1800
M205 X8 Y8
G1 F1125 X107.713 Y121.29 E72.76722
M204 S3000
M205 X10 Y10
G0 F3000 X104.181 Y120.02
M204 S1800
M205 X8 Y8
G1 F1125 X76.838 Y92.677 E74.31058
M204 S3000
M205 X10 Y10
G0 F3000 X78.756 Y96.858
M204 S1800
M205 X8 Y8
G1 F1125 X99.991 Y118.093 E75.50917
M204 S3000
M205 X10 Y10
G0 F3000 X96.667 Y117.032
M204 S1800
M205 X8 Y8
G1 F1125 X89.309 Y109.674 E75.92449
M204 S3000
M205 X10 Y10
G0 F3000 X88.301 Y108.666
M204 S1800
M205 X8 Y8
G1 F1125 X81.202 Y101.566 E76.32522
M204 S3000
M205 X10 Y10
G0 F3000 X91.179 Y61.763
M204 S1800
M205 X8 Y8
G1 F1125 X145.018 Y115.602 E79.36412
M204 S3000
M205 X10 Y10
G0 F3000 X143.289 Y116.136
M204 S1800
M205 X8 Y8
G1 F1125 X51.678 Y24.525 E84.53504
M204 S3000
M205 X10 Y10
G0 F3000 X52.648 Y23.232
M204 S1800
M205 X8 Y8
G1 F1125 X87.812 Y58.397 E86.51988
M204 S3000
M205 X10 Y10
G0 F3000 X87.457 Y55.779
M204 S1800
M205 X8 Y8
G1 F1125 X53.74 Y22.062 E88.42301
M204 S3000
M205 X10 Y10
G0 F3000 X54.964 Y21.023
M204 S1800
M205 X8 Y8
G1 F1125 X87.931 Y53.99 E90.28381
M204 S3000
M205 X10 Y10
G0 F3000 X88.748 Y52.545
M204 S1800
M205 X8 Y8
G1 F1125 X56.318 Y20.115 E92.1143
M204 S3000
M205 X10 Y10
G0 F3000 X57.811 Y19.345
M204 S1800
M205 X8 Y8
G1 F1125 X89.516 Y51.049 E93.90384
M204 S3000
M205 X10 Y10
G0 F3000 X90.128 Y49.399
M204 S1800
M205 X8 Y8
G1 F1125 X59.469 Y18.74 E95.63437
M204 S3000
M205 X10 Y10
G0 F3000 X61.314 Y18.322
M204 S1800
M205 X8 Y8
G1 F1125 X90.549 Y47.557 E97.28452
M204 S3000
M205 X10 Y10
G0 F3000 X90.723 Y45.469
M204 S1800
M205 X8 Y8
G1 F1125 X63.394 Y18.14 E98.82708
M204 S3000
M205 X10 Y10
G0 F3000 X65.652 Y18.135
M204 S1800
M205 X8 Y8
G1 F1125 X90.73 Y43.212 E100.24257
M204 S3000
M205 X10 Y10
G0 F3000 X90.73 Y40.949
M204 S1800
M205 X8 Y8
G1 F1125 X67.915 Y18.135 E101.53032
M204 S3000
M205 X10 Y10
G0 F3000 X70.178 Y18.135
M204 S1800
M205 X8 Y8
G1 F1125 X90.73 Y38.687 E102.69036
M204 S3000
M205 X10 Y10
G0 F3000 X90.73 Y36.424
M204 S1800
M205 X8 Y8
G1 F1125 X72.44 Y18.135 E103.7227
M204 S3000
M205 X10 Y10
G0 F3000 X74.703 Y18.135
M204 S1800
M205 X8 Y8
G1 F1125 X90.73 Y34.161 E104.6273
M204 S3000
M205 X10 Y10
G0 F3000 X90.717 Y31.886
M204 S1800
M205 X8 Y8
G1 F1125 X76.985 Y18.154 E105.4024
M204 S3000
M205 X10 Y10
G0 F3000 X79.56 Y18.466
M204 S1800
M205 X8 Y8
G1 F1125 X90.385 Y29.291 E106.01341
