;FLAVOR:Marlin
;TIME:6982
;Filament used: 2.82779m
;Layer height: 0.1
;MINX:77.906
;MINY:68.067
;MINZ:0.12
;MAXX:172.095
;MAXY:141.938
;MAXZ:6.695
;Generated with Cura_SteamEngine 5.0.0
M140 S60
M105
M190 S60
M104 S200
M105
M109 S200
M82 ;absolute extrusion mode
G21 ;metric values
G90 ;absolute positioning
M82 ;set extruder to absolute mode
M107 ;start with the fan off
G28 X0 Y0 ;move X/Y to min endstops
G28 Z0 ;move Z to min endstops
G1 Z15.0 F50 ;move the platform down 15mm
G92 E0 ;zero the extruded length
G1 F200 E3 ;extrude 3mm of feed stock
G92 E0 ;zero the extruded length again
G1 F50
G0 Y20 F50
M117 Printing...
G5
G92 E0
G92 E0
G1 F2400 E-6
;LAYER_COUNT:60
;LAYER:-7
M107
M204 S3000
M205 X10 Y10
G0 F3000 X81.611 Y84.275 Z0.12
M204 S1800
M205 X8 Y8
;TYPE:SUPPORT-INTERFACE
G1 F2400 E0
G1 F1125 X80.922 Y85.114 E0.04333
G1 X80.303 Y85.992 E0.08621
G1 X79.756 Y86.902 E0.12858
G1 X79.465 Y87.469 E0.15402
G1 X79.203 Y88.003 E0.17776
G1 X78.794 Y89.005 E0.22096
G1 X78.473 Y89.996 E0.26253
G1 X78.214 Y91.044 E0.30562
G1 X78.035 Y92.099 E0.34833
G1 X77.934 Y93.148 E0.39039
G1 X77.906 Y94.175 E0.43139
G1 X77.941 Y94.808 E0.4567
G1 X77.986 Y95.608 E0.48868
G1 X78.07 Y96.257 E0.5148
G1 X78.221 Y97.093 E0.5487
G1 X78.38 Y97.825 E0.5786
G1 X78.471 Y98.419 E0.60258
G1 X78.495 Y99.102 E0.62986
G1 X78.437 Y99.764 E0.65638
G1 X78.351 Y100.363 E0.68054
G1 X78.273 Y101.407 E0.72232
G1 X78.273 Y102.495 E0.76575
G1 X78.348 Y103.538 E0.80748
G1 X78.502 Y104.596 E0.85015
G1 X78.729 Y105.629 E0.89237
G1 X79.037 Y106.659 E0.93527
G1 X79.415 Y107.649 E0.97757
G1 X79.736 Y108.353 E1.00845
G1 X80.239 Y109.304 E1.05139
G1 X80.795 Y110.188 E1.09307
G1 X81.442 Y111.068 E1.13666
G1 X82.315 Y112.126 E1.19141
G1 X82.682 Y112.706 E1.21881
G1 X82.971 Y113.328 E1.24618
G1 X83.178 Y113.975 E1.27329
G1 X83.435 Y114.991 E1.31512
G1 X83.847 Y116.204 E1.36625
G1 X84.1 Y116.802 E1.39217
G1 X84.477 Y117.592 E1.4271
G1 X84.788 Y118.189 E1.45397
G1 X85.047 Y118.643 E1.47483
G1 X85.367 Y119.174 E1.49957
G1 X85.791 Y119.842 E1.53115
G1 X86.302 Y120.609 E1.56794
G1 X86.843 Y121.369 E1.60517
G1 X87.327 Y122.012 E1.63729
G1 X87.788 Y122.594 E1.66693
G1 X88.145 Y123.023 E1.6892
G1 X88.779 Y123.741 E1.72743
G1 X89.506 Y124.492 E1.76915
G1 X90.144 Y125.095 E1.80419
G1 X90.959 Y125.791 E1.84696
G1 X91.356 Y126.106 E1.86719
G1 X92.379 Y126.852 E1.91772
G1 X92.868 Y127.176 E1.94114
G1 X93.531 Y127.677 E1.9743
G1 X94.003 Y128.148 E2.00092
G1 X94.415 Y128.677 E2.02768
G1 X94.765 Y129.267 E2.05506
G1 X95.001 Y129.718 E2.07537
G1 X95.566 Y130.645 E2.1187
G1 X96.181 Y131.506 E2.16093
G1 X96.85 Y132.316 E2.20286
G1 X97.603 Y133.098 E2.24619
G1 X98.387 Y133.804 E2.2883
G1 X99.209 Y134.444 E2.32988
G1 X100.095 Y135.034 E2.37236
G1 X101.051 Y135.574 E2.41619
G1 X102.005 Y136.028 E2.45835
G1 X102.607 Y136.27 E2.48425
G1 X103.632 Y136.615 E2.52742
G1 X104.505 Y136.846 E2.56346
G1 X105.273 Y137.014 E2.59484
G1 X105.921 Y137.239 E2.62221
G1 X106.521 Y137.534 E2.6489
G1 X107.245 Y137.934 E2.68191
G1 X107.754 Y138.197 E2.70478
G1 X108.319 Y138.474 E2.72989
G1 X108.773 Y138.685 E2.74988
G1 X109.772 Y139.116 E2.7933
G1 X110.324 Y139.336 E2.81702
G1 X110.867 Y139.54 E2.84017
G1 X111.903 Y139.894 E2.88386
G1 X112.981 Y140.218 E2.92879
G1 X114.031 Y140.495 E2.97213
G1 X115.111 Y140.74 E3.01633
G1 X116.086 Y140.925 E3.05594
G1 X117.066 Y141.081 E3.09555
G1 X118.099 Y141.201 E3.13705
G1 X118.767 Y141.255 E3.1638
G1 X119.435 Y141.294 E3.19051
G1 X120.396 Y141.327 E3.22889
G1 X121.802 Y141.337 E3.28501
G1 X122.774 Y141.319 E3.32381
G1 X123.51 Y141.292 E3.3532
G1 X124.095 Y141.258 E3.37659
G1 X124.689 Y141.203 E3.4004
G1 X125.332 Y141.133 E3.42621
G1 X126.328 Y140.992 E3.46636
G1 X127.361 Y140.811 E3.50822
G1 X127.974 Y140.731 E3.53289
G1 X128.652 Y140.725 E3.55996
G1 X129.585 Y140.856 E3.59756
G1 X130.392 Y141.045 E3.63064
G1 X130.914 Y141.212 E3.65251
G1 X131.408 Y141.373 E3.67325
G1 X132.465 Y141.634 E3.71671
G1 X133.511 Y141.812 E3.75905
G1 X134.552 Y141.913 E3.8008
G1 X135.633 Y141.938 E3.84395
G1 X136.684 Y141.886 E3.88595
G1 X137.747 Y141.755 E3.9287
G1 X138.786 Y141.549 E3.97098
G1 X139.816 Y141.266 E4.01361
G1 X140.677 Y140.965 E4.05001
G1 X141.639 Y140.553 E4.09178
G1 X142.587 Y140.065 E4.13434
G1 X143.132 Y139.737 E4.15973
G1 X143.657 Y139.401 E4.1846
G1 X144.144 Y139.047 E4.20863
G1 X144.678 Y138.635 E4.23555
G1 X145.202 Y138.187 E4.26307
G1 X145.644 Y137.777 E4.28713
G1 X146.254 Y137.148 E4.3221
G1 X146.946 Y136.331 E4.36483
G1 X147.596 Y135.685 E4.40141
G1 X148.147 Y135.278 E4.42875
G1 X148.737 Y134.948 E4.45573
G1 X149.37 Y134.694 E4.48296
G1 X150.018 Y134.522 E4.50971
G1 X150.683 Y134.434 E4.53649
G1 X151.351 Y134.427 E4.56315
G1 X151.412 Y134.432 E4.56559
G1 X152.499 Y134.59 E4.60943
G1 X153.185 Y134.702 E4.63717
G1 X154.209 Y134.839 E4.67841
G1 X155.731 Y134.963 E4.73936
G1 X156.59 Y134.968 E4.77364
G1 X157.256 Y134.96 E4.80023
G1 X157.996 Y134.898 E4.82986
G1 X158.715 Y134.828 E4.8587
G1 X159.479 Y134.712 E4.88954
G1 X160.394 Y134.515 E4.9269
G1 X160.894 Y134.391 E4.94746
G1 X161.493 Y134.211 E4.97242
G1 X162.355 Y133.917 E5.00877
G1 X162.862 Y133.725 E5.03041
G1 X164.129 Y133.126 E5.08634
G1 X164.819 Y132.728 E5.11814
G1 X165.344 Y132.416 E5.14251
G1 X166.289 Y131.76 E5.18842
G1 X167.118 Y131.085 E5.23109
G1 X167.899 Y130.348 E5.27395
G1 X168.622 Y129.558 E5.31669
G1 X169.274 Y128.731 E5.35872
G1 X169.875 Y127.842 E5.40155
G1 X170.409 Y126.917 E5.44418
G1 X170.869 Y125.962 E5.48649
G1 X171.26 Y124.97 E5.52905
G1 X171.581 Y123.943 E5.57199
G1 X171.824 Y122.912 E5.61427
G1 X171.964 Y122.06 E5.64873
G1 X172.042 Y121.312 E5.67875
G1 X172.08 Y120.793 E5.69952
G1 X172.095 Y120.028 E5.73006
G1 X172.078 Y119.452 E5.75306
G1 X172.047 Y118.914 E5.77456
G1 X171.986 Y118.34 E5.7976
G1 X171.867 Y117.541 E5.82984
G1 X171.673 Y116.617 E5.86753
G1 X171.481 Y115.878 E5.898
G1 X171.138 Y114.871 E5.94046
G1 X170.715 Y113.875 E5.98365
G1 X170.123 Y112.733 E6.03499
G1 X169.737 Y112.083 E6.06516
G1 X169.074 Y111.107 E6.11225
G1 X168.598 Y110.487 E6.14345
G1 X167.809 Y109.585 E6.19128
G1 X166.76 Y108.561 E6.24979
G1 X166.219 Y108.112 E6.27785
G1 X165.789 Y107.764 E6.29993
G1 X164.485 Y106.881 E6.36278
G1 X164.05 Y106.623 E6.38297
G1 X163.295 Y106.206 E6.41739
G1 X162.791 Y105.955 E6.43987
G1 X162.217 Y105.684 E6.4652
G1 X161.586 Y105.407 E6.49271
G1 X160.84 Y105.102 E6.52487
G1 X159.422 Y104.51 E6.5862
G1 X158.93 Y104.273 E6.608
G1 X158.354 Y103.907 E6.63524
G1 X157.823 Y103.471 E6.66266
G1 X157.359 Y102.976 E6.68974
G1 X156.965 Y102.43 E6.71661
G1 X156.638 Y101.839 E6.74357
G1 X156.39 Y101.208 E6.77063
G1 X156.22 Y100.551 E6.79771
G1 X156.133 Y99.875 E6.82492
G1 X156.131 Y99.809 E6.82755
G1 X156.175 Y98.779 E6.8687
G1 X156.295 Y98.115 E6.89563
G1 X156.564 Y97.002 E6.94133
G1 X156.703 Y96.144 E6.97602
G1 X156.798 Y95.501 E7.00197
G1 X156.851 Y94.728 E7.03289
G1 X156.891 Y94.097 E7.05813
G1 X156.896 Y93.593 E7.07824
G1 X156.863 Y92.737 E7.11243
G1 X156.797 Y91.78 E7.15072
G1 X156.605 Y90.503 E7.20226
G1 X156.426 Y89.721 E7.23428
G1 X156.26 Y89.036 E7.26241
G1 X155.956 Y88.103 E7.30157
G1 X155.711 Y87.392 E7.33159
G1 X155.517 Y86.923 E7.35185
G1 X155.063 Y85.919 E7.39582
G1 X154.64 Y85.128 E7.43163
G1 X154.347 Y84.602 E7.45566
G1 X153.844 Y83.715 E7.49636
G1 X153.581 Y83.164 E7.52072
G1 X153.356 Y82.658 E7.54283
G1 X152.905 Y81.803 E7.58141
G1 X152.643 Y81.325 E7.60316
G1 X152.159 Y80.568 E7.63902
G1 X151.526 Y79.7 E7.6819
G1 X151.053 Y79.132 E7.7114
G1 X150.236 Y78.258 E7.75915
G1 X149.532 Y77.597 E7.7977
G1 X148.595 Y76.832 E7.84598
G1 X147.923 Y76.35 E7.87898
G1 X146.909 Y75.714 E7.92675
G1 X145.928 Y75.189 E7.97116
G1 X144.936 Y74.746 E8.01452
G1 X143.658 Y74.29 E8.06868
G1 X142.861 Y74.077 E8.10161
G1 X142.298 Y73.932 E8.12481
G1 X141.416 Y73.768 E8.16062
G1 X140.234 Y73.627 E8.20813
G1 X139.325 Y73.491 E8.24481
G1 X138.686 Y73.295 E8.27149
G1 X138.068 Y73.018 E8.29852
G1 X137.482 Y72.661 E8.32591
G1 X136.949 Y72.237 E8.35309
G1 X136.123 Y71.489 E8.39757
G1 X135.274 Y70.826 E8.44056
G1 X134.408 Y70.246 E8.48216
G1 X133.478 Y69.716 E8.52488
G1 X132.502 Y69.253 E8.568
G1 X131.505 Y68.864 E8.61071
G1 X130.491 Y68.556 E8.65301
G1 X129.463 Y68.32 E8.6951
G1 X128.418 Y68.159 E8.73731
G1 X127.35 Y68.074 E8.78007
G1 X126.298 Y68.067 E8.82205
G1 X125.233 Y68.137 E8.86465
G1 X124.152 Y68.291 E8.90823
G1 X123.128 Y68.509 E8.95002
G1 X122.087 Y68.817 E8.99335
G1 X121.11 Y69.185 E9.03502
G1 X120.135 Y69.633 E9.07784
G1 X119.198 Y70.152 E9.12059
G1 X118.301 Y70.739 E9.16338
G1 X117.459 Y71.382 E9.20566
G1 X116.656 Y72.09 E9.24839
G1 X115.915 Y72.85 E9.29076
G1 X115.221 Y73.677 E9.33385
G1 X114.573 Y74.565 E9.37772
G1 X113.818 Y75.459 E9.42443
G1 X113.321 Y75.944 E9.45214
G1 X112.606 Y76.576 E9.49023
G1 X111.895 Y77.126 E9.52611
G1 X111.278 Y77.562 E9.55626
G1 X110.633 Y77.977 E9.58687
G1 X109.901 Y78.405 E9.62071
G1 X109.172 Y78.794 E9.65369
G1 X108.386 Y79.175 E9.68856
G1 X107.655 Y79.493 E9.72037
G1 X106.992 Y79.755 E9.74883
G1 X106.233 Y80.025 E9.78098
G1 X105.6 Y80.226 E9.80749
G1 X104.986 Y80.398 E9.83294
G1 X104.076 Y80.614 E9.87027
G1 X103.363 Y80.752 E9.89925
G1 X102.83 Y80.831 E9.92076
G1 X102.278 Y80.892 E9.94292
G1 X101.613 Y80.933 E9.96951
G1 X101.056 Y80.939 E9.99175
G1 X100.443 Y80.917 E10.01623
G1 X99.759 Y80.823 E10.04378
G1 X99.231 Y80.702 E10.0654
G1 X98.693 Y80.555 E10.08766
G1 X96.739 Y79.966 E10.16912
G1 X95.667 Y79.689 E10.21331
G1 X94.6 Y79.498 E10.25657
G1 X93.545 Y79.387 E10.29891
G1 X92.485 Y79.354 E10.34124
G1 X91.425 Y79.398 E10.38358
G1 X90.373 Y79.517 E10.42584
G1 X89.309 Y79.721 E10.46908
G1 X88.284 Y79.991 E10.51138
G1 X87.313 Y80.326 E10.55238
G1 X86.77 Y80.548 E10.57579
G1 X85.779 Y81.019 E10.61959
G1 X84.863 Y81.541 E10.66167
G1 X83.964 Y82.145 E10.70489
G1 X83.124 Y82.8 E10.74741
G1 X82.339 Y83.513 E10.78973
G1 X81.611 Y84.275 E10.8318
M204 S3000
M205 X10 Y10
G0 F3000 X82.089 Y84.352
M204 S1800
M205 X8 Y8
G1 F1125 X138.851 Y141.114 E14.03569
M204 S3000
M205 X10 Y10
G0 F3000 X140.572 Y140.572
M204 S1800
M205 X8 Y8
G1 F1125 X83.237 Y83.237 E17.27192
M204 S3000
M205 X10 Y10
G0 F3000 X84.518 Y82.255
M204 S1800
M205 X8 Y8
G1 F1125 X142.117 Y139.855 E20.52309
M204 S3000
M205 X10 Y10
G0 F3000 X143.52 Y138.994
M204 S1800
M205 X8 Y8
G1 F1125 X85.922 Y81.397 E23.77414
M204 S3000
M205 X10 Y10
G0 F3000 X87.48 Y80.692
M204 S1800
M205 X8 Y8
G1 F1125 X144.794 Y138.006 E27.00919
M204 S3000
M205 X10 Y10
G0 F3000 X145.944 Y136.893
M204 S1800
M205 X8 Y8
G1 F1125 X89.211 Y80.16 E30.21144
M204 S3000
M205 X10 Y10
G0 F3000 X91.146 Y79.832
M204 S1800
M205 X8 Y8
G1 F1125 X147.013 Y135.7 E33.36485
M204 S3000
M205 X10 Y10
G0 F3000 X148.307 Y134.73
M204 S1800
M205 X8 Y8
G1 F1125 X93.357 Y79.781 E36.46644
M204 S3000
M205 X10 Y10
G0 F3000 X96.037 Y80.197
M204 S1800
M205 X8 Y8
G1 F1125 X149.965 Y134.126 E39.51039
M204 S3000
M205 X10 Y10
G0 F3000 X152.252 Y134.15
M204 S1800
M205 X8 Y8
G1 F1125 X99.209 Y81.107 E42.50437
M204 S3000
M205 X10 Y10
G0 F3000 X101.694 Y81.33
M204 S1800
M205 X8 Y8
G1 F1125 X154.853 Y134.488 E45.50486
M204 S3000
M205 X10 Y10
G0 F3000 X157.184 Y134.557
M204 S1800
M205 X8 Y8
G1 F1125 X103.718 Y81.091 E48.52272
M204 S3000
M205 X10 Y10
G0 F3000 X105.546 Y80.656
M204 S1800
M205 X8 Y8
G1 F1125 X159.234 Y134.343 E51.55307
M204 S3000
M205 X10 Y10
G0 F3000 X161.071 Y133.918
M204 S1800
M205 X8 Y8
G1 F1125 X107.24 Y80.087 E54.59153
M204 S3000
M205 X10 Y10
G0 F3000 X108.823 Y79.407
M204 S1800
M205 X8 Y8
G1 F1125 X162.749 Y133.334 E57.63537
M204 S3000
M205 X10 Y10
G0 F3000 X164.265 Y132.586
M204 S1800
M205 X8 Y8
G1 F1125 X110.308 Y78.63 E60.68091
M204 S3000
M205 X10 Y10
G0 F3000 X111.697 Y77.756
M204 S1800
M205 X8 Y8
G1 F1125 X165.653 Y131.712 E63.72642
M204 S3000
M205 X10 Y10
G0 F3000 X166.921 Y130.717
M204 S1800
M205 X8 Y8
G1 F1125 X112.982 Y76.778 E66.77097
M204 S3000
M205 X10 Y10
G0 F3000 X114.151 Y75.684
M204 S1800
M205 X8 Y8
G1 F1125 X168.053 Y129.587 E69.81346
M204 S3000
M205 X10 Y10
G0 F3000 X169.061 Y128.332
M204 S1800
M205 X8 Y8
G1 F1125 X115.162 Y74.433 E72.85575
M204 S3000
M205 X10 Y10
G0 F3000 X116.165 Y73.173
M204 S1800
M205 X8 Y8
G1 F1125 X169.933 Y126.941 E75.89065
M204 S3000
M205 X10 Y10
G0 F3000 X170.658 Y125.403
M204 S1800
M205 X8 Y8
G1 F1125 X117.305 Y72.05 E78.90212
M204 S3000
M205 X10 Y10
G0 F3000 X118.563 Y71.045
M204 S1800
M205 X8 Y8
G1 F1125 X171.225 Y123.707 E81.87459
M204 S3000
M205 X10 Y10
G0 F3000 X171.587 Y121.807
M204 S1800
M205 X8 Y8
G1 F1125 X119.964 Y70.184 E84.78842
M204 S3000
M205 X10 Y10
G0 F3000 X121.505 Y69.462
M204 S1800
M205 X8 Y8
G1 F1125 X171.683 Y119.64 E87.62068
M204 S3000
M205 X10 Y10
G0 F3000 X171.354 Y117.048
M204 S1800
M205 X8 Y8
G1 F1125 X159.108 Y104.802 E88.3119
M204 S3000
M205 X10 Y10
G0 F3000 X156.247 Y101.942
M204 S1800
M205 X8 Y8
G1 F1125 X123.208 Y68.902 E90.17679
M204 S3000
M205 X10 Y10
G0 F3000 X125.124 Y68.556
M204 S1800
M205 X8 Y8
G1 F1125 X155.756 Y99.187 E91.90577
M204 S3000
M205 X10 Y10
G0 F3000 X156.086 Y97.255
M204 S1800
M205 X8 Y8
G1 F1125 X127.305 Y68.474 E93.53029
M204 S3000
M205 X10 Y10
G0 F3000 X129.932 Y68.838
M204 S1800
M205 X8 Y8
G1 F1125 X156.409 Y95.315 E95.02477
M204 S3000
M205 X10 Y10
G0 F3000 X156.476 Y93.119
M204 S1800
M205 X8 Y8
G1 F1125 X133.608 Y70.251 E96.31553
M204 S3000
M205 X10 Y10
G0 F3000 X139.549 Y73.93
M204 S1800
M205 X8 Y8
G1 F1125 X156.21 Y90.59 E97.25592
M204 S3000
M205 X10 Y10
G0 F3000 X155.276 Y87.394
M204 S1800
M205 X8 Y8
G1 F1125 X142.204 Y74.322 E97.99376
M204 S3000
M205 X10 Y10
G0 F3000 X145.647 Y75.502
M204 S1800
M205 X8 Y8
G1 F1125 X153.01 Y82.865 E98.40936
M204 S3000
M205 X10 Y10
G0 F3000 X156.821 Y101.046
G0 X157.048 Y101.625
G0 X157.349 Y102.175
G0 X158.14 Y103.134
G0 X163.162 Y106.594
M204 S1800
M205 X8 Y8
G1 F1125 X170.071 Y113.502 E98.79931
M204 S3000
M205 X10 Y10
G0 F3000 X136.926 Y141.451
M204 S1800
M205 X8 Y8
G1 F1125 X81.07 Y85.595 E101.95206
M204 S3000
M205 X10 Y10
G0 F3000 X80.188 Y86.976
M204 S1800
M205 X8 Y8
G1 F1125 X134.727 Y141.516 E105.03051
M204 S3000
M205 X10 Y10
G0 F3000 X132.073 Y141.124
M204 S1800
M205 X8 Y8
G1 F1125 X79.436 Y88.487 E108.00157
M204 S3000
M205 X10 Y10
G0 F3000 X78.844 Y90.158
M204 S1800
M205 X8 Y8
G1 F1125 X129.065 Y140.379 E110.83626
M204 S3000
M205 X10 Y10
G0 F3000 X126.906 Y140.483
M204 S1800
M205 X8 Y8
G1 F1125 X78.452 Y92.029 E113.57121
M204 S3000
M205 X10 Y10
G0 F3000 X78.306 Y94.145
M204 S1800
M205 X8 Y8
G1 F1125 X124.933 Y140.772 E116.20304
M204 S3000
M205 X10 Y10
G0 F3000 X122.814 Y140.916
M204 S1800
M205 X8 Y8
G1 F1125 X78.531 Y96.633 E118.70257
M204 S3000
M205 X10 Y10
G0 F3000 X78.881 Y99.245
M204 S1800
M205 X8 Y8
G1 F1125 X120.561 Y140.926 E121.05519
M204 S3000
M205 X10 Y10
G0 F3000 X118.17 Y140.798
M204 S1800
M205 X8 Y8
G1 F1125 X78.681 Y101.308 E123.28415
M204 S3000
M205 X10 Y10
G0 F3000 X78.769 Y103.659
M204 S1800
M205 X8 Y8
G1 F1125 X115.518 Y140.408 E125.35842
M204 S3000
M205 X10 Y10
G0 F3000 X112.502 Y139.655
M204 S1800
M205 X8 Y8
G1 F1125 X79.439 Y106.592 E127.22464
M204 S3000
M205 X10 Y10
G0 F3000 X82.921 Y112.337
M204 S1800
M205 X8 Y8
G1 F1125 X108.873 Y138.289 E128.68948
M204 S3000
M205 X10 Y10
G0 F3000 X104.827 Y136.506
M204 S1800
M205 X8 Y8
G1 F1125 X84.143 Y115.821 E129.85701
M204 S3000
M205 X10 Y10
G0 F3000 X87.119 Y121.06
M204 S1800
M205 X8 Y8
G1 F1125 X92.512 Y126.454 E130.16144
M204 S3000
M205 X10 Y10
G0 F3000 X95.09 Y129.031
M204 S1800
M205 X8 Y8
G1 F1125 X101.315 Y135.256 E130.51281
M204 S3000
M205 X10 Y10
G0 F600 X101.315 Y135.256 Z0.27
G0 F3000 X145.221 Y137.631
;TIME_ELAPSED:183.932908
;LAYER:-6
M204 S1800
M205 X8 Y8
;TYPE:SUPPORT
G1 F1125 X145.662 Y137.18 E130.54428
M204 S3000
M205 X10 Y10
G0 F3000 X148.921 Y135.372
G0 X149.505 Y135.135
G0 X165.052 Y132.129
M204 S1800
M205 X8 Y8
G1 F1125 X165.924 Y131.531 E130.59703
G1 X166.713 Y130.903 E130.64734
G1 X167.49 Y130.19 E130.69995
G1 X168.204 Y129.429 E130.75201
G1 X168.311 Y129.304 E130.76022
G1 X168.956 Y128.489 E130.81207
G1 X169.44 Y127.783 E130.85478
G1 X169.786 Y127.197 E130.88873
G1 X164.571 Y132.413 E131.25671
G1 X164.077 Y132.704 E131.28531
G1 X162.707 Y133.356 E131.36101
G1 X161.914 Y133.656 E131.40331
G1 X170.948 Y124.622 E132.04071
